; generated by PrusaSlicer 2.7.1+win64 on 2024-07-28 at 06:05:55 UTC


;
;
; 

; external perimeters extrusion width = 0.60mm
; perimeters extrusion width = 0.50mm
; infill extrusion width = 0.50mm
; solid infill extrusion width = 0.50mm
; top infill extrusion width = 0.45mm
; support material extrusion width = 0.38mm
; first layer extrusion width = 0.42mm

M73 P0 R28
M73 Q0 S29
M201 X1000 Y1000 Z200 E5000 ; sets maximum accelerations, mm/sec^2
M203 X200 Y200 Z12 E120 ; sets maximum feedrates, mm / sec
M204 S1250 T1250 ; sets acceleration (S) and retract acceleration (R), mm/sec^2
M205 X8.00 Y8.00 Z0.40 E4.50 ; sets the jerk limits, mm/sec
M205 S0 T0 ; sets the minimum extruding and travel feed rate, mm/sec

; printing object CameraHolder_UsbCover_PassiveExt_TrippLite_Bottom.stl id:0 copy 0
; stop printing object CameraHolder_UsbCover_PassiveExt_TrippLite_Bottom.stl id:0 copy 0

;TYPE:Custom
M862.3 P "MK3S" ; printer model check
M862.1 P0.4 ; nozzle diameter check
G90 ; use absolute coordinates
M83 ; extruder relative mode
M104 S215 ; set extruder temp
M140 S60 ; set bed temp
M190 S60 ; wait for bed temp
M109 S215 ; wait for extruder temp
G28 W ; home all without mesh bed level
G80 ; mesh bed leveling

G1 Z0.2 F720
G1 Y-3 F1000 ; go outside print area
G92 E0
G1 X60 E9 F1000 ; intro line
G1 X100 E12.5 F1000 ; intro line

G92 E0
M221 S95

; Don't change E values below. Excessive value can damage the printer.

M907 E538 ; set extruder motor current
G21 ; set units to millimeters
G90 ; use absolute coordinates
M83 ; use relative distances for extrusion
M900 K0.05 ; Filament gcode LA 1.5
M900 K30 ; Filament gcode LA 1.0
M107
;LAYER_CHANGE
;Z:0.2
;HEIGHT:0.2
;BEFORE_LAYER_CHANGE
G92 E0.0
;0.2


G1 E-.8 F2100
G1 Z.2 F720
;AFTER_LAYER_CHANGE
;0.2
G1 X84.004 Y93.018 F10800
G1 Z.2 F720
G1 E.8 F2100
M204 S800
;TYPE:Skirt/Brim
;WIDTH:0.42
G1 F1200
G1 X85.653 Y91.929 E.06196
G1 X87.641 Y91.001 E.06879
G1 X88.743 Y90.597 E.0368
G1 X91.064 Y89.92 E.07581
G1 X93.806 Y89.345 E.08784
G1 X98.125 Y88.804 E.13648
G1 X102.636 Y88.623 E.14155
G1 X132.486 Y88.623 E.93593
G1 X137.798 Y88.766 E.16661
G1 X143.049 Y89.194 E.16519
G1 X148.054 Y89.9 E.15848
G1 X150.511 Y90.37 E.07843
G1 X154.859 Y91.449 E.14046
G1 X158.786 Y92.786 E.13007
G1 X160.675 Y93.605 E.06456
G1 X162.138 Y94.353 E.05152
G1 X163.581 Y95.225 E.05286
G1 X165.061 Y96.327 E.05786
G1 X165.973 Y97.17 E.03894
G1 X166.906 Y98.267 E.04515
G1 X167.833 Y99.884 E.05844
G1 X168.258 Y101.284 E.04587
G1 X168.377 Y102.455 E.0369
G1 X168.361 Y107.817 E.16812
G1 X168.143 Y109.223 E.04461
G1 X167.641 Y110.534 E.04402
G1 X167.127 Y111.416 E.03201
G1 X166.191 Y112.599 E.0473
G1 X165.061 Y113.673 E.04888
G1 X163.759 Y114.656 E.05115
G1 X162.294 Y115.56 E.05398
G1 X160.675 Y116.395 E.05712
G1 X158.908 Y117.166 E.06045
G1 X156.998 Y117.875 E.06388
G1 X154.956 Y118.522 E.06716
G1 X150.511 Y119.63 E.14363
G1 X145.661 Y120.476 E.15436
G1 X140.513 Y121.05 E.16241
G1 X135.182 Y121.34 E.1674
M73 Q0 S28
G1 X102.605 Y121.377 E1.02143
G1 X99.56 Y121.293 E.09551
G1 X96.58 Y121.047 E.09375
G1 X93.806 Y120.655 E.08784
G1 X91.153 Y120.102 E.08497
G1 X88.743 Y119.403 E.07868
G1 X87.52 Y118.95 E.04089
G1 X85.509 Y117.991 E.06986
G1 X84.004 Y116.982 E.05681
G1 X83.079 Y116.117 E.03971
G1 X82.179 Y114.835 E.04911
G1 X81.811 Y113.914 E.0311
G1 X81.624 Y112.643 E.04028
G1 X81.623 Y97.364 E.47906
G1 X81.695 Y96.599 E.02409
M73 P1 R28
M73 Q1 S28
G1 X81.808 Y96.099 E.01607
G1 X82.175 Y95.172 E.03126
G1 X83.074 Y93.89 E.04909
G1 X83.96 Y93.059 E.03809
M204 S1000
; printing object CameraHolder_UsbCover_PassiveExt_TrippLite_Bottom.stl id:0 copy 0
;WIPE_START
G1 F8640
G1 X84.004 Y93.018 E-.01389
G1 X85.653 Y91.929 E-.4563
G1 X86.948 Y91.325 E-.32981
;WIPE_END
G1 Z.6 F720
G1 X152.087 Y93.98 F10800
G1 Z.2 F720
G1 E.8 F2100
M204 S800
;TYPE:Perimeter
;WIDTH:0.419999
G1 F1200
G1 X154.02 Y94.5 E.06276
G1 X155.92 Y95.1 E.06247
G1 X157.67 Y95.746 E.05849
G1 X159.258 Y96.434 E.05426
G1 X160.672 Y97.157 E.04979
G1 X161.904 Y97.908 E.04524
G1 X162.943 Y98.678 E.04055
G1 X163.785 Y99.457 E.03597
G1 X164.425 Y100.232 E.03151
G1 X164.868 Y100.993 E.02761
G1 X165.125 Y101.732 E.02453
G1 X165.213 Y102.747 E.03194
G1 X165.213 Y107.5 E.14903
G1 X165.125 Y108.268 E.02424
G1 X164.868 Y109.007 E.02453
G1 X164.425 Y109.768 E.02761
G1 X163.785 Y110.543 E.03151
G1 X162.943 Y111.322 E.03597
G1 X161.904 Y112.092 E.04055
G1 X160.672 Y112.843 E.04524
G1 X159.258 Y113.566 E.04979
G1 X157.67 Y114.254 E.05426
G1 X155.92 Y114.9 E.05849
G1 X154.02 Y115.5 E.06247
G1 X151.982 Y116.048 E.06617
G1 X149.821 Y116.542 E.0695
G1 X147.549 Y116.976 E.07252
G1 X145.181 Y117.349 E.07516
G1 X142.734 Y117.657 E.07733
G1 X140.221 Y117.899 E.07916
G1 X137.66 Y118.073 E.08048
G1 X135.065 Y118.178 E.08143
G1 X132.449 Y118.213 E.08203
G1 X102.642 Y118.213 E.93458
G1 X101.195 Y118.194 E.04537
G1 X99.764 Y118.136 E.0449
G1 X98.35 Y118.04 E.04444
G1 X96.964 Y117.906 E.04366
G1 X96.07 Y117.794 E.02825
G1 X94.125 Y117.495 E.0617
G1 X92.881 Y117.251 E.03975
G1 X91.698 Y116.974 E.0381
G1 X90.585 Y116.666 E.03621
G1 X89.549 Y116.331 E.03414
G1 X88.599 Y115.969 E.03188
G1 X87.741 Y115.586 E.02946
G1 X86.984 Y115.184 E.02687
G1 X86.333 Y114.769 E.02421
G1 X85.795 Y114.348 E.02142
G1 X85.376 Y113.928 E.0186
G1 X85.034 Y113.449 E.01845
G1 X84.829 Y112.96 E.01663
G1 X84.787 Y112.591 E.01164
G1 X84.787 Y97.959 E.45878
G1 X84.8 Y97.292 E.02092
G1 X84.892 Y96.859 E.01388
G1 X85.163 Y96.33 E.01864
G1 X85.485 Y95.939 E.01588
G1 X85.922 Y95.535 E.01866
G1 X86.471 Y95.128 E.02143
G1 X87.131 Y94.726 E.02423
G1 X87.895 Y94.335 E.02691
G1 X88.758 Y93.962 E.02948
G1 X89.713 Y93.609 E.03192
G1 X90.754 Y93.28 E.03423
G1 X91.872 Y92.979 E.0363
G1 X93.06 Y92.708 E.03821
G1 X94.311 Y92.469 E.03993
G1 X95.615 Y92.264 E.04139
G1 X96.949 Y92.096 E.04216
G1 X98.35 Y91.96 E.04413
G1 X99.764 Y91.864 E.04444
G1 X101.195 Y91.806 E.0449
G1 X102.642 Y91.787 E.04537
G1 X132.881 Y91.793 E.94812
G1 X135.065 Y91.822 E.06848
G1 X137.66 Y91.927 E.08143
G1 X140.221 Y92.101 E.08048
G1 X142.734 Y92.343 E.07916
G1 X145.181 Y92.651 E.07733
G1 X147.549 Y93.024 E.07516
G1 X149.821 Y93.458 E.07252
G1 X151.982 Y93.952 E.0695
G1 X152.029 Y93.964 E.00152
M204 S1000
G1 X152.185 Y93.616 F10800
M204 S800
;TYPE:External perimeter
G1 F1200
G1 X154.126 Y94.138 E.06302
G1 X156.042 Y94.743 E.063
G1 X157.81 Y95.396 E.05909
G1 X159.418 Y96.093 E.05495
G1 X160.856 Y96.828 E.05064
G1 X162.115 Y97.595 E.04622
G1 X163.184 Y98.387 E.04171
G1 X164.06 Y99.197 E.03741
G1 X164.736 Y100.016 E.0333
G1 X165.213 Y100.835 E.02972
G1 X165.494 Y101.648 E.02697
G1 X165.559 Y102.211 E.01777
G1 X165.59 Y102.747 E.01683
G1 X165.59 Y107.522 E.14972
G1 X165.494 Y108.352 E.0262
G1 X165.213 Y109.165 E.02697
G1 X164.736 Y109.984 E.02972
G1 X164.06 Y110.803 E.0333
G1 X163.184 Y111.613 E.03741
G1 X162.115 Y112.405 E.04171
G1 X160.856 Y113.172 E.04622
G1 X159.418 Y113.907 E.05064
G1 X157.81 Y114.604 E.05495
G1 X156.042 Y115.257 E.05909
G1 X154.126 Y115.862 E.063
G1 X152.073 Y116.414 E.06666
G1 X149.898 Y116.911 E.06995
G1 X147.613 Y117.348 E.07294
G1 X145.234 Y117.722 E.07551
G1 X142.775 Y118.032 E.07771
G1 X140.252 Y118.275 E.07947
G1 X137.68 Y118.45 E.08083
G1 X135.075 Y118.555 E.08174
G1 X132.452 Y118.59 E.08225
G1 X102.639 Y118.59 E.93476
G1 X101.185 Y118.57 E.04559
G1 X99.743 Y118.512 E.04525
G1 X98.319 Y118.416 E.04475
G1 X96.923 Y118.281 E.04397
G1 X95.562 Y118.11 E.04301
G1 X94.246 Y117.902 E.04177
G1 X92.983 Y117.661 E.04031
G1 X91.781 Y117.387 E.03865
G1 X90.648 Y117.082 E.03679
G1 X89.591 Y116.748 E.03476
G1 X88.618 Y116.389 E.03252
G1 X87.734 Y116.006 E.03021
G1 X86.947 Y115.603 E.02772
G1 X86.26 Y115.185 E.02521
G1 X85.835 Y114.87 E.01659
G1 X85.356 Y114.455 E.01987
G1 X84.982 Y114.044 E.01742
G1 X84.604 Y113.46 E.02181
G1 X84.46 Y113.044 E.0138
G1 X84.41 Y112.613 E.0136
G1 X84.41 Y97.526 E.47304
G1 X84.46 Y96.956 E.01794
G1 X84.604 Y96.54 E.0138
G1 X84.852 Y96.113 E.01548
G1 X85.211 Y95.679 E.01766
G1 X85.681 Y95.245 E.02006
G1 X86.26 Y94.815 E.02261
G1 X86.947 Y94.397 E.02521
G1 X87.734 Y93.994 E.02772
G1 X88.618 Y93.611 E.03021
G1 X89.591 Y93.252 E.03252
M73 Q2 S28
G1 X90.648 Y92.918 E.03476
G1 X91.781 Y92.613 E.03679
M73 P2 R28
G1 X92.983 Y92.339 E.03865
G1 X94.246 Y92.098 E.04031
G1 X95.562 Y91.89 E.04177
G1 X96.907 Y91.721 E.0425
G1 X98.319 Y91.584 E.04448
G1 X99.743 Y91.488 E.04475
G1 X101.185 Y91.43 E.04525
G1 X102.639 Y91.41 E.04559
G1 X132.883 Y91.416 E.94828
G1 X135.075 Y91.445 E.06873
G1 X137.68 Y91.55 E.08174
G1 X140.252 Y91.725 E.08083
G1 X142.775 Y91.968 E.07947
G1 X145.234 Y92.278 E.07771
G1 X147.613 Y92.652 E.07551
G1 X149.898 Y93.089 E.07294
G1 X152.073 Y93.586 E.06995
G1 X152.127 Y93.6 E.00175
M204 S1000
;WIPE_START
G1 F8640
G1 X152.185 Y93.616 E-.01389
G1 X154.126 Y94.138 E-.46411
G1 X155.456 Y94.558 E-.322
;WIPE_END
G1 Z.6 F720
G1 X162.144 Y98.297 F10800
G1 Z.2 F720
G1 E.8 F2100
M204 S800
;TYPE:Solid infill
;WIDTH:0.4209
G1 F1200
G1 X163.539 Y99.692 E.062
G1 X164.146 Y100.427 E.02996
G1 X164.559 Y101.135 E.02576
G1 X164.617 Y101.305 E.00565
G1 X161.171 Y97.859 E.15317
G1 X160.506 Y97.453 E.02449
G1 X159.944 Y97.166 E.01983
G1 X164.818 Y102.04 E.21664
G1 X164.874 Y102.63 E.01863
G1 X158.887 Y96.643 E.26611
G1 X157.944 Y96.235 E.03229
G1 X164.874 Y103.165 E.30802
G1 X164.874 Y103.699 E.01678
G1 X157.056 Y95.881 E.34749
G1 X156.208 Y95.568 E.02841
G1 X164.874 Y104.234 E.38518
G1 X164.874 Y104.768 E.01678
G1 X155.395 Y95.29 E.4213
G1 X154.614 Y95.044 E.02574
G1 X164.874 Y105.303 E.45601
G1 X164.874 Y105.837 E.01678
G1 X153.839 Y94.803 E.49046
G1 X153.108 Y94.606 E.02379
G1 X164.874 Y106.372 E.52297
G1 X164.874 Y106.906 E.01678
G1 X152.376 Y94.409 E.55548
G1 X151.658 Y94.226 E.02329
G1 X164.874 Y107.441 E.5874
G1 X164.823 Y107.925 E.0153
G1 X150.966 Y94.068 E.61591
G1 X150.273 Y93.91 E.02234
G1 X164.731 Y108.368 E.64262
G1 X164.593 Y108.764 E.01318
G1 X149.588 Y93.76 E.66691
G1 X148.928 Y93.633 E.02112
G1 X164.412 Y109.117 E.68823
G1 X164.215 Y109.455 E.0123
G1 X148.267 Y93.507 E.70885
G1 X147.606 Y93.38 E.02115
G1 X163.989 Y109.763 E.72818
G1 X163.747 Y110.056 E.01194
M73 P3 R27
M73 Q3 S28
G1 X146.967 Y93.276 E.74583
G1 X146.332 Y93.176 E.0202
G1 X163.5 Y110.344 E.76308
G1 X163.223 Y110.601 E.01188
G1 X145.698 Y93.076 E.77894
G1 X145.066 Y92.979 E.0201
G1 X162.945 Y110.858 E.79468
G1 X162.661 Y111.109 E.01191
G1 X144.454 Y92.902 E.80926
G1 X143.843 Y92.825 E.01936
G1 X162.354 Y111.336 E.82277
G1 X162.047 Y111.564 E.01202
G1 X143.231 Y92.748 E.83633
G1 X142.622 Y92.673 E.01928
G1 X161.74 Y111.791 E.84975
G1 X161.41 Y111.996 E.01221
G1 X142.031 Y92.616 E.86137
G1 X141.439 Y92.559 E.01869
G1 X161.078 Y112.198 E.87291
G1 X160.746 Y112.401 E.01223
G1 X140.848 Y92.502 E.88444
G1 X140.256 Y92.445 E.01869
G1 X160.408 Y112.597 E.89571
G1 X160.054 Y112.778 E.0125
M73 P4 R27
G1 X139.681 Y92.404 E.90555
G1 X139.107 Y92.366 E.01808
M73 Q4 S28
G1 X159.7 Y112.959 E.91531
G1 X159.347 Y113.139 E.01245
G1 X138.534 Y92.327 E.92506
G1 X137.96 Y92.288 E.01808
M73 Q4 S27
G1 X158.986 Y113.314 E.93455
G1 X158.613 Y113.475 E.01277
G1 X137.394 Y92.256 E.94313
G1 X136.837 Y92.233 E.01752
G1 X158.24 Y113.637 E.95133
G1 X157.867 Y113.798 E.01277
G1 X136.28 Y92.211 E.95949
G1 X135.723 Y92.188 E.01752
G1 X157.492 Y113.958 E.9676
G1 X157.102 Y114.102 E.01307
G1 X135.166 Y92.166 E.975
G1 X134.621 Y92.156 E.01713
G1 X156.711 Y114.246 E.98185
G1 X156.321 Y114.39 E.01307
G1 X134.079 Y92.148 E.9886
G1 X133.537 Y92.141 E.01704
G1 X155.931 Y114.534 E.99534
G1 X155.529 Y114.668 E.01332
M73 P5 R27
M73 Q5 S27
G1 X132.995 Y92.134 E1.00158
G1 X132.459 Y92.132 E.01685
G1 X155.123 Y114.796 E1.00736
G1 X154.717 Y114.924 E.01338
G1 X131.925 Y92.132 E1.01305
G1 X131.39 Y92.132 E.01681
G1 X154.31 Y115.052 E1.01874
G1 X153.903 Y115.18 E.01341
G1 X130.855 Y92.132 E1.02443
G1 X130.321 Y92.132 E.01678
G1 X153.482 Y115.293 E1.02945
G1 X153.061 Y115.407 E.01371
G1 X129.786 Y92.132 E1.03452
G1 X129.251 Y92.132 E.01681
G1 X152.64 Y115.52 E1.03956
G1 X152.219 Y115.633 E.0137
G1 X128.717 Y92.131 E1.04461
G1 X128.182 Y92.131 E.01681
G1 X151.794 Y115.743 E1.0495
G1 X151.359 Y115.843 E.01403
M73 P6 R27
M73 Q6 S27
G1 X127.647 Y92.131 E1.05394
G1 X127.113 Y92.131 E.01678
G1 X150.924 Y115.942 E1.05834
G1 X150.488 Y116.041 E.01405
G1 X126.578 Y92.131 E1.06274
G1 X126.044 Y92.131 E.01678
G1 X150.053 Y116.14 E1.06714
G1 X149.614 Y116.236 E.01412
G1 X125.509 Y92.131 E1.07141
G1 X124.974 Y92.131 E.01681
M73 P6 R26
G1 X149.165 Y116.321 E1.07521
G1 X148.716 Y116.407 E.01437
G1 X124.44 Y92.131 E1.07901
G1 X123.905 Y92.131 E.01681
G1 X148.267 Y116.493 E1.08283
G1 X147.819 Y116.579 E.01434
G1 X123.37 Y92.13 E1.0867
G1 X122.836 Y92.13 E.01678
G1 X147.366 Y116.661 E1.09032
G1 X146.905 Y116.734 E.01467
M73 P7 R26
G1 X122.301 Y92.13 E1.09359
M73 Q7 S27
G1 X121.766 Y92.13 E.01681
G1 X146.443 Y116.807 E1.09683
G1 X145.981 Y116.879 E.0147
G1 X121.232 Y92.13 E1.10003
G1 X120.697 Y92.13 E.01681
G1 X145.519 Y116.952 E1.10328
G1 X145.055 Y117.023 E.01475
G1 X120.162 Y92.13 E1.10643
G1 X119.628 Y92.13 E.01678
G1 X144.58 Y117.082 E1.10906
G1 X144.106 Y117.142 E.01502
G1 X119.093 Y92.13 E1.11174
G1 X118.558 Y92.13 E.01681
M73 Q7 S26
G1 X143.631 Y117.202 E1.11441
G1 X143.156 Y117.262 E.01505
G1 X118.024 Y92.129 E1.11708
G1 X117.489 Y92.129 E.01681
G1 X142.681 Y117.321 E1.11972
G1 X142.193 Y117.368 E.01541
M73 P8 R26
M73 Q8 S26
G1 X116.955 Y92.129 E1.12179
G1 X116.42 Y92.129 E.01681
G1 X141.706 Y117.415 E1.1239
G1 X141.218 Y117.462 E.01541
G1 X115.885 Y92.129 E1.12599
G1 X115.351 Y92.129 E.01678
G1 X140.731 Y117.509 E1.12808
G1 X140.243 Y117.556 E.01541
G1 X114.816 Y92.129 E1.13017
G1 X114.281 Y92.129 E.01681
G1 X139.744 Y117.591 E1.13175
G1 X139.243 Y117.625 E.01578
G1 X113.747 Y92.129 E1.13323
G1 X113.212 Y92.128 E.01681
G1 X138.743 Y117.659 E1.13479
G1 X138.242 Y117.693 E.01578
G1 X112.677 Y92.128 E1.1363
G1 X112.143 Y92.128 E.01678
M73 P9 R26
G1 X137.742 Y117.727 E1.13781
G1 X137.231 Y117.751 E.01608
M73 Q9 S26
G1 X111.608 Y92.128 E1.13888
G1 X111.073 Y92.128 E.01681
G1 X136.717 Y117.771 E1.13979
G1 X136.203 Y117.792 E.01617
G1 X110.539 Y92.128 E1.1407
G1 X110.004 Y92.128 E.01681
G1 X135.689 Y117.813 E1.14164
G1 X135.175 Y117.834 E.01617
G1 X109.469 Y92.128 E1.14257
G1 X108.935 Y92.128 E.01678
G1 X134.651 Y117.844 E1.14301
G1 X134.124 Y117.851 E.01656
G1 X108.4 Y92.128 E1.14335
G1 X107.866 Y92.127 E.01678
G1 X133.596 Y117.858 E1.14366
G1 X133.069 Y117.865 E.01656
M73 P10 R25
G1 X107.331 Y92.127 E1.14399
G1 X106.796 Y92.127 E.01681
M73 Q10 S26
G1 X132.541 Y117.872 E1.1443
G1 X132.008 Y117.874 E.01675
G1 X106.262 Y92.127 E1.14437
G1 X105.727 Y92.127 E.01681
G1 X131.473 Y117.874 E1.14437
G1 X130.939 Y117.874 E.01678
G1 X105.192 Y92.127 E1.14439
G1 X104.658 Y92.127 E.01678
G1 X130.404 Y117.874 E1.14437
G1 X129.87 Y117.874 E.01678
G1 X104.123 Y92.127 E1.14439
G1 X103.588 Y92.127 E.01681
G1 X129.335 Y117.874 E1.14439
G1 X128.801 Y117.874 E.01678
G1 X103.054 Y92.127 E1.14439
G1 X102.522 Y92.129 E.01672
G1 X128.266 Y117.874 E1.14428
G1 X127.732 Y117.874 E.01678
M73 P11 R25
G1 X101.994 Y92.136 E1.14399
G1 X101.466 Y92.142 E.0166
M73 Q11 S25
G1 X127.197 Y117.874 E1.1437
G1 X126.663 Y117.874 E.01678
G1 X100.945 Y92.156 E1.1431
G1 X100.431 Y92.177 E.01617
G1 X126.128 Y117.874 E1.14217
G1 X125.593 Y117.874 E.01681
G1 X99.918 Y92.198 E1.14121
G1 X99.414 Y92.228 E.01587
G1 X125.059 Y117.874 E1.13988
G1 X124.524 Y117.874 E.01681
G1 X98.913 Y92.262 E1.13837
G1 X98.413 Y92.296 E.01575
G1 X123.99 Y117.874 E1.13686
G1 X123.455 Y117.874 E.01681
G1 X97.924 Y92.342 E1.13481
G1 X97.437 Y92.39 E.01538
M73 P12 R25
G1 X122.921 Y117.874 E1.1327
G1 X122.386 Y117.874 E.01681
M73 Q12 S25
G1 X96.95 Y92.438 E1.13057
G1 X96.476 Y92.497 E.01501
G1 X121.852 Y117.874 E1.12792
G1 X121.317 Y117.874 E.01681
G1 X96.001 Y92.557 E1.12526
G1 X95.53 Y92.621 E.01494
G1 X120.783 Y117.874 E1.12243
G1 X120.248 Y117.874 E.01681
G1 X95.068 Y92.693 E1.11921
G1 X94.606 Y92.766 E.0147
G1 X119.713 Y117.874 E1.11597
G1 X119.179 Y117.874 E.01678
G1 X94.151 Y92.845 E1.11246
G1 X93.702 Y92.931 E.01437
G1 X118.644 Y117.874 E1.10863
