; generated by PrusaSlicer 2.7.1+win64 on 2024-07-28 at 06:34:58 UTC


;
;
; 

; external perimeters extrusion width = 0.60mm
; perimeters extrusion width = 0.50mm
; infill extrusion width = 0.50mm
; solid infill extrusion width = 0.50mm
; top infill extrusion width = 0.45mm
; support material extrusion width = 0.38mm
; first layer extrusion width = 0.42mm

M73 P0 R29
M73 Q0 S29
M201 X1000 Y1000 Z200 E5000 ; sets maximum accelerations, mm/sec^2
M203 X200 Y200 Z12 E120 ; sets maximum feedrates, mm / sec
M204 S1250 T1250 ; sets acceleration (S) and retract acceleration (R), mm/sec^2
M205 X8.00 Y8.00 Z0.40 E4.50 ; sets the jerk limits, mm/sec
M205 S0 T0 ; sets the minimum extruding and travel feed rate, mm/sec

; printing object CameraHolder_UsbCover_PassiveExt_StarTech_Bottom.stl id:0 copy 0
; stop printing object CameraHolder_UsbCover_PassiveExt_StarTech_Bottom.stl id:0 copy 0

;TYPE:Custom
M862.3 P "MK3S" ; printer model check
M862.1 P0.4 ; nozzle diameter check
G90 ; use absolute coordinates
M83 ; extruder relative mode
M104 S215 ; set extruder temp
M140 S60 ; set bed temp
M190 S60 ; wait for bed temp
M109 S215 ; wait for extruder temp
G28 W ; home all without mesh bed level
G80 ; mesh bed leveling

G1 Z0.2 F720
G1 Y-3 F1000 ; go outside print area
G92 E0
G1 X60 E9 F1000 ; intro line
G1 X100 E12.5 F1000 ; intro line

G92 E0
M221 S95

; Don't change E values below. Excessive value can damage the printer.

M907 E538 ; set extruder motor current
G21 ; set units to millimeters
G90 ; use absolute coordinates
M83 ; use relative distances for extrusion
M900 K0.05 ; Filament gcode LA 1.5
M900 K30 ; Filament gcode LA 1.0
M107
;LAYER_CHANGE
;Z:0.2
;HEIGHT:0.2
;BEFORE_LAYER_CHANGE
G92 E0.0
;0.2


G1 E-.8 F2100
G1 Z.2 F720
;AFTER_LAYER_CHANGE
;0.2
G1 X82.579 Y93.002 F10800
G1 Z.2 F720
G1 E.8 F2100
M204 S800
;TYPE:Skirt/Brim
;WIDTH:0.42
G1 F1200
G1 X84.296 Y91.907 E.06385
G1 X86.331 Y90.992 E.06996
G1 X87.466 Y90.59 E.03775
G1 X89.866 Y89.915 E.07817
G1 X92.691 Y89.343 E.09037
G1 X97.153 Y88.804 E.14092
G1 X101.818 Y88.623 E.14638
G1 X132.758 Y88.623 E.9701
G1 X138.26 Y88.766 E.17257
G1 X143.693 Y89.194 E.17088
G1 X148.871 Y89.898 E.16385
G1 X151.407 Y90.366 E.08086
G1 X155.908 Y91.444 E.14512
G1 X159.967 Y92.776 E.13394
G1 X161.91 Y93.59 E.06605
G1 X163.427 Y94.338 E.05303
G1 X164.915 Y95.205 E.054
G1 X166.436 Y96.298 E.05873
G1 X167.381 Y97.142 E.03973
G1 X168.345 Y98.235 E.0457
G1 X169.309 Y99.859 E.05921
G1 X169.753 Y101.274 E.0465
G1 X169.877 Y102.455 E.03723
G1 X169.86 Y107.827 E.16844
G1 X169.63 Y109.248 E.04513
G1 X169.107 Y110.566 E.04446
G1 X168.574 Y111.448 E.03231
G1 X167.604 Y112.631 E.04797
G1 X166.436 Y113.702 E.04969
G1 X165.092 Y114.68 E.05212
G1 X163.581 Y115.579 E.05513
G1 X161.91 Y116.41 E.05851
G1 X160.085 Y117.178 E.06208
G1 X158.113 Y117.884 E.06567
G1 X156.003 Y118.53 E.06919
G1 X151.407 Y119.634 E.1482
G1 X146.391 Y120.478 E.15948
G1 X141.065 Y121.05 E.16795
G1 X135.548 Y121.34 E.17322
G1 X101.787 Y121.377 E1.05855
G1 X98.641 Y121.294 E.09867
G1 X95.562 Y121.048 E.09685
G1 X92.691 Y120.657 E.09085
G1 X89.952 Y120.106 E.0876
G1 X87.466 Y119.41 E.08094
G1 X86.212 Y118.963 E.04174
G1 X84.142 Y118.01 E.07145
G1 X82.589 Y117.006 E.05798
G1 X81.64 Y116.149 E.04009
G1 X80.71 Y114.872 E.04953
G1 X80.322 Y113.939 E.03168
G1 X80.123 Y112.636 E.04133
G1 X80.123 Y97.364 E.47884
G1 X80.198 Y96.589 E.02441
M73 Q1 S29
G1 X80.319 Y96.074 E.01659
G1 X80.698 Y95.151 E.03128
G1 X81.221 Y94.343 E.03018
M73 P1 R29
G1 X81.64 Y93.851 E.02026
G1 X82.535 Y93.043 E.03781
M204 S1000
; printing object CameraHolder_UsbCover_PassiveExt_StarTech_Bottom.stl id:0 copy 0
;WIPE_START
G1 F8640
G1 X82.579 Y93.002 E-.01389
G1 X84.296 Y91.907 E-.47022
G1 X85.544 Y91.346 E-.31589
;WIPE_END
G1 Z.6 F720
G1 X86.638 Y115.703 F10800
G1 Z.2 F720
G1 E.8 F2100
M204 S800
;TYPE:Perimeter
;WIDTH:0.419999
G1 F1200
G1 X86.362 Y115.584 E.00942
G1 X85.573 Y115.182 E.02776
G1 X84.896 Y114.766 E.02491
G1 X84.336 Y114.343 E.022
G1 X83.898 Y113.921 E.01907
G1 X83.539 Y113.436 E.01892
G1 X83.331 Y112.954 E.01646
G1 X83.287 Y112.59 E.0115
G1 X83.287 Y98 E.45746
G1 X83.301 Y97.295 E.02211
G1 X83.395 Y96.866 E.01377
G1 X83.674 Y96.341 E.01864
G1 X84.009 Y95.949 E.01617
G1 X84.463 Y95.544 E.01908
G1 X85.035 Y95.135 E.02205
G1 X85.721 Y94.732 E.02495
G1 X86.516 Y94.34 E.02779
G1 X87.413 Y93.965 E.03048
G1 X88.405 Y93.611 E.03302
G1 X89.486 Y93.282 E.03543
G1 X90.647 Y92.981 E.03761
G1 X91.881 Y92.709 E.03962
G1 X93.178 Y92.47 E.04135
G1 X94.532 Y92.264 E.04294
G1 X95.916 Y92.096 E.04371
G1 X97.371 Y91.961 E.04582
G1 X98.837 Y91.864 E.04607
G1 X100.323 Y91.807 E.04663
G1 X101.823 Y91.787 E.04704
G1 X133.169 Y91.793 E.98283
G1 X135.435 Y91.822 E.07105
G1 X138.126 Y91.927 E.08444
G1 X140.783 Y92.101 E.08349
G1 X143.389 Y92.343 E.08206
G1 X145.928 Y92.652 E.0802
G1 X148.383 Y93.025 E.07786
G1 X150.74 Y93.46 E.07515
G1 X152.983 Y93.953 E.07201
G1 X155.097 Y94.502 E.06848
G1 X157.068 Y95.103 E.06461
G1 X158.885 Y95.75 E.06047
G1 X160.533 Y96.439 E.05601
G1 X162.002 Y97.163 E.05135
G1 X163.281 Y97.915 E.04652
G1 X164.361 Y98.687 E.04162
G1 X165.234 Y99.467 E.03671
G1 X165.899 Y100.243 E.03204
G1 X166.358 Y101.002 E.02781
G1 X166.622 Y101.738 E.02452
G1 X166.713 Y102.748 E.0318
G1 X166.713 Y107.499 E.14896
G1 X166.622 Y108.262 E.02409
G1 X166.358 Y108.998 E.02452
G1 X165.899 Y109.757 E.02781
G1 X165.234 Y110.533 E.03204
G1 X164.361 Y111.313 E.03671
G1 X163.281 Y112.085 E.04162
G1 X162.002 Y112.837 E.04652
G1 X160.533 Y113.561 E.05135
G1 X158.885 Y114.25 E.05601
G1 X157.068 Y114.897 E.06047
G1 X155.097 Y115.498 E.06461
G1 X152.983 Y116.047 E.06848
G1 X150.74 Y116.54 E.07201
G1 X148.383 Y116.975 E.07515
G1 X145.928 Y117.348 E.07786
G1 X143.389 Y117.657 E.0802
G1 X140.783 Y117.899 E.08206
G1 X138.126 Y118.073 E.08349
G1 X135.435 Y118.178 E.08444
G1 X132.722 Y118.213 E.08507
G1 X101.823 Y118.213 E.96881
G1 X100.323 Y118.194 E.04704
G1 X98.837 Y118.136 E.04663
G1 X97.371 Y118.039 E.04607
G1 X95.932 Y117.906 E.04531
G1 X94.722 Y117.759 E.03822
G1 X92.994 Y117.496 E.0548
G1 X91.701 Y117.251 E.04126
G1 X90.473 Y116.974 E.03947
G1 X89.317 Y116.666 E.03751
G1 X88.241 Y116.33 E.03534
G1 X87.253 Y115.968 E.03299
G1 X86.694 Y115.727 E.01909
M204 S1000
G1 X86.497 Y116.061 F10800
M204 S800
;TYPE:External perimeter
G1 F1200
G1 X86.359 Y116.003 E.00469
G1 X85.542 Y115.6 E.02856
G1 X84.829 Y115.181 E.02593
G1 X84.382 Y114.862 E.01722
G1 X83.885 Y114.446 E.02032
G1 X83.499 Y114.035 E.01768
G1 X83.11 Y113.455 E.0219
G1 X82.961 Y113.041 E.0138
G1 X82.91 Y112.612 E.01355
G1 X82.91 Y97.527 E.47298
G1 X82.961 Y96.959 E.01788
G1 X83.11 Y96.545 E.0138
G1 X83.367 Y96.119 E.0156
G1 X83.739 Y95.685 E.01792
G1 X84.227 Y95.249 E.02052
G1 X84.829 Y94.819 E.0232
G1 X85.542 Y94.4 E.02593
G1 X86.359 Y93.997 E.02856
G1 X87.277 Y93.613 E.0312
G1 X88.287 Y93.253 E.03362
G1 X89.383 Y92.919 E.03592
G1 X90.559 Y92.614 E.03809
G1 X91.806 Y92.34 E.04003
G1 X93.116 Y92.098 E.04177
G1 X94.481 Y91.891 E.04329
G1 X95.876 Y91.721 E.04406
G1 X97.341 Y91.585 E.04613
G1 X98.817 Y91.488 E.04638
G1 X100.313 Y91.43 E.04694
G1 X101.821 Y91.41 E.04729
G1 X133.172 Y91.416 E.98299
G1 X135.445 Y91.445 E.07127
G1 X138.146 Y91.551 E.08475
G1 X140.812 Y91.725 E.08377
G1 X143.429 Y91.968 E.08241
G1 X145.979 Y92.278 E.08054
G1 X148.446 Y92.653 E.07824
G1 X150.815 Y93.09 E.07553
G1 X153.071 Y93.586 E.07242
G1 X155.199 Y94.139 E.06894
M73 P1 R28
G1 X157.187 Y94.744 E.06515
G1 X159.021 Y95.398 E.06105
G1 X160.689 Y96.095 E.05668
G1 X162.181 Y96.831 E.05216
G1 X163.486 Y97.598 E.04746
G1 X164.597 Y98.392 E.04282
G1 X165.504 Y99.202 E.03813
G1 X166.206 Y100.021 E.03382
G1 X166.7 Y100.84 E.02999
G1 X166.991 Y101.651 E.02702
G1 X167.058 Y102.211 E.01768
G1 X167.09 Y102.748 E.01687
G1 X167.09 Y107.521 E.14965
G1 X166.991 Y108.349 E.02615
G1 X166.7 Y109.16 E.02702
G1 X166.206 Y109.979 E.02999
G1 X165.504 Y110.798 E.03382
G1 X164.597 Y111.608 E.03813
G1 X163.486 Y112.402 E.04282
G1 X162.181 Y113.169 E.04746
G1 X160.689 Y113.905 E.05216
G1 X159.021 Y114.602 E.05668
G1 X157.187 Y115.256 E.06105
G1 X155.199 Y115.861 E.06515
G1 X153.071 Y116.414 E.06894
G1 X150.815 Y116.91 E.07242
G1 X148.446 Y117.347 E.07553
G1 X145.979 Y117.722 E.07824
G1 X143.429 Y118.032 E.08054
G1 X140.812 Y118.275 E.08241
M73 P2 R28
M73 Q2 S29
G1 X138.146 Y118.449 E.08377
G1 X135.445 Y118.555 E.08475
G1 X132.725 Y118.59 E.08529
G1 X101.821 Y118.59 E.96897
G1 X100.313 Y118.57 E.04729
G1 X98.817 Y118.512 E.04694
G1 X97.341 Y118.415 E.04638
G1 X95.892 Y118.281 E.04563
G1 X94.481 Y118.109 E.04457
G1 X93.116 Y117.902 E.04329
G1 X91.806 Y117.66 E.04177
G1 X90.559 Y117.386 E.04003
G1 X89.383 Y117.081 E.03809
G1 X88.287 Y116.747 E.03592
G1 X87.277 Y116.387 E.03362
G1 X86.552 Y116.084 E.02464
M204 S1000
;WIPE_START
G1 F8640
G1 X86.497 Y116.061 E-.01377
G1 X86.359 Y116.003 E-.03456
G1 X85.542 Y115.6 E-.21035
G1 X84.829 Y115.181 E-.19096
G1 X84.382 Y114.862 E-.1268
G1 X83.885 Y114.446 E-.14965
G1 X83.666 Y114.212 E-.07391
;WIPE_END
G1 Z.6 F720
G1 X163.731 Y98.446 F10800
G1 Z.2 F720
G1 E.8 F2100
M204 S800
;TYPE:Solid infill
;WIDTH:0.421825
G1 F1200
G1 X164.996 Y99.71 E.05634
G1 X165.623 Y100.442 E.03037
G1 X166.05 Y101.149 E.02602
G1 X166.134 Y101.384 E.00786
G1 X162.742 Y97.992 E.15114
G1 X161.841 Y97.462 E.03293
G1 X161.515 Y97.301 E.01146
G1 X166.324 Y102.11 E.21427
G1 X166.374 Y102.521 E.01304
G1 X166.374 Y102.695 E.00548
G1 X160.459 Y96.78 E.26355
G1 X159.53 Y96.387 E.03178
G1 X166.374 Y103.231 E.30494
G1 X166.374 Y103.767 E.01689
G1 X158.624 Y96.017 E.34531
G1 X157.791 Y95.72 E.02786
G1 X166.374 Y104.303 E.38243
G1 X166.374 Y104.839 E.01689
G1 X156.959 Y95.424 E.4195
G1 X156.188 Y95.189 E.02539
G1 X166.374 Y105.374 E.45383
G1 X166.374 Y105.91 E.01689
G1 X155.418 Y94.955 E.48814
G1 X154.669 Y94.742 E.02453
G1 X166.374 Y106.446 E.52151
G1 X166.374 Y106.982 E.01689
G1 X153.945 Y94.554 E.55377
G1 X153.221 Y94.366 E.02357
G1 X166.369 Y107.514 E.58583
G1 X166.312 Y107.992 E.01517
G1 X152.518 Y94.198 E.61461
G1 X151.831 Y94.047 E.02216
G1 X166.204 Y108.42 E.64041
G1 X166.063 Y108.815 E.01321
G1 X151.144 Y93.896 E.66474
G1 X150.466 Y93.754 E.02182
G1 X165.867 Y109.154 E.68619
G1 X165.665 Y109.488 E.0123
G1 X149.809 Y93.633 E.70646
G1 X149.152 Y93.512 E.02105
G1 X165.427 Y109.786 E.72513
G1 X165.18 Y110.075 E.01198
M73 P3 R28
M73 Q3 S29
G1 X148.495 Y93.391 E.7434
G1 X147.857 Y93.288 E.02036
M73 Q3 S28
G1 X164.924 Y110.355 E.76044
G1 X164.641 Y110.608 E.01196
G1 X147.225 Y93.192 E.77599
G1 X146.593 Y93.096 E.02014
G1 X164.358 Y110.861 E.79154
G1 X164.067 Y111.106 E.01198
G1 X145.962 Y93 E.80671
G1 X145.349 Y92.923 E.01946
G1 X163.755 Y111.329 E.8201
G1 X163.442 Y111.553 E.01213
G1 X144.739 Y92.849 E.83336
G1 X144.129 Y92.775 E.01936
G1 X163.13 Y111.776 E.84661
G1 X162.795 Y111.977 E.01231
G1 X143.519 Y92.701 E.85887
G1 X142.923 Y92.641 E.01887
G1 X162.458 Y112.176 E.87041
G1 X162.12 Y112.374 E.01234
G1 X142.332 Y92.586 E.88168
G1 X141.741 Y92.531 E.0187
G1 X161.779 Y112.569 E.89282
G1 X161.42 Y112.746 E.01261
G1 X141.151 Y92.476 E.90313
G1 X140.566 Y92.427 E.0185
M73 P4 R28
M73 Q4 S28
G1 X161.061 Y112.923 E.9132
G1 X160.702 Y113.1 E.01261
G1 X139.992 Y92.389 E.92278
G1 X139.419 Y92.352 E.01809
G1 X160.341 Y113.274 E.93221
G1 X159.963 Y113.432 E.01291
G1 X138.845 Y92.314 E.94094
G1 X138.272 Y92.277 E.01809
G1 X159.585 Y113.59 E.94963
G1 X159.207 Y113.748 E.01291
G1 X137.71 Y92.251 E.95783
G1 X137.152 Y92.229 E.01759
G1 X158.829 Y113.906 E.96585
G1 X158.437 Y114.049 E.01315
G1 X136.595 Y92.207 E.9732
G1 X136.037 Y92.185 E.01759
G1 X158.042 Y114.19 E.98046
G1 X157.647 Y114.331 E.01321
G1 X135.479 Y92.164 E.9877
G1 X134.935 Y92.155 E.01714
G1 X157.252 Y114.472 E.99436
G1 X156.853 Y114.608 E.01328
M73 P5 R28
G1 X134.392 Y92.148 E1.00076
G1 X133.849 Y92.141 E.01711
M73 Q5 S28
G1 X156.442 Y114.733 E1.00664
G1 X156.031 Y114.859 E.01354
G1 X133.307 Y92.134 E1.01252
G1 X132.769 Y92.132 E.01695
M73 P5 R27
G1 X155.62 Y114.984 E1.01818
G1 X155.21 Y115.109 E.0135
G1 X132.233 Y92.132 E1.02377
G1 X131.697 Y92.132 E.01689
G1 X154.791 Y115.226 E1.02898
G1 X154.366 Y115.337 E.01384
G1 X131.161 Y92.132 E1.03393
G1 X130.625 Y92.132 E.01689
G1 X153.941 Y115.447 E1.03885
G1 X153.515 Y115.558 E.01387
G1 X130.089 Y92.132 E1.04378
G1 X129.553 Y92.132 E.01689
G1 X153.09 Y115.668 E1.0487
G1 X152.657 Y115.771 E.01402
G1 X129.017 Y92.131 E1.05331
G1 X128.481 Y92.131 E.01689
M73 P6 R27
M73 Q6 S28
G1 X152.218 Y115.868 E1.05763
G1 X151.778 Y115.964 E.01419
G1 X127.945 Y92.131 E1.06191
G1 X127.409 Y92.131 E.01689
G1 X151.339 Y116.061 E1.06623
G1 X150.9 Y116.158 E.01416
G1 X126.873 Y92.131 E1.07055
G1 X126.337 Y92.131 E.01689
G1 X150.454 Y116.248 E1.07456
G1 X150.002 Y116.332 E.01448
M73 Q6 S27
G1 X125.801 Y92.131 E1.07831
G1 X125.266 Y92.131 E.01686
G1 X149.55 Y116.415 E1.08201
G1 X149.097 Y116.498 E.01451
G1 X124.73 Y92.131 E1.0857
G1 X124.194 Y92.131 E.01689
G1 X148.645 Y116.582 E1.08945
G1 X148.189 Y116.662 E.01459
G1 X123.658 Y92.13 E1.09303
G1 X123.122 Y92.13 E.01689
M73 P7 R27
G1 X147.723 Y116.732 E1.09615
G1 X147.258 Y116.803 E.01482
M73 Q7 S27
G1 X122.586 Y92.13 E1.09932
G1 X122.05 Y92.13 E.01689
G1 X146.793 Y116.873 E1.10246
G1 X146.328 Y116.944 E.01482
G1 X121.514 Y92.13 E1.10562
G1 X120.978 Y92.13 E.01689
G1 X145.862 Y117.014 E1.10874
G1 X145.384 Y117.072 E.01517
G1 X120.442 Y92.13 E1.11132
G1 X119.906 Y92.13 E.01689
G1 X144.907 Y117.13 E1.11393
G1 X144.429 Y117.188 E.01517
G1 X119.37 Y92.13 E1.11651
G1 X118.834 Y92.13 E.01689
G1 X143.951 Y117.247 E1.11912
G1 X143.473 Y117.305 E.01517
G1 X118.298 Y92.129 E1.12173
G1 X117.762 Y92.129 E.01689
M73 P8 R27
G1 X142.986 Y117.353 E1.12389
G1 X142.496 Y117.399 E.01551
M73 Q8 S27
G1 X117.226 Y92.129 E1.12594
G1 X116.69 Y92.129 E.01689
G1 X142.005 Y117.444 E1.12794
G1 X141.515 Y117.49 E.01551
G1 X116.154 Y92.129 E1.12999
G1 X115.618 Y92.129 E.01689
G1 X141.025 Y117.535 E1.13202
G1 X140.529 Y117.575 E.01568
G1 X115.082 Y92.129 E1.1338
G1 X114.546 Y92.129 E.01689
M73 P8 R26
G1 X140.026 Y117.608 E1.13527
G1 X139.523 Y117.641 E.01588
G1 X114.011 Y92.129 E1.13672
G1 X113.475 Y92.129 E.01689
G1 X139.02 Y117.674 E1.13819
G1 X138.517 Y117.707 E.01588
G1 X112.939 Y92.129 E1.13966
G1 X112.403 Y92.128 E.01689
M73 P9 R26
M73 Q9 S27
G1 X138.012 Y117.738 E1.14107
G1 X137.496 Y117.758 E.01627
G1 X111.867 Y92.128 E1.14196
G1 X111.331 Y92.128 E.01689
G1 X136.98 Y117.778 E1.14285
G1 X136.465 Y117.798 E.01624
G1 X110.795 Y92.128 E1.14376
G1 X110.259 Y92.128 E.01689
G1 X135.949 Y117.818 E1.14465
G1 X135.433 Y117.838 E.01627
G1 X109.723 Y92.128 E1.14554
G1 X109.187 Y92.128 E.01689
G1 X134.904 Y117.845 E1.14586
G1 X134.375 Y117.852 E.01667
G1 X108.651 Y92.128 E1.14617
G1 X108.115 Y92.128 E.01689
M73 Q9 S26
G1 X133.846 Y117.859 E1.14648
G1 X133.317 Y117.866 E.01667
M73 P10 R26
G1 X107.579 Y92.128 E1.14679
G1 X107.043 Y92.127 E.01689
M73 Q10 S26
G1 X132.788 Y117.873 E1.14712
G1 X132.253 Y117.874 E.01686
G1 X106.507 Y92.127 E1.14717
G1 X105.971 Y92.127 E.01689
G1 X131.718 Y117.874 E1.14719
G1 X131.182 Y117.874 E.01689
G1 X105.435 Y92.127 E1.14719
G1 X104.899 Y92.127 E.01689
G1 X130.646 Y117.874 E1.14719
G1 X130.11 Y117.874 E.01689
G1 X104.363 Y92.127 E1.14719
G1 X103.827 Y92.127 E.01689
G1 X129.574 Y117.874 E1.14719
G1 X129.038 Y117.874 E.01689
G1 X103.291 Y92.127 E1.14719
G1 X102.756 Y92.127 E.01686
G1 X128.502 Y117.874 E1.14717
G1 X127.967 Y117.874 E.01686
M73 P11 R26
G1 X102.22 Y92.127 E1.14719
G1 X101.686 Y92.129 E.01682
M73 Q11 S26
G1 X127.431 Y117.874 E1.1471
G1 X126.895 Y117.874 E.01689
G1 X101.157 Y92.136 E1.14679
G1 X100.628 Y92.142 E.01667
G1 X126.359 Y117.874 E1.1465
G1 X125.823 Y117.874 E.01689
G1 X100.104 Y92.155 E1.14594
G1 X99.589 Y92.175 E.01624
G1 X125.287 Y117.874 E1.14503
G1 X124.751 Y117.874 E.01689
G1 X99.073 Y92.195 E1.14414
G1 X98.564 Y92.222 E.01606
G1 X124.216 Y117.874 E1.14296
G1 X123.68 Y117.874 E.01689
G1 X98.062 Y92.255 E1.14147
G1 X97.559 Y92.288 E.01588
M73 P12 R26
G1 X123.144 Y117.874 E1.14
M73 P12 R25
G1 X122.608 Y117.874 E.01689
M73 Q12 S26
G1 X97.064 Y92.33 E1.13815
G1 X96.574 Y92.376 E.01551
G1 X122.072 Y117.874 E1.1361
