; generated by PrusaSlicer 2.7.1+win64 on 2024-08-05 at 17:56:13 UTC


;
;
; 

; external perimeters extrusion width = 0.60mm
; perimeters extrusion width = 0.50mm
; infill extrusion width = 0.50mm
; solid infill extrusion width = 0.50mm
; top infill extrusion width = 0.45mm
; support material extrusion width = 0.38mm
; first layer extrusion width = 0.42mm

M73 P0 R61
M73 Q0 S62
M201 X1000 Y1000 Z200 E5000 ; sets maximum accelerations, mm/sec^2
M203 X200 Y200 Z12 E120 ; sets maximum feedrates, mm / sec
M204 S1250 T1250 ; sets acceleration (S) and retract acceleration (R), mm/sec^2
M205 X8.00 Y8.00 Z0.40 E4.50 ; sets the jerk limits, mm/sec
M205 S0 T0 ; sets the minimum extruding and travel feed rate, mm/sec

; printing object WaterBottleCap.stl id:0 copy 0
; stop printing object WaterBottleCap.stl id:0 copy 0

;TYPE:Custom
M862.3 P "MK3S" ; printer model check
M862.1 P0.4 ; nozzle diameter check
G90 ; use absolute coordinates
M83 ; extruder relative mode
M104 S215 ; set extruder temp
M140 S60 ; set bed temp
M190 S60 ; wait for bed temp
M109 S215 ; wait for extruder temp
G28 W ; home all without mesh bed level
G80 ; mesh bed leveling

G1 Z0.2 F720
G1 Y-3 F1000 ; go outside print area
G92 E0
G1 X60 E9 F1000 ; intro line
G1 X100 E12.5 F1000 ; intro line

G92 E0
M221 S95

; Don't change E values below. Excessive value can damage the printer.

M907 E538 ; set extruder motor current
G21 ; set units to millimeters
G90 ; use absolute coordinates
M83 ; use relative distances for extrusion
M900 K0.05 ; Filament gcode LA 1.5
M900 K30 ; Filament gcode LA 1.0
M107
;LAYER_CHANGE
;Z:0.2
;HEIGHT:0.2
;BEFORE_LAYER_CHANGE
G92 E0.0
;0.2


G1 E-.8 F2100
M73 Q0 S61
G1 Z.2 F720
;AFTER_LAYER_CHANGE
;0.2
G1 X112.793 Y94.807 F10800
G1 Z.2 F720
G1 E.8 F2100
M204 S800
;TYPE:Skirt/Brim
;WIDTH:0.42
G1 F1200
G1 X113.851 Y93.66 E.04893
G1 X115.016 Y92.622 E.04892
G1 X116.278 Y91.703 E.04895
G1 X117.623 Y90.912 E.04892
G1 X119.039 Y90.257 E.04892
G1 X120.513 Y89.744 E.04894
G1 X122.03 Y89.377 E.04894
G1 X123.576 Y89.161 E.04894
G1 X125.135 Y89.098 E.04892
G1 X126.693 Y89.188 E.04893
G1 X128.235 Y89.43 E.04894
G1 X129.745 Y89.822 E.04891
G1 X131.21 Y90.36 E.04893
G1 X132.615 Y91.039 E.04893
G1 X133.947 Y91.853 E.04895
G1 X135.193 Y92.793 E.04894
G1 X136.34 Y93.851 E.04893
G1 X137.378 Y95.016 E.04892
G1 X138.297 Y96.278 E.04895
G1 X139.088 Y97.623 E.04892
G1 X139.743 Y99.039 E.04892
G1 X140.257 Y100.513 E.04895
G1 X140.623 Y102.03 E.04893
G1 X140.839 Y103.576 E.04894
G1 X140.902 Y105.135 E.04892
G1 X140.812 Y106.693 E.04893
G1 X140.57 Y108.235 E.04894
G1 X140.178 Y109.745 E.04891
G1 X139.64 Y111.21 E.04893
G1 X138.961 Y112.615 E.04893
G1 X138.147 Y113.947 E.04895
G1 X137.207 Y115.193 E.04894
G1 X136.149 Y116.34 E.04893
G1 X134.984 Y117.378 E.04892
G1 X133.722 Y118.297 E.04895
G1 X132.377 Y119.088 E.04892
G1 X130.961 Y119.743 E.04892
G1 X129.487 Y120.256 E.04894
G1 X127.97 Y120.623 E.04894
G1 X126.424 Y120.839 E.04894
G1 X124.865 Y120.902 E.04892
G1 X123.307 Y120.812 E.04893
G1 X121.765 Y120.57 E.04894
G1 X120.255 Y120.178 E.04891
G1 X118.79 Y119.64 E.04893
G1 X117.385 Y118.961 E.04893
G1 X116.053 Y118.147 E.04895
G1 X114.807 Y117.207 E.04894
G1 X113.66 Y116.149 E.04893
G1 X112.622 Y114.984 E.04892
G1 X111.703 Y113.722 E.04895
G1 X110.912 Y112.377 E.04892
G1 X110.257 Y110.961 E.04892
G1 X109.744 Y109.487 E.04894
G1 X109.377 Y107.97 E.04894
G1 X109.161 Y106.424 E.04894
G1 X109.098 Y104.865 E.04892
G1 X109.188 Y103.307 E.04893
G1 X109.43 Y101.765 E.04894
G1 X109.822 Y100.255 E.04891
G1 X110.36 Y98.79 E.04893
G1 X111.039 Y97.385 E.04893
G1 X111.853 Y96.053 E.04895
G1 X112.757 Y94.855 E.04706
M204 S1000
G1 X113.057 Y95.081 F10800
M204 S800
G1 F1200
G1 X113.073 Y95.061 E.0008
G1 X114.104 Y93.939 E.04778
G1 X115.241 Y92.925 E.04777
G1 X116.472 Y92.026 E.04779
G1 X117.784 Y91.253 E.04775
G1 X119.166 Y90.612 E.04777
G1 X120.605 Y90.109 E.0478
G1 X122.086 Y89.75 E.04778
G1 X123.594 Y89.538 E.04775
G1 X125.117 Y89.475 E.04779
G1 X126.638 Y89.561 E.04777
G1 X128.143 Y89.796 E.04776
G1 X129.618 Y90.177 E.04777
G1 X131.049 Y90.701 E.04778
G1 X132.421 Y91.363 E.04776
G1 X133.722 Y92.156 E.04777
G1 X134.939 Y93.073 E.04778
G1 X136.061 Y94.104 E.04778
G1 X137.075 Y95.241 E.04777
G1 X137.974 Y96.472 E.04779
G1 X138.747 Y97.784 E.04775
G1 X139.388 Y99.166 E.04777
G1 X139.891 Y100.605 E.0478
G1 X140.25 Y102.086 E.04778
G1 X140.462 Y103.594 E.04775
G1 X140.525 Y105.117 E.04779
G1 X140.439 Y106.638 E.04777
G1 X140.204 Y108.143 E.04776
G1 X139.823 Y109.618 E.04777
G1 X139.299 Y111.049 E.04778
G1 X138.637 Y112.421 E.04776
G1 X137.844 Y113.722 E.04777
G1 X136.927 Y114.939 E.04778
G1 X135.896 Y116.061 E.04778
G1 X134.759 Y117.075 E.04777
G1 X133.528 Y117.974 E.04779
G1 X132.216 Y118.747 E.04775
G1 X130.834 Y119.388 E.04777
G1 X129.395 Y119.891 E.0478
G1 X127.914 Y120.25 E.04778
G1 X126.406 Y120.462 E.04775
G1 X124.883 Y120.525 E.04779
G1 X123.362 Y120.439 E.04777
G1 X121.857 Y120.204 E.04776
G1 X120.382 Y119.823 E.04777
G1 X118.951 Y119.299 E.04778
G1 X117.579 Y118.637 E.04776
G1 X116.278 Y117.844 E.04777
G1 X115.061 Y116.927 E.04778
G1 X113.939 Y115.896 E.04778
G1 X112.925 Y114.759 E.04777
G1 X112.026 Y113.528 E.04779
G1 X111.253 Y112.216 E.04775
G1 X110.612 Y110.834 E.04777
G1 X110.109 Y109.395 E.0478
G1 X109.75 Y107.914 E.04778
G1 X109.538 Y106.406 E.04775
G1 X109.475 Y104.883 E.04779
G1 X109.561 Y103.362 E.04777
G1 X109.796 Y101.857 E.04776
G1 X110.177 Y100.382 E.04777
G1 X110.701 Y98.951 E.04778
G1 X111.363 Y97.579 E.04776
G1 X112.156 Y96.278 E.04777
G1 X113.021 Y95.129 E.04509
M204 S1000
; printing object WaterBottleCap.stl id:0 copy 0
;WIPE_START
G1 F8640
G1 X113.057 Y95.081 E-.01385
G1 X113.073 Y95.061 E-.00591
G1 X114.104 Y93.939 E-.35184
G1 X115.241 Y92.925 E-.35177
G1 X115.509 Y92.729 E-.07663
;WIPE_END
G1 Z.6 F720
G1 X134.458 Y97.238 F10800
G1 Z.2 F720
G1 E.8 F2100
M204 S800
;TYPE:Perimeter
;WIDTH:0.419999
G1 F1200
G1 X135.173 Y98.202 E.03763
G1 X135.791 Y99.232 E.03766
G1 X136.304 Y100.318 E.03766
G1 X136.708 Y101.448 E.03763
G1 X137 Y102.613 E.03766
G1 X137.176 Y103.801 E.03766
G1 X137.224 Y105.219 E.04449
G1 X137.176 Y106.199 E.03076
G1 X137 Y107.387 E.03766
G1 X136.708 Y108.552 E.03766
G1 X136.304 Y109.682 E.03763
G1 X135.791 Y110.768 E.03766
G1 X135.173 Y111.798 E.03766
G1 X134.458 Y112.762 E.03763
G1 X133.652 Y113.652 E.03765
G1 X132.762 Y114.458 E.03765
G1 X131.798 Y115.173 E.03763
G1 X130.768 Y115.791 E.03766
G1 X129.682 Y116.304 E.03766
G1 X128.552 Y116.708 E.03763
G1 X127.387 Y117 E.03766
G1 X126.199 Y117.176 E.03766
G1 X125 Y117.235 E.03764
G1 X123.801 Y117.176 E.03764
G1 X122.613 Y117 E.03766
G1 X121.448 Y116.708 E.03766
G1 X120.318 Y116.304 E.03763
G1 X119.232 Y115.791 E.03766
G1 X118.202 Y115.173 E.03766
G1 X117.238 Y114.458 E.03763
G1 X116.348 Y113.652 E.03765
G1 X115.542 Y112.762 E.03765
G1 X114.827 Y111.798 E.03763
G1 X114.209 Y110.768 E.03766
G1 X113.696 Y109.682 E.03766
G1 X113.292 Y108.552 E.03763
G1 X113 Y107.387 E.03766
G1 X112.824 Y106.199 E.03766
G1 X112.765 Y105 E.03764
G1 X112.824 Y103.801 E.03764
G1 X113 Y102.613 E.03766
G1 X113.292 Y101.448 E.03766
G1 X113.696 Y100.318 E.03763
G1 X114.209 Y99.232 E.03766
G1 X114.827 Y98.202 E.03766
G1 X115.542 Y97.238 E.03763
G1 X116.348 Y96.348 E.03765
G1 X117.238 Y95.542 E.03765
G1 X118.202 Y94.827 E.03763
G1 X119.232 Y94.209 E.03766
G1 X120.318 Y93.696 E.03766
G1 X121.448 Y93.292 E.03763
G1 X122.613 Y93 E.03766
G1 X123.801 Y92.824 E.03766
G1 X125 Y92.765 E.03764
G1 X126.199 Y92.824 E.03764
G1 X127.387 Y93 E.03766
G1 X128.552 Y93.292 E.03766
G1 X129.682 Y93.696 E.03763
G1 X130.768 Y94.209 E.03766
G1 X131.798 Y94.827 E.03766
G1 X132.762 Y95.542 E.03763
G1 X133.652 Y96.348 E.03765
G1 X134.418 Y97.194 E.03578
M204 S1000
G1 X134.75 Y96.999 F10800
M204 S800
;TYPE:External perimeter
G1 F1200
G1 X135.487 Y97.993 E.0388
G1 X136.123 Y99.054 E.03879
G1 X136.653 Y100.173 E.03882
G1 X137.07 Y101.339 E.03883
G1 X137.37 Y102.539 E.03878
G1 X137.552 Y103.764 E.03883
G1 X137.601 Y105.238 E.04624
G1 X137.552 Y106.236 E.03133
G1 X137.37 Y107.461 E.03883
G1 X137.07 Y108.661 E.03878
G1 X136.653 Y109.827 E.03883
G1 X136.123 Y110.946 E.03882
G1 X135.487 Y112.007 E.03879
G1 X134.75 Y113.001 E.0388
G1 X133.919 Y113.919 E.03882
G1 X133.001 Y114.75 E.03882
G1 X132.007 Y115.487 E.0388
G1 X130.946 Y116.123 E.03879
G1 X129.827 Y116.653 E.03882
G1 X128.661 Y117.07 E.03883
G1 X127.461 Y117.37 E.03878
G1 X126.236 Y117.552 E.03883
G1 X125 Y117.613 E.0388
G1 X123.764 Y117.552 E.0388
G1 X122.539 Y117.37 E.03883
G1 X121.339 Y117.07 E.03878
G1 X120.173 Y116.653 E.03883
G1 X119.054 Y116.123 E.03882
G1 X117.993 Y115.487 E.03879
G1 X116.999 Y114.75 E.0388
G1 X116.081 Y113.919 E.03882
G1 X115.25 Y113.001 E.03882
G1 X114.513 Y112.007 E.0388
G1 X113.877 Y110.946 E.03879
G1 X113.347 Y109.827 E.03882
G1 X112.93 Y108.661 E.03883
G1 X112.63 Y107.461 E.03878
G1 X112.448 Y106.236 E.03883
G1 X112.387 Y105 E.0388
G1 X112.448 Y103.764 E.0388
G1 X112.63 Y102.539 E.03883
G1 X112.93 Y101.339 E.03878
G1 X113.347 Y100.173 E.03883
G1 X113.877 Y99.054 E.03882
G1 X114.513 Y97.993 E.03879
G1 X115.25 Y96.999 E.0388
G1 X116.081 Y96.081 E.03882
G1 X116.999 Y95.25 E.03882
G1 X117.993 Y94.513 E.0388
G1 X119.054 Y93.877 E.03879
G1 X120.173 Y93.347 E.03882
G1 X121.339 Y92.93 E.03883
G1 X122.539 Y92.63 E.03878
G1 X123.764 Y92.448 E.03883
G1 X125 Y92.387 E.0388
G1 X126.236 Y92.448 E.0388
G1 X127.461 Y92.63 E.03883
G1 X128.661 Y92.93 E.03878
G1 X129.827 Y93.347 E.03883
G1 X130.946 Y93.877 E.03882
G1 X132.007 Y94.513 E.03879
G1 X133.001 Y95.25 E.0388
G1 X133.919 Y96.081 E.03882
G1 X134.71 Y96.954 E.03694
M204 S1000
;WIPE_START
G1 F8640
G1 X134.75 Y96.999 E-.0139
G1 X135.487 Y97.993 E-.28572
G1 X136.123 Y99.054 E-.28563
G1 X136.521 Y99.895 E-.21475
;WIPE_END
G1 Z.6 F720
G1 X128.277 Y105.015 F10800
G1 Z.2 F720
G1 E.8 F2100
M204 S800
;TYPE:Perimeter
G1 F1200
G1 X128.197 Y105.748 E.02312
G1 X127.995 Y106.35 E.01991
G1 X127.689 Y106.888 E.01941
G1 X127.287 Y107.358 E.01939
G1 X126.805 Y107.745 E.01938
G1 X126.259 Y108.034 E.01937
G1 X125.668 Y108.217 E.0194
G1 X125.054 Y108.285 E.01937
G1 X124.252 Y108.197 E.0253
G1 X123.65 Y107.995 E.01991
G1 X123.112 Y107.689 E.01941
G1 X122.642 Y107.287 E.01939
G1 X122.255 Y106.805 E.01938
G1 X121.958 Y106.244 E.0199
G1 X121.783 Y105.668 E.01888
G1 X121.715 Y105.053 E.0194
G1 X121.763 Y104.437 E.01937
G1 X121.926 Y103.84 E.0194
G1 X122.151 Y103.377 E.01614
G1 X122.543 Y102.824 E.02125
G1 X123.026 Y102.374 E.0207
G1 X123.553 Y102.051 E.01938
G1 X124.131 Y101.832 E.01938
G1 X124.811 Y101.731 E.02155
G1 X125.354 Y101.744 E.01703
G1 X125.668 Y101.783 E.00992
G1 X126.16 Y101.926 E.01606
G1 X126.623 Y102.151 E.01614
G1 X127.176 Y102.543 E.02125
G1 X127.626 Y103.026 E.0207
G1 X127.906 Y103.507 E.01745
G1 X128.074 Y103.841 E.01172
G1 X128.217 Y104.332 E.01603
G1 X128.285 Y104.946 E.01937
G1 X128.284 Y104.956 E.00032
M204 S1000
G1 X127.904 Y105.03 F10800
M204 S800
;TYPE:External perimeter
G1 F1200
G1 X127.823 Y105.701 E.02119
G1 X127.64 Y106.223 E.01734
G1 X127.364 Y106.696 E.01717
G1 X127.005 Y107.109 E.01716
G1 X126.574 Y107.447 E.01717
G1 X126.088 Y107.699 E.01716
G1 X125.563 Y107.855 E.01717
G1 X125.018 Y107.909 E.01717
G1 X124.299 Y107.823 E.0227
G1 X123.777 Y107.64 E.01734
G1 X123.304 Y107.364 E.01717
G1 X122.891 Y107.005 E.01716
G1 X122.553 Y106.574 E.01717
G1 X122.299 Y106.083 E.01733
G1 X122.146 Y105.563 E.017
G1 X122.091 Y105.018 E.01717
G1 X122.139 Y104.472 E.01719
G1 X122.288 Y103.945 E.01717
G1 X122.534 Y103.456 E.01716
G1 X122.841 Y103.055 E.01583
G1 X123.276 Y102.657 E.01849
G1 X123.745 Y102.375 E.01716
G1 X124.259 Y102.187 E.01716
G1 X124.859 Y102.105 E.01899
G1 X125.527 Y102.139 E.02097
G1 X126.055 Y102.288 E.0172
G1 X126.544 Y102.534 E.01716
G1 X126.945 Y102.841 E.01583
G1 X127.343 Y103.275 E.01846
G1 X127.696 Y103.908 E.02272
G1 X127.855 Y104.437 E.01732
G1 X127.908 Y104.971 E.01683
M204 S1000
;WIPE_START
G1 F8640
G1 X127.904 Y105.03 E-.01365
G1 X127.823 Y105.701 E-.15606
G1 X127.64 Y106.223 E-.12772
G1 X127.364 Y106.696 E-.12645
G1 X127.005 Y107.109 E-.12635
G1 X126.574 Y107.447 E-.12647
G1 X126.099 Y107.692 E-.1233
;WIPE_END
G1 Z.6 F720
G1 X132.042 Y95.219 F10800
G1 Z.2 F720
G1 E.8 F2100
M204 S800
;TYPE:Solid infill
;WIDTH:0.420551
G1 F1200
G1 X133.413 Y96.59 E.06088
G1 X134.195 Y97.454 E.03659
G1 X134.891 Y98.391 E.03665
G1 X135.206 Y98.918 E.01928
G1 X131.082 Y94.794 E.18313
G1 X130.607 Y94.509 E.01739
G1 X129.955 Y94.201 E.02264
G1 X135.799 Y100.045 E.25951
G1 X135.99 Y100.448 E.014
G1 X136.169 Y100.949 E.01671
G1 X129.051 Y93.831 E.31609
G1 X128.453 Y93.617 E.01994
G1 X128.253 Y93.567 E.00647
G1 X136.433 Y101.747 E.36325
G1 X136.612 Y102.46 E.02308
G1 X127.541 Y93.388 E.40283
G1 X127.321 Y93.333 E.00712
G1 X126.887 Y93.269 E.01378
G1 X136.731 Y103.113 E.43714
G1 X136.824 Y103.74 E.0199
G1 X126.26 Y93.176 E.46911
G1 X125.689 Y93.138 E.01797
G1 X136.862 Y104.311 E.49615
G1 X136.889 Y104.873 E.01767
G1 X125.127 Y93.111 E.52231
G1 X124.606 Y93.124 E.01636
G1 X136.876 Y105.394 E.54487
G1 X136.851 Y105.903 E.016
G1 X124.097 Y93.149 E.56636
G1 X123.609 Y93.195 E.01539
G1 X136.805 Y106.391 E.58599
G1 X136.736 Y106.856 E.01476
M73 P1 R61
M73 Q1 S61
G1 X123.144 Y93.264 E.60357
G1 X122.679 Y93.333 E.01476
G1 X136.667 Y107.321 E.62116
G1 X136.56 Y107.748 E.01382
G1 X122.252 Y93.44 E.63537
G1 X121.825 Y93.547 E.01382
G1 X136.453 Y108.175 E.64958
G1 X136.334 Y108.59 E.01356
G1 X121.41 Y93.666 E.66272
G1 X121.016 Y93.807 E.01314
G1 X136.193 Y108.984 E.67396
G1 X136.053 Y109.377 E.0131
M73 P1 R60
G1 X120.623 Y93.947 E.68519
G1 X120.247 Y94.105 E.01281
G1 X135.895 Y109.753 E.69487
G1 X135.723 Y110.116 E.01261
G1 X119.884 Y94.277 E.70335
G1 X119.522 Y94.448 E.01257
G1 X135.552 Y110.478 E.71184
G1 X135.362 Y110.823 E.01237
G1 X128.44 Y103.901 E.30738
G1 X128.561 Y104.311 E.01342
G1 X128.587 Y104.582 E.00855
G1 X135.162 Y111.156 E.29195
G1 X134.962 Y111.49 E.01222
G1 X128.61 Y105.139 E.28205
G1 X128.551 Y105.613 E.015
G1 X134.744 Y111.807 E.27503
G1 X134.517 Y112.113 E.01196
G1 X128.459 Y106.055 E.26901
G1 X128.319 Y106.45 E.01316
G1 X134.289 Y112.42 E.26511
G1 X134.046 Y112.711 E.0119
G1 X128.129 Y106.794 E.26275
G1 X127.934 Y107.133 E.01228
G1 X133.792 Y112.991 E.26013
G1 X133.538 Y113.271 E.01187
G1 X127.685 Y107.418 E.25991
G1 X127.51 Y107.618 E.00834
G1 X127.421 Y107.688 E.00356
G1 X133.271 Y113.538 E.25978
G1 X132.991 Y113.792 E.01187
G1 X127.123 Y107.924 E.26058
G1 X126.968 Y108.047 E.00621
G1 X126.799 Y108.134 E.00597
G1 X132.711 Y114.046 E.26253
G1 X132.42 Y114.289 E.0119
G1 X126.447 Y108.317 E.26522
G1 X126.353 Y108.365 E.00331
G1 X126.051 Y108.454 E.00989
G1 X132.113 Y114.517 E.26921
G1 X131.807 Y114.744 E.01196
G1 X125.63 Y108.567 E.2743
G1 X125.142 Y108.614 E.01539
G1 X131.49 Y114.962 E.28189
G1 X131.156 Y115.162 E.01222
G1 X124.568 Y108.573 E.29257
G1 X124.105 Y108.515 E.01465
G1 X123.905 Y108.445 E.00665
G1 X130.946 Y115.486 E.31267
M204 S1000
;WIPE_START
G1 F8640
G1 X128.496 Y113.036 E-.8
;WIPE_END
G1 Z.6 F720
G1 X126.378 Y101.839 F10800
G1 Z.2 F720
G1 E.8 F2100
M204 S800
G1 F1200
G1 X119.177 Y94.638 E.31977
G1 X118.844 Y94.838 E.0122
G1 X125.421 Y101.415 E.29206
G1 X124.946 Y101.374 E.01497
G1 X124.857 Y101.386 E.00282
G1 X118.51 Y95.038 E.28187
G1 X118.193 Y95.256 E.01208
G1 X124.385 Y101.448 E.27497
G1 X124.104 Y101.485 E.0089
G1 X123.945 Y101.542 E.0053
G1 X117.887 Y95.484 E.26901
G1 X117.58 Y95.711 E.01199
G1 X123.552 Y101.683 E.2652
G1 X123.454 Y101.719 E.00328
G1 X123.203 Y101.868 E.00917
G1 X117.289 Y95.954 E.26262
G1 X117.009 Y96.208 E.01187
G1 X122.868 Y102.067 E.26018
G1 X122.582 Y102.315 E.01189
G1 X116.729 Y96.462 E.25991
G1 X116.589 Y96.589 E.00594
G1 X116.462 Y96.729 E.00594
G1 X122.312 Y102.579 E.25978
G1 X122.076 Y102.877 E.01194
G1 X116.208 Y97.009 E.26058
G1 X115.954 Y97.289 E.01187
G1 X121.866 Y103.201 E.26253
G1 X121.684 Y103.553 E.01244
G1 X115.711 Y97.58 E.26524
G1 X115.483 Y97.887 E.01201
G1 X121.546 Y103.949 E.26921
G1 X121.433 Y104.37 E.01369
G1 X115.256 Y98.193 E.2743
G1 X115.038 Y98.51 E.01208
M73 Q1 S60
G1 X121.386 Y104.858 E.28189
G1 X121.373 Y105 E.00448
