; generated by PrusaSlicer 2.7.1+win64 on 2024-08-01 at 21:38:11 UTC


;
;
; 

; external perimeters extrusion width = 0.60mm
; perimeters extrusion width = 0.50mm
; infill extrusion width = 0.50mm
; solid infill extrusion width = 0.50mm
; top infill extrusion width = 0.45mm
; support material extrusion width = 0.38mm
; first layer extrusion width = 0.42mm

M73 P0 R47
M73 Q0 S48
M201 X1000 Y1000 Z200 E5000 ; sets maximum accelerations, mm/sec^2
M203 X200 Y200 Z12 E120 ; sets maximum feedrates, mm / sec
M204 S1250 T1250 ; sets acceleration (S) and retract acceleration (R), mm/sec^2
M205 X8.00 Y8.00 Z0.40 E4.50 ; sets the jerk limits, mm/sec
M205 S0 T0 ; sets the minimum extruding and travel feed rate, mm/sec

; printing object WaterBottleCap.stl id:0 copy 0
; stop printing object WaterBottleCap.stl id:0 copy 0

;TYPE:Custom
M862.3 P "MK3S" ; printer model check
M862.1 P0.4 ; nozzle diameter check
G90 ; use absolute coordinates
M83 ; extruder relative mode
M104 S215 ; set extruder temp
M140 S60 ; set bed temp
M190 S60 ; wait for bed temp
M109 S215 ; wait for extruder temp
G28 W ; home all without mesh bed level
G80 ; mesh bed leveling

G1 Z0.2 F720
G1 Y-3 F1000 ; go outside print area
G92 E0
G1 X60 E9 F1000 ; intro line
G1 X100 E12.5 F1000 ; intro line
M73 Q0 S47

G92 E0
M221 S95

; Don't change E values below. Excessive value can damage the printer.

M907 E538 ; set extruder motor current
G21 ; set units to millimeters
G90 ; use absolute coordinates
M83 ; use relative distances for extrusion
M900 K0.05 ; Filament gcode LA 1.5
M900 K30 ; Filament gcode LA 1.0
M107
;LAYER_CHANGE
;Z:0.2
;HEIGHT:0.2
;BEFORE_LAYER_CHANGE
G92 E0.0
;0.2


G1 E-.8 F2100
G1 Z.2 F720
;AFTER_LAYER_CHANGE
;0.2
G1 X112.806 Y94.817 F10800
G1 Z.2 F720
G1 E.8 F2100
M204 S800
;TYPE:Skirt/Brim
;WIDTH:0.42
G1 F1200
G1 X113.862 Y93.671 E.04886
G1 X115.026 Y92.634 E.04888
G1 X116.286 Y91.716 E.04888
G1 X117.629 Y90.927 E.04884
G1 X119.045 Y90.271 E.04893
G1 X120.515 Y89.759 E.04881
G1 X122.033 Y89.393 E.04896
G1 X123.574 Y89.177 E.04879
G1 X125.135 Y89.114 E.04898
G1 X126.692 Y89.203 E.0489
G1 X128.231 Y89.445 E.04885
G1 X129.737 Y89.836 E.04879
G1 X131.204 Y90.375 E.049
G1 X132.604 Y91.052 E.04876
G1 X133.936 Y91.865 E.04893
G1 X135.181 Y92.804 E.04889
G1 X136.329 Y93.862 E.04895
G1 X137.366 Y95.026 E.04888
G1 X138.284 Y96.286 E.04888
G1 X139.073 Y97.629 E.04884
G1 X139.727 Y99.042 E.04882
G1 X140.241 Y100.515 E.04892
G1 X140.607 Y102.033 E.04896
G1 X140.823 Y103.574 E.04879
G1 X140.886 Y105.135 E.04898
G1 X140.797 Y106.692 E.0489
G1 X140.555 Y108.231 E.04885
G1 X140.164 Y109.737 E.04879
G1 X139.625 Y111.204 E.049
G1 X138.948 Y112.604 E.04876
G1 X138.136 Y113.936 E.04891
G1 X137.195 Y115.183 E.04898
G1 X136.138 Y116.329 E.04888
G1 X134.974 Y117.366 E.04888
G1 X133.714 Y118.284 E.04888
G1 X132.371 Y119.073 E.04884
G1 X130.955 Y119.729 E.04893
G1 X129.485 Y120.241 E.04881
G1 X127.967 Y120.607 E.04896
G1 X126.426 Y120.823 E.04879
G1 X124.865 Y120.886 E.04898
G1 X123.308 Y120.797 E.0489
G1 X121.769 Y120.555 E.04885
G1 X120.263 Y120.164 E.04879
G1 X118.796 Y119.625 E.049
G1 X117.396 Y118.948 E.04876
G1 X116.064 Y118.135 E.04893
G1 X114.817 Y117.195 E.04896
G1 X113.671 Y116.138 E.04888
G1 X112.634 Y114.974 E.04888
G1 X111.716 Y113.714 E.04888
G1 X110.927 Y112.371 E.04884
G1 X110.273 Y110.958 E.04882
G1 X109.759 Y109.485 E.04892
G1 X109.393 Y107.967 E.04896
G1 X109.177 Y106.426 E.04879
G1 X109.114 Y104.865 E.04898
G1 X109.204 Y103.308 E.0489
G1 X109.445 Y101.769 E.04884
G1 X109.836 Y100.263 E.04879
G1 X110.375 Y98.796 E.049
G1 X111.052 Y97.396 E.04876
G1 X111.865 Y96.064 E.04893
G1 X112.769 Y94.865 E.04708
M204 S1000
G1 X113.069 Y95.091 F10800
M204 S800
G1 F1200
G1 X113.085 Y95.071 E.0008
G1 X114.116 Y93.951 E.04773
G1 X115.251 Y92.937 E.04772
G1 X116.48 Y92.039 E.04772
G1 X117.79 Y91.268 E.04766
G1 X119.172 Y90.626 E.04778
G1 X120.607 Y90.125 E.04766
G1 X122.089 Y89.766 E.04781
G1 X123.593 Y89.554 E.04762
G1 X125.117 Y89.49 E.04783
G1 X126.636 Y89.576 E.0477
G1 X128.139 Y89.811 E.0477
G1 X129.61 Y90.191 E.04764
G1 X131.043 Y90.716 E.04785
G1 X132.411 Y91.375 E.04761
G1 X133.711 Y92.167 E.04773
G1 X134.928 Y93.084 E.04778
G1 X136.049 Y94.116 E.04777
G1 X137.063 Y95.251 E.04772
G1 X137.961 Y96.48 E.04772
G1 X138.732 Y97.79 E.04766
G1 X139.372 Y99.169 E.04767
G1 X139.875 Y100.607 E.04777
G1 X140.234 Y102.089 E.04781
G1 X140.446 Y103.593 E.04762
G1 X140.51 Y105.117 E.04783
G1 X140.424 Y106.636 E.0477
G1 X140.189 Y108.139 E.0477
G1 X139.809 Y109.61 E.04764
G1 X139.284 Y111.043 E.04785
G1 X138.625 Y112.411 E.04761
G1 X137.833 Y113.711 E.04773
G1 X136.915 Y114.929 E.04782
G1 X135.885 Y116.049 E.04771
G1 X134.749 Y117.063 E.04774
G1 X133.52 Y117.961 E.04772
G1 X132.21 Y118.732 E.04766
G1 X130.828 Y119.374 E.04778
G1 X129.393 Y119.875 E.04766
G1 X127.911 Y120.234 E.04781
G1 X126.407 Y120.446 E.04762
G1 X124.883 Y120.51 E.04783
G1 X123.364 Y120.424 E.0477
G1 X121.861 Y120.189 E.0477
G1 X120.39 Y119.809 E.04764
G1 X118.957 Y119.284 E.04785
G1 X117.589 Y118.625 E.04761
G1 X116.289 Y117.833 E.04773
G1 X115.071 Y116.915 E.04782
G1 X113.951 Y115.884 E.04773
G1 X112.937 Y114.749 E.04772
G1 X112.039 Y113.52 E.04772
G1 X111.268 Y112.21 E.04766
G1 X110.628 Y110.831 E.04767
G1 X110.125 Y109.393 E.04777
G1 X109.766 Y107.911 E.04781
G1 X109.554 Y106.407 E.04762
G1 X109.49 Y104.883 E.04783
G1 X109.577 Y103.364 E.04771
G1 X109.811 Y101.861 E.04769
G1 X110.191 Y100.39 E.04764
G1 X110.716 Y98.957 E.04785
G1 X111.375 Y97.589 E.04761
G1 X112.167 Y96.289 E.04773
G1 X113.033 Y95.139 E.04514
M204 S1000
; printing object WaterBottleCap.stl id:0 copy 0
;WIPE_START
G1 F8640
G1 X113.069 Y95.091 E-.01385
G1 X113.085 Y95.071 E-.00591
G1 X114.116 Y93.951 E-.3515
G1 X115.251 Y92.937 E-.35143
G1 X115.521 Y92.74 E-.07731
;WIPE_END
G1 Z.6 F720
G1 X133.65 Y113.65 F10800
G1 Z.2 F720
G1 E.8 F2100
M204 S800
;TYPE:Perimeter
;WIDTH:0.419999
G1 F1200
G1 X132.76 Y114.456 E.03765
G1 X131.796 Y115.171 E.03763
G1 X130.767 Y115.788 E.03762
G1 X129.681 Y116.302 E.03767
G1 X128.551 Y116.706 E.03763
G1 X127.387 Y116.998 E.03763
G1 X126.199 Y117.174 E.03766
G1 X125 Y117.233 E.03764
G1 X123.801 Y117.174 E.03764
G1 X122.614 Y116.998 E.03762
G1 X121.449 Y116.706 E.03766
G1 X120.319 Y116.302 E.03763
G1 X119.234 Y115.788 E.03764
G1 X118.204 Y115.171 E.03765
G1 X117.24 Y114.456 E.03763
G1 X116.35 Y113.65 E.03765
G1 X115.544 Y112.76 E.03765
G1 X114.829 Y111.796 E.03763
G1 X114.212 Y110.767 E.03762
G1 X113.698 Y109.681 E.03767
G1 X113.294 Y108.551 E.03763
G1 X113.002 Y107.387 E.03763
G1 X112.826 Y106.199 E.03766
G1 X112.767 Y105 E.03764
G1 X112.826 Y103.801 E.03764
G1 X113.002 Y102.614 E.03762
G1 X113.294 Y101.449 E.03766
G1 X113.698 Y100.319 E.03763
G1 X114.212 Y99.234 E.03764
G1 X114.829 Y98.204 E.03765
G1 X115.544 Y97.24 E.03763
G1 X116.35 Y96.35 E.03765
G1 X117.24 Y95.544 E.03765
G1 X118.204 Y94.829 E.03763
G1 X119.233 Y94.212 E.03762
G1 X120.319 Y93.698 E.03767
G1 X121.449 Y93.294 E.03763
G1 X122.613 Y93.002 E.03763
G1 X123.801 Y92.826 E.03766
G1 X125 Y92.767 E.03764
G1 X126.199 Y92.826 E.03764
G1 X127.386 Y93.002 E.03762
G1 X128.551 Y93.294 E.03766
G1 X129.681 Y93.698 E.03763
G1 X130.767 Y94.212 E.03767
G1 X131.796 Y94.829 E.03762
G1 X132.76 Y95.544 E.03763
G1 X133.65 Y96.35 E.03765
G1 X134.456 Y97.24 E.03765
G1 X135.171 Y98.204 E.03763
G1 X135.788 Y99.233 E.03762
G1 X136.302 Y100.319 E.03767
G1 X136.706 Y101.449 E.03763
G1 X136.998 Y102.613 E.03763
G1 X137.185 Y104.021 E.04453
G1 X137.233 Y105 E.03073
G1 X137.174 Y106.199 E.03764
G1 X136.998 Y107.386 E.03762
G1 X136.706 Y108.551 E.03766
G1 X136.302 Y109.681 E.03763
G1 X135.788 Y110.766 E.03764
G1 X135.171 Y111.796 E.03765
G1 X134.456 Y112.76 E.03763
G1 X133.69 Y113.605 E.03576
M204 S1000
G1 X133.917 Y113.917 F10800
M204 S800
;TYPE:External perimeter
G1 F1200
G1 X133 Y114.748 E.0388
G1 X132.006 Y115.485 E.0388
G1 X130.945 Y116.121 E.03879
G1 X129.826 Y116.65 E.03881
G1 X128.661 Y117.067 E.0388
G1 X127.46 Y117.368 E.03882
G1 X126.236 Y117.55 E.0388
G1 X125 Y117.61 E.0388
G1 X123.764 Y117.55 E.0388
G1 X122.54 Y117.368 E.0388
G1 X121.339 Y117.067 E.03882
G1 X120.174 Y116.65 E.0388
G1 X119.056 Y116.121 E.03878
G1 X117.994 Y115.485 E.03881
G1 X117 Y114.748 E.0388
G1 X116.083 Y113.917 E.0388
G1 X115.252 Y113 E.0388
G1 X114.515 Y112.006 E.0388
G1 X113.879 Y110.945 E.03879
G1 X113.35 Y109.826 E.03881
G1 X112.933 Y108.661 E.0388
G1 X112.632 Y107.46 E.03882
G1 X112.45 Y106.236 E.0388
G1 X112.39 Y105 E.0388
G1 X112.45 Y103.764 E.0388
G1 X112.632 Y102.54 E.0388
G1 X112.933 Y101.339 E.03882
G1 X113.35 Y100.174 E.0388
G1 X113.879 Y99.056 E.03878
G1 X114.515 Y97.994 E.03881
G1 X115.252 Y97 E.0388
G1 X116.083 Y96.083 E.0388
G1 X117 Y95.252 E.0388
G1 X117.994 Y94.515 E.0388
G1 X119.055 Y93.879 E.03879
G1 X120.174 Y93.35 E.03881
G1 X121.339 Y92.933 E.0388
G1 X122.54 Y92.632 E.03882
G1 X123.764 Y92.45 E.0388
G1 X125 Y92.39 E.0388
G1 X126.236 Y92.45 E.0388
G1 X127.46 Y92.632 E.0388
G1 X128.661 Y92.933 E.03882
G1 X129.826 Y93.35 E.0388
G1 X130.944 Y93.879 E.03878
G1 X132.006 Y94.515 E.03881
G1 X133 Y95.252 E.0388
G1 X133.917 Y96.083 E.0388
G1 X134.748 Y97 E.0388
G1 X135.485 Y97.994 E.0388
G1 X136.121 Y99.055 E.03879
G1 X136.65 Y100.174 E.03881
G1 X137.067 Y101.339 E.0388
G1 X137.368 Y102.54 E.03882
G1 X137.561 Y104.002 E.04624
G1 X137.61 Y105 E.03133
G1 X137.55 Y106.236 E.0388
G1 X137.368 Y107.46 E.0388
G1 X137.067 Y108.661 E.03882
G1 X136.65 Y109.826 E.0388
G1 X136.121 Y110.944 E.03878
G1 X135.485 Y112.006 E.03881
G1 X134.748 Y113 E.0388
G1 X133.957 Y113.872 E.03691
M204 S1000
;WIPE_START
G1 F8640
G1 X133.917 Y113.917 E-.0139
G1 X133 Y114.748 E-.28575
G1 X132.006 Y115.485 E-.28572
G1 X131.208 Y115.963 E-.21463
;WIPE_END
G1 Z.6 F720
G1 X124.188 Y108.176 F10800
G1 Z.2 F720
G1 E.8 F2100
M204 S800
;TYPE:Perimeter
G1 F1200
G1 X123.65 Y107.995 E.0178
G1 X123.112 Y107.689 E.01941
G1 X122.642 Y107.287 E.01939
G1 X122.255 Y106.805 E.01938
G1 X121.966 Y106.259 E.01937
G1 X121.783 Y105.668 E.0194
G1 X121.715 Y105.053 E.0194
G1 X121.783 Y104.332 E.02271
G1 X121.926 Y103.84 E.01606
G1 X122.151 Y103.377 E.01614
G1 X122.543 Y102.824 E.02125
G1 X123.026 Y102.374 E.0207
G1 X123.553 Y102.051 E.01938
G1 X124.131 Y101.832 E.01938
G1 X124.811 Y101.731 E.02155
G1 X125.354 Y101.744 E.01703
G1 X125.668 Y101.783 E.00992
G1 X126.16 Y101.926 E.01606
G1 X126.623 Y102.151 E.01614
G1 X127.176 Y102.543 E.02125
G1 X127.626 Y103.026 E.0207
G1 X127.906 Y103.507 E.01745
G1 X128.074 Y103.841 E.01172
G1 X128.217 Y104.332 E.01603
G1 X128.285 Y104.946 E.01937
G1 X128.197 Y105.748 E.0253
G1 X127.995 Y106.35 E.01991
G1 X127.689 Y106.888 E.01941
G1 X127.287 Y107.358 E.01939
G1 X126.805 Y107.745 E.01938
G1 X126.259 Y108.035 E.01938
G1 X125.668 Y108.217 E.01939
G1 X125.054 Y108.285 E.01937
G1 X124.252 Y108.197 E.0253
G1 X124.244 Y108.195 E.00026
M204 S1000
G1 X124.315 Y107.825 F10800
M204 S800
;TYPE:External perimeter
G1 F1200
G1 X124.299 Y107.823 E.00051
G1 X123.777 Y107.64 E.01734
G1 X123.304 Y107.364 E.01717
G1 X122.891 Y107.005 E.01716
G1 X122.553 Y106.574 E.01717
G1 X122.301 Y106.087 E.01719
G1 X122.146 Y105.563 E.01713
G1 X122.091 Y105.018 E.01717
G1 X122.146 Y104.437 E.0183
G1 X122.288 Y103.945 E.01606
G1 X122.534 Y103.456 E.01716
G1 X122.841 Y103.055 E.01583
G1 X123.276 Y102.657 E.01849
G1 X123.745 Y102.375 E.01716
G1 X124.259 Y102.187 E.01716
G1 X124.859 Y102.105 E.01899
G1 X125.527 Y102.139 E.02097
G1 X126.055 Y102.288 E.0172
G1 X126.544 Y102.534 E.01716
G1 X126.945 Y102.841 E.01583
G1 X127.343 Y103.275 E.01846
G1 X127.696 Y103.908 E.02272
G1 X127.855 Y104.437 E.01732
G1 X127.909 Y104.982 E.01717
G1 X127.823 Y105.701 E.0227
G1 X127.64 Y106.223 E.01734
G1 X127.364 Y106.696 E.01717
G1 X127.005 Y107.109 E.01716
G1 X126.574 Y107.447 E.01717
G1 X126.088 Y107.699 E.01716
G1 X125.563 Y107.855 E.01717
G1 X125.018 Y107.909 E.01717
G1 X124.374 Y107.832 E.02034
M204 S1000
;WIPE_START
G1 F8640
G1 X124.315 Y107.825 E-.01372
G1 X124.299 Y107.823 E-.00372
G1 X123.777 Y107.64 E-.12772
G1 X123.304 Y107.364 E-.12645
G1 X122.891 Y107.005 E-.12635
G1 X122.553 Y106.574 E-.12647
G1 X122.301 Y106.087 E-.12661
G1 X122.146 Y105.563 E-.12618
G1 X122.136 Y105.465 E-.02278
;WIPE_END
G1 Z.6 F720
G1 X132.04 Y95.221 F10800
G1 Z.2 F720
G1 E.8 F2100
M204 S800
;TYPE:Solid infill
;WIDTH:0.420475
G1 F1200
G1 X133.41 Y96.591 E.06082
G1 X134.193 Y97.455 E.03661
M73 Q1 S47
G1 X134.889 Y98.393 E.03667
G1 X135.204 Y98.919 E.01925
G1 X131.081 Y94.796 E.18305
G1 X130.606 Y94.511 E.01739
M73 P1 R47
G1 X129.954 Y94.203 E.02264
G1 X135.797 Y100.046 E.25942
G1 X135.988 Y100.449 E.014
G1 X136.167 Y100.95 E.0167
G1 X129.05 Y93.833 E.31598
G1 X128.452 Y93.619 E.01994
G1 X128.252 Y93.569 E.00647
G1 X136.431 Y101.748 E.36313
G1 X136.609 Y102.46 E.02304
G1 X127.54 Y93.391 E.40264
G1 X127.32 Y93.335 E.00713
G1 X126.887 Y93.271 E.01374
G1 X136.729 Y103.113 E.43696
G1 X136.822 Y103.74 E.0199
G1 X126.26 Y93.178 E.46893
G1 X125.688 Y93.141 E.01799
G1 X136.859 Y104.312 E.49597
G1 X136.887 Y104.873 E.01763
G1 X125.127 Y93.113 E.52212
G1 X124.606 Y93.126 E.01636
G1 X136.874 Y105.394 E.54467
G1 X136.849 Y105.903 E.016
G1 X124.097 Y93.151 E.56616
G1 X123.609 Y93.198 E.01539
G1 X136.802 Y106.391 E.58574
G1 X136.733 Y106.856 E.01476
G1 X123.145 Y93.267 E.6033
G1 X122.68 Y93.336 E.01476
G1 X136.664 Y107.32 E.62086
G1 X136.557 Y107.747 E.01382
G1 X122.253 Y93.443 E.63506
G1 X121.826 Y93.549 E.01381
G1 X136.451 Y108.174 E.64931
G1 X136.332 Y108.59 E.01358
G1 X121.41 Y93.668 E.6625
G1 X121.017 Y93.809 E.01311
G1 X136.191 Y108.983 E.67369
G1 X136.05 Y109.376 E.01311
G1 X120.624 Y93.95 E.68488
G1 X120.248 Y94.107 E.01279
M73 P1 R46
G1 X135.893 Y109.752 E.6946
G1 X135.721 Y110.115 E.01261
G1 X119.885 Y94.279 E.70308
G1 X119.523 Y94.45 E.01257
G1 X135.55 Y110.477 E.71156
G1 X135.36 Y110.821 E.01234
G1 X128.441 Y103.902 E.30719
G1 X128.561 Y104.311 E.01338
G1 X128.587 Y104.583 E.00858
G1 X135.16 Y111.155 E.2918
G1 X134.96 Y111.489 E.01222
G1 X128.61 Y105.14 E.2819
G1 X128.551 Y105.614 E.015
G1 X134.742 Y111.805 E.27487
G1 X134.515 Y112.112 E.01199
G1 X128.459 Y106.056 E.26887
G1 X128.319 Y106.45 E.01313
G1 X134.287 Y112.418 E.26496
G1 X134.044 Y112.709 E.0119
G1 X128.129 Y106.795 E.26259
G1 X127.934 Y107.133 E.01225
G1 X133.79 Y112.99 E.26001
G1 X133.537 Y113.27 E.01185
G1 X127.685 Y107.418 E.25981
G1 X127.51 Y107.618 E.00834
G1 X127.421 Y107.688 E.00355
G1 X133.27 Y113.537 E.25968
G1 X132.99 Y113.79 E.01185
G1 X127.123 Y107.924 E.26046
G1 X126.968 Y108.047 E.00621
G1 X126.799 Y108.134 E.00597
G1 X132.709 Y114.044 E.26239
G1 X132.418 Y114.287 E.0119
G1 X126.448 Y108.316 E.26508
G1 X126.353 Y108.365 E.00336
G1 X126.052 Y108.454 E.00985
G1 X132.112 Y114.515 E.26907
G1 X131.805 Y114.742 E.01199
G1 X125.63 Y108.567 E.27416
G1 X125.143 Y108.614 E.01536
G1 X131.489 Y114.96 E.28175
G1 X131.155 Y115.16 E.01222
G1 X124.569 Y108.574 E.2924
G1 X124.105 Y108.515 E.01468
G1 X123.907 Y108.445 E.00659
G1 X130.945 Y115.484 E.31249
M204 S1000
;WIPE_START
G1 F8640
G1 X128.495 Y113.034 E-.8
;WIPE_END
G1 Z.6 F720
G1 X126.376 Y101.838 F10800
G1 Z.2 F720
G1 E.8 F2100
M204 S800
G1 F1200
G1 X119.179 Y94.64 E.31955
G1 X118.845 Y94.84 E.01222
M73 P2 R46
M73 Q2 S47
G1 X125.42 Y101.415 E.29191
G1 X124.946 Y101.374 E.01494
G1 X124.856 Y101.386 E.00285
G1 X118.511 Y95.04 E.28172
G1 X118.195 Y95.258 E.01205
G1 X124.385 Y101.448 E.27482
G1 X124.104 Y101.485 E.0089
G1 X123.945 Y101.542 E.0053
G1 X117.888 Y95.485 E.26892
G1 X117.582 Y95.713 E.01198
G1 X123.552 Y101.683 E.26505
G1 X123.454 Y101.719 E.00328
M73 Q2 S46
G1 X123.203 Y101.868 E.00916
G1 X117.291 Y95.956 E.26248
G1 X117.01 Y96.21 E.01189
G1 X122.867 Y102.067 E.26004
G1 X122.582 Y102.315 E.01186
G1 X116.73 Y96.463 E.25981
G1 X116.59 Y96.59 E.00593
G1 X116.463 Y96.73 E.00593
G1 X122.312 Y102.579 E.25968
G1 X122.076 Y102.877 E.01193
G1 X116.21 Y97.011 E.26044
G1 X115.956 Y97.291 E.01187
G1 X121.866 Y103.201 E.26239
G1 X121.684 Y103.552 E.01241
G1 X115.713 Y97.582 E.26508
G1 X115.485 Y97.888 E.01198
G1 X121.546 Y103.948 E.26907
G1 X121.433 Y104.37 E.01371
G1 X115.258 Y98.195 E.27416
G1 X115.04 Y98.511 E.01205
G1 X121.386 Y104.857 E.28175
