; generated by PrusaSlicer 2.7.1+win64 on 2024-07-29 at 00:02:09 UTC


;
;
; 

; external perimeters extrusion width = 0.60mm
; perimeters extrusion width = 0.50mm
; infill extrusion width = 0.50mm
; solid infill extrusion width = 0.50mm
; top infill extrusion width = 0.45mm
; support material extrusion width = 0.38mm
; first layer extrusion width = 0.42mm

M73 P0 R61
M73 Q0 S61
M201 X1000 Y1000 Z200 E5000 ; sets maximum accelerations, mm/sec^2
M203 X200 Y200 Z12 E120 ; sets maximum feedrates, mm / sec
M204 S1250 T1250 ; sets acceleration (S) and retract acceleration (R), mm/sec^2
M205 X8.00 Y8.00 Z0.40 E4.50 ; sets the jerk limits, mm/sec
M205 S0 T0 ; sets the minimum extruding and travel feed rate, mm/sec

; printing object WaterBottleCap.stl id:0 copy 0
; stop printing object WaterBottleCap.stl id:0 copy 0

;TYPE:Custom
M862.3 P "MK3S" ; printer model check
M862.1 P0.4 ; nozzle diameter check
G90 ; use absolute coordinates
M83 ; extruder relative mode
M104 S215 ; set extruder temp
M140 S60 ; set bed temp
M190 S60 ; wait for bed temp
M109 S215 ; wait for extruder temp
G28 W ; home all without mesh bed level
G80 ; mesh bed leveling

G1 Z0.2 F720
G1 Y-3 F1000 ; go outside print area
G92 E0
G1 X60 E9 F1000 ; intro line
G1 X100 E12.5 F1000 ; intro line

G92 E0
M221 S95

; Don't change E values below. Excessive value can damage the printer.

M907 E538 ; set extruder motor current
G21 ; set units to millimeters
G90 ; use absolute coordinates
M83 ; use relative distances for extrusion
M900 K0.05 ; Filament gcode LA 1.5
M900 K30 ; Filament gcode LA 1.0
M107
;LAYER_CHANGE
;Z:0.2
;HEIGHT:0.2
;BEFORE_LAYER_CHANGE
G92 E0.0
;0.2


G1 E-.8 F2100
G1 Z.2 F720
;AFTER_LAYER_CHANGE
;0.2
G1 X114.867 Y96.505 F10800
G1 Z.2 F720
G1 E.8 F2100
M204 S800
;TYPE:Skirt/Brim
;WIDTH:0.42
G1 F1200
G1 X116.012 Y95.302 E.05207
G1 X117.158 Y94.354 E.04663
G1 X117.988 Y93.79 E.03146
G1 X119.292 Y93.073 E.04666
G1 X120.213 Y92.674 E.03147
G1 X121.628 Y92.215 E.04664
G1 X122.607 Y91.996 E.03145
G1 X124.083 Y91.809 E.04665
G1 X125.692 Y91.797 E.05045
G1 X126.743 Y91.893 E.03309
G1 X128.204 Y92.172 E.04664
G1 X129.168 Y92.452 E.03147
G1 X130.552 Y92.999 E.04666
G1 X131.446 Y93.455 E.03147
G1 X132.702 Y94.252 E.04664
G1 X133.495 Y94.867 E.03147
G1 X134.698 Y96.012 E.05207
G1 X135.646 Y97.158 E.04663
G1 X136.21 Y97.988 E.03146
G1 X136.927 Y99.292 E.04666
G1 X137.548 Y100.832 E.05206
G1 X137.828 Y101.796 E.03147
G1 X138.107 Y103.257 E.04664
G1 X138.202 Y104.256 E.03146
G1 X138.202 Y105.744 E.04666
G1 X138.107 Y106.743 E.03146
G1 X137.828 Y108.204 E.04664
G1 X137.548 Y109.168 E.03147
G1 X137.001 Y110.552 E.04666
G1 X136.545 Y111.446 E.03147
G1 X135.748 Y112.702 E.04664
G1 X135.133 Y113.495 E.03147
G1 X133.988 Y114.698 E.05207
G1 X132.842 Y115.646 E.04663
G1 X132.012 Y116.21 E.03146
G1 X130.708 Y116.927 E.04666
G1 X129.168 Y117.548 E.05206
G1 X128.204 Y117.828 E.03147
G1 X126.743 Y118.107 E.04664
G1 X125.744 Y118.202 E.03146
G1 X124.256 Y118.202 E.04666
G1 X123.257 Y118.107 E.03146
G1 X121.796 Y117.828 E.04664
G1 X120.832 Y117.548 E.03147
G1 X119.448 Y117.001 E.04666
G1 X118.554 Y116.545 E.03147
G1 X117.298 Y115.748 E.04664
G1 X116.505 Y115.133 E.03147
G1 X115.302 Y113.988 E.05207
G1 X114.354 Y112.842 E.04663
G1 X113.79 Y112.012 E.03146
G1 X113.073 Y110.708 E.04666
G1 X112.452 Y109.168 E.05206
G1 X112.172 Y108.204 E.03147
G1 X111.893 Y106.743 E.04664
G1 X111.798 Y105.744 E.03146
G1 X111.798 Y104.256 E.04666
G1 X111.893 Y103.257 E.03146
G1 X112.172 Y101.796 E.04664
G1 X112.452 Y100.832 E.03147
G1 X112.999 Y99.448 E.04666
G1 X113.455 Y98.554 E.03147
G1 X114.252 Y97.298 E.04664
G1 X114.83 Y96.553 E.02956
M204 S1000
G1 X115.139 Y96.804 F10800
M204 S800
G1 F1200
G1 X115.551 Y96.3 E.02041
G1 X116.261 Y95.585 E.03159
G1 X117.389 Y94.652 E.0459
G1 X118.18 Y94.114 E.02999
G1 X119.463 Y93.409 E.0459
G1 X120.341 Y93.029 E.03
G1 X121.733 Y92.577 E.04589
G1 X122.666 Y92.368 E.02998
G1 X124.119 Y92.185 E.04592
G1 X125.68 Y92.174 E.04895
G1 X126.684 Y92.265 E.03161
G1 X128.122 Y92.54 E.0459
G1 X129.04 Y92.806 E.02997
G1 X130.402 Y93.345 E.04593
G1 X131.254 Y93.78 E.02999
G1 X132.49 Y94.564 E.04589
G1 X133.7 Y95.551 E.04896
G1 X134.415 Y96.261 E.03159
G1 X135.348 Y97.389 E.0459
G1 X135.886 Y98.18 E.02999
G1 X136.591 Y99.463 E.0459
G1 X137.194 Y100.96 E.0506
G1 X137.46 Y101.878 E.02997
G1 X137.735 Y103.316 E.0459
G1 X137.825 Y104.268 E.02998
G1 X137.825 Y105.732 E.0459
G1 X137.735 Y106.684 E.02998
G1 X137.46 Y108.122 E.0459
G1 X137.194 Y109.04 E.02997
G1 X136.655 Y110.402 E.04593
G1 X136.22 Y111.254 E.02999
G1 X135.436 Y112.49 E.04589
G1 X134.449 Y113.7 E.04896
G1 X133.739 Y114.415 E.03159
G1 X132.611 Y115.348 E.0459
G1 X131.82 Y115.886 E.02999
G1 X130.537 Y116.591 E.0459
G1 X129.04 Y117.194 E.0506
G1 X128.122 Y117.46 E.02997
G1 X126.684 Y117.735 E.0459
G1 X125.732 Y117.825 E.02998
G1 X124.268 Y117.825 E.0459
G1 X123.316 Y117.735 E.02998
G1 X121.878 Y117.46 E.0459
G1 X120.96 Y117.194 E.02997
G1 X119.598 Y116.655 E.04593
G1 X118.746 Y116.22 E.02999
G1 X117.51 Y115.436 E.04589
G1 X116.3 Y114.449 E.04896
G1 X115.585 Y113.739 E.03159
G1 X114.652 Y112.611 E.0459
G1 X114.114 Y111.82 E.02999
G1 X113.409 Y110.537 E.0459
G1 X112.806 Y109.04 E.0506
G1 X112.54 Y108.122 E.02997
G1 X112.265 Y106.684 E.0459
G1 X112.175 Y105.732 E.02998
G1 X112.175 Y104.268 E.0459
G1 X112.265 Y103.316 E.02998
G1 X112.54 Y101.878 E.0459
G1 X112.806 Y100.96 E.02997
G1 X113.345 Y99.598 E.04593
G1 X113.78 Y98.746 E.02999
G1 X114.564 Y97.51 E.04589
G1 X115.101 Y96.851 E.02665
M204 S1000
; printing object WaterBottleCap.stl id:0 copy 0
;WIPE_START
G1 F8640
G1 X115.139 Y96.804 E-.01396
G1 X115.551 Y96.3 E-.15031
G1 X116.261 Y95.585 E-.23267
G1 X117.389 Y94.652 E-.33801
G1 X117.622 Y94.494 E-.06505
;WIPE_END
G1 Z.6 F720
G1 X126.452 Y114.166 F10800
G1 Z.2 F720
G1 E.8 F2100
M204 S800
;TYPE:Perimeter
;WIDTH:0.419999
G1 F1200
G1 X125.873 Y114.239 E.0183
G1 X125.292 Y114.276 E.01825
G1 X124.708 Y114.276 E.01831
G1 X124.127 Y114.239 E.01825
G1 X123.548 Y114.166 E.0183
G1 X122.976 Y114.057 E.01826
G1 X122.411 Y113.912 E.01829
G1 X121.856 Y113.731 E.0183
G1 X121.314 Y113.517 E.01827
G1 X120.787 Y113.269 E.01826
G1 X120.276 Y112.988 E.01828
G1 X119.783 Y112.675 E.01831
G1 X119.312 Y112.333 E.01825
G1 X118.863 Y111.961 E.01828
G1 X118.438 Y111.562 E.01828
G1 X118.039 Y111.137 E.01828
G1 X117.667 Y110.688 E.01828
G1 X117.325 Y110.216 E.01828
G1 X117.012 Y109.724 E.01828
G1 X116.731 Y109.213 E.01828
G1 X116.483 Y108.686 E.01826
G1 X116.268 Y108.144 E.01828
G1 X116.088 Y107.589 E.01829
G1 X115.943 Y107.024 E.01829
G1 X115.834 Y106.452 E.01826
G1 X115.761 Y105.873 E.0183
G1 X115.724 Y105.292 E.01825
G1 X115.724 Y104.708 E.01831
G1 X115.761 Y104.127 E.01825
G1 X115.834 Y103.548 E.0183
G1 X115.943 Y102.976 E.01826
G1 X116.088 Y102.411 E.01829
G1 X116.268 Y101.856 E.01829
G1 X116.483 Y101.314 E.01828
G1 X116.731 Y100.787 E.01826
G1 X117.012 Y100.276 E.01828
G1 X117.325 Y99.784 E.01828
G1 X117.667 Y99.312 E.01828
G1 X118.039 Y98.863 E.01828
G1 X118.438 Y98.438 E.01828
G1 X118.863 Y98.039 E.01828
G1 X119.312 Y97.667 E.01828
G1 X119.784 Y97.325 E.01828
G1 X120.276 Y97.012 E.01828
G1 X120.787 Y96.731 E.01828
G1 X121.314 Y96.483 E.01826
G1 X121.856 Y96.268 E.01828
G1 X122.411 Y96.088 E.01829
G1 X122.976 Y95.943 E.01829
G1 X123.548 Y95.834 E.01826
G1 X124.127 Y95.761 E.0183
G1 X124.708 Y95.724 E.01825
G1 X125.292 Y95.724 E.01831
G1 X125.873 Y95.761 E.01825
G1 X126.452 Y95.834 E.0183
G1 X127.024 Y95.943 E.01826
G1 X127.589 Y96.088 E.01829
G1 X128.144 Y96.268 E.01829
G1 X128.686 Y96.483 E.01828
G1 X129.213 Y96.731 E.01826
G1 X129.724 Y97.012 E.01828
G1 X130.216 Y97.325 E.01828
G1 X130.688 Y97.667 E.01828
G1 X131.137 Y98.039 E.01828
G1 X131.562 Y98.438 E.01828
G1 X131.961 Y98.863 E.01828
G1 X132.333 Y99.312 E.01828
G1 X132.675 Y99.784 E.01828
G1 X132.988 Y100.276 E.01828
G1 X133.269 Y100.787 E.01828
G1 X133.517 Y101.314 E.01826
G1 X133.732 Y101.856 E.01828
G1 X133.912 Y102.411 E.01829
G1 X134.057 Y102.976 E.01829
G1 X134.166 Y103.548 E.01826
G1 X134.239 Y104.127 E.0183
G1 X134.276 Y104.708 E.01825
G1 X134.276 Y105.292 E.01831
G1 X134.239 Y105.873 E.01825
G1 X134.166 Y106.452 E.0183
G1 X134.057 Y107.024 E.01826
G1 X133.912 Y107.589 E.01829
G1 X133.731 Y108.144 E.0183
G1 X133.517 Y108.686 E.01827
G1 X133.269 Y109.213 E.01826
G1 X132.988 Y109.724 E.01828
G1 X132.675 Y110.217 E.01831
G1 X132.333 Y110.688 E.01825
G1 X131.961 Y111.137 E.01828
G1 X131.562 Y111.562 E.01828
G1 X131.137 Y111.961 E.01828
G1 X130.688 Y112.333 E.01828
G1 X130.216 Y112.675 E.01828
G1 X129.724 Y112.988 E.01828
G1 X129.213 Y113.269 E.01828
G1 X128.686 Y113.517 E.01826
G1 X128.144 Y113.732 E.01828
G1 X127.589 Y113.912 E.01829
G1 X127.024 Y114.057 E.01829
G1 X126.511 Y114.155 E.01638
M204 S1000
G1 X126.511 Y114.538 F10800
M204 S800
;TYPE:External perimeter
G1 F1200
G1 X125.909 Y114.614 E.01903
G1 X125.303 Y114.652 E.01904
G1 X124.697 Y114.652 E.019
G1 X124.091 Y114.614 E.01904
G1 X123.489 Y114.538 E.01903
G1 X122.893 Y114.425 E.01902
G1 X122.306 Y114.274 E.019
G1 X121.729 Y114.086 E.01903
G1 X121.164 Y113.863 E.01905
G1 X120.616 Y113.605 E.01899
G1 X120.084 Y113.313 E.01903
G1 X119.571 Y112.987 E.01906
G1 X119.081 Y112.631 E.01899
G1 X118.613 Y112.244 E.01904
G1 X118.171 Y111.829 E.01901
G1 X117.756 Y111.386 E.01903
G1 X117.369 Y110.919 E.01902
G1 X117.013 Y110.428 E.01902
G1 X116.688 Y109.916 E.01901
G1 X116.395 Y109.384 E.01904
G1 X116.137 Y108.835 E.01902
G1 X115.914 Y108.271 E.01902
G1 X115.726 Y107.694 E.01903
G1 X115.575 Y107.107 E.019
G1 X115.462 Y106.511 E.01902
G1 X115.386 Y105.909 E.01903
G1 X115.348 Y105.303 E.01904
G1 X115.348 Y104.697 E.019
G1 X115.386 Y104.091 E.01904
G1 X115.462 Y103.489 E.01903
G1 X115.575 Y102.893 E.01902
G1 X115.726 Y102.306 E.019
G1 X115.914 Y101.729 E.01903
G1 X116.137 Y101.165 E.01902
G1 X116.395 Y100.616 E.01902
G1 X116.688 Y100.084 E.01904
G1 X117.013 Y99.572 E.01901
G1 X117.369 Y99.081 E.01902
G1 X117.756 Y98.614 E.01902
G1 X118.171 Y98.171 E.01903
G1 X118.614 Y97.756 E.01903
G1 X119.081 Y97.369 E.01902
G1 X119.572 Y97.013 E.01902
G1 X120.084 Y96.688 E.01901
G1 X120.616 Y96.395 E.01904
G1 X121.165 Y96.137 E.01902
G1 X121.729 Y95.914 E.01902
G1 X122.306 Y95.726 E.01903
G1 X122.893 Y95.575 E.019
G1 X123.489 Y95.462 E.01902
G1 X124.091 Y95.386 E.01903
G1 X124.697 Y95.348 E.01904
G1 X125.303 Y95.348 E.019
G1 X125.909 Y95.386 E.01904
G1 X126.511 Y95.462 E.01903
G1 X127.107 Y95.575 E.01902
G1 X127.694 Y95.726 E.019
G1 X128.271 Y95.914 E.01903
G1 X128.835 Y96.137 E.01902
G1 X129.384 Y96.395 E.01902
G1 X129.916 Y96.688 E.01904
G1 X130.428 Y97.013 E.01901
G1 X130.919 Y97.369 E.01902
G1 X131.386 Y97.756 E.01902
G1 X131.829 Y98.171 E.01903
G1 X132.244 Y98.614 E.01903
G1 X132.631 Y99.081 E.01902
G1 X132.987 Y99.572 E.01902
G1 X133.312 Y100.084 E.01901
M73 P0 R60
G1 X133.605 Y100.616 E.01904
G1 X133.863 Y101.165 E.01902
G1 X134.086 Y101.729 E.01902
G1 X134.274 Y102.306 E.01903
G1 X134.425 Y102.893 E.019
G1 X134.538 Y103.489 E.01902
G1 X134.614 Y104.091 E.01903
G1 X134.652 Y104.697 E.01904
G1 X134.652 Y105.303 E.019
G1 X134.614 Y105.909 E.01904
G1 X134.538 Y106.511 E.01903
G1 X134.425 Y107.107 E.01902
G1 X134.274 Y107.694 E.019
G1 X134.086 Y108.271 E.01903
G1 X133.863 Y108.836 E.01905
G1 X133.605 Y109.384 E.01899
G1 X133.313 Y109.916 E.01903
G1 X132.987 Y110.429 E.01906
G1 X132.631 Y110.919 E.01899
G1 X132.244 Y111.387 E.01904
G1 X131.829 Y111.829 E.01901
G1 X131.386 Y112.244 E.01903
G1 X130.919 Y112.631 E.01902
G1 X130.428 Y112.987 E.01902
G1 X129.916 Y113.312 E.01901
G1 X129.384 Y113.605 E.01904
G1 X128.835 Y113.863 E.01902
G1 X128.271 Y114.086 E.01902
G1 X127.694 Y114.274 E.01903
G1 X127.107 Y114.425 E.019
G1 X126.57 Y114.527 E.01714
M204 S1000
;WIPE_START
G1 F8640
G1 X126.511 Y114.538 E-.01386
G1 X125.909 Y114.614 E-.14011
G1 X125.303 Y114.652 E-.1402
G1 X124.697 Y114.652 E-.13993
G1 X124.091 Y114.614 E-.1402
G1 X123.489 Y114.538 E-.14011
G1 X123.125 Y114.469 E-.08559
;WIPE_END
G1 Z.6 F720
G1 X130.077 Y97.435 F10800
G1 Z.2 F720
G1 E.8 F2100
M204 S800
;TYPE:Solid infill
;WIDTH:0.423309
G1 F1200
G1 X131.539 Y98.897 E.0654
G1 X131.892 Y99.298 E.0169
G1 X132.237 Y99.742 E.01778
G1 X132.552 Y100.206 E.01774
G1 X132.865 Y100.761 E.02015
G1 X129.219 Y97.115 E.16309
G1 X128.809 Y96.906 E.01456
G1 X128.224 Y96.658 E.0201
G1 X133.342 Y101.776 E.22893
G1 X133.507 Y102.236 E.01546
G1 X133.607 Y102.579 E.0113
G1 X127.421 Y96.393 E.2767
G1 X126.711 Y96.221 E.02311
G1 X133.779 Y103.289 E.31616
G1 X133.879 Y103.927 E.02043
G1 X126.074 Y96.122 E.34912
G1 X125.493 Y96.079 E.01843
G1 X133.93 Y104.516 E.37739
G1 X133.943 Y105.067 E.01743
G1 X124.943 Y96.067 E.40258
G1 X124.413 Y96.075 E.01677
G1 X133.925 Y105.587 E.42548
G1 X133.879 Y106.078 E.0156
G1 X123.922 Y96.121 E.44538
G1 X123.455 Y96.192 E.01494
G1 X133.808 Y106.545 E.4631
G1 X133.716 Y106.992 E.01443
G1 X123.008 Y96.284 E.47898
G1 X122.579 Y96.393 E.014
G1 X133.607 Y107.421 E.49329
G1 X133.482 Y107.834 E.01365
G1 X122.166 Y96.518 E.50617
G1 X121.771 Y96.66 E.01328
G1 X133.34 Y108.229 E.51749
G1 X133.181 Y108.608 E.013
G1 X121.397 Y96.825 E.52709
G1 X121.028 Y96.994 E.01284
G1 X133.009 Y108.975 E.53592
G1 X132.827 Y109.33 E.01262
G1 X120.678 Y97.182 E.54341
G1 X120.334 Y97.376 E.01249
G1 X132.627 Y109.668 E.54985
G1 X132.416 Y109.995 E.01231
G1 X120.005 Y97.584 E.55515
G1 X119.688 Y97.805 E.01222
G1 X132.195 Y110.312 E.55945
G1 X131.96 Y110.615 E.01213
M73 P1 R60
M73 Q1 S60
G1 X119.385 Y98.04 E.56249
G1 X119.094 Y98.287 E.01207
G1 X131.713 Y110.906 E.56446
G1 X131.521 Y111.123 E.00916
G1 X131.457 Y111.188 E.00289
G1 X118.812 Y98.543 E.56562
G1 X118.543 Y98.812 E.01203
G1 X131.188 Y111.457 E.56562
G1 X130.906 Y111.713 E.01205
G1 X118.287 Y99.094 E.56446
G1 X118.04 Y99.385 E.01207
G1 X130.615 Y111.96 E.56249
G1 X130.312 Y112.195 E.01213
G1 X117.805 Y99.688 E.55945
G1 X117.584 Y100.005 E.01222
G1 X129.995 Y112.416 E.55515
G1 X129.668 Y112.627 E.01231
G1 X117.373 Y100.332 E.54997
G1 X117.173 Y100.67 E.01242
G1 X129.33 Y112.827 E.54379
G1 X128.975 Y113.009 E.01262
G1 X116.991 Y101.025 E.53605
G1 X116.819 Y101.392 E.01282
G1 X128.608 Y113.181 E.52733
G1 X128.229 Y113.34 E.013
G1 X116.66 Y101.771 E.51749
G1 X116.518 Y102.166 E.01328
G1 X127.834 Y113.482 E.50617
G1 X127.421 Y113.607 E.01365
G1 X116.393 Y102.579 E.49329
G1 X116.284 Y103.008 E.014
G1 X126.992 Y113.716 E.47898
G1 X126.545 Y113.808 E.01443
G1 X116.192 Y103.455 E.4631
G1 X116.121 Y103.922 E.01494
G1 X126.078 Y113.879 E.44538
G1 X125.587 Y113.925 E.0156
G1 X116.075 Y104.413 E.42548
G1 X116.057 Y104.933 E.01646
G1 X125.067 Y113.943 E.40302
G1 X124.516 Y113.93 E.01743
G1 X116.07 Y105.484 E.3778
G1 X116.121 Y106.073 E.0187
G1 X123.927 Y113.879 E.34917
G1 X123.289 Y113.779 E.02043
G1 X116.221 Y106.711 E.31616
G1 X116.393 Y107.421 E.02311
G1 X122.579 Y113.607 E.2767
G1 X122.236 Y113.507 E.0113
G1 X121.776 Y113.342 E.01546
G1 X116.658 Y108.224 E.22893
G1 X116.906 Y108.809 E.0201
G1 X117.115 Y109.219 E.01456
G1 X120.781 Y112.885 E.16398
G1 X120.207 Y112.553 E.02097
G1 X119.742 Y112.237 E.01778
G1 X119.298 Y111.892 E.01778
G1 X118.896 Y111.538 E.01694
G1 X117.435 Y110.077 E.06535
M204 S1000
; stop printing object WaterBottleCap.stl id:0 copy 0
M106 S84.15
;LAYER_CHANGE
;Z:0.5
;HEIGHT:0.3
;BEFORE_LAYER_CHANGE
G92 E0.0
;0.5


;WIPE_START
G1 F8640
G1 X118.896 Y111.538 E-.47708
G1 X119.298 Y111.892 E-.12368
G1 X119.742 Y112.237 E-.12983
G1 X119.991 Y112.406 E-.06941
;WIPE_END
G1 Z.5 F720
;AFTER_LAYER_CHANGE
;0.5
M104 S210 ; set temperature
G1 Z.9
G1 X117.706 Y116.007 F10800
G1 Z.5 F720
G1 E.8 F2100
;TYPE:Skirt/Brim
;WIDTH:0.42
G1 F2700
G1 X117.298 Y115.748 E.02144
G1 X116.505 Y115.133 E.04451
G1 X115.302 Y113.988 E.07366
G1 X114.354 Y112.842 E.06597
G1 X113.79 Y112.012 E.04451
G1 X113.073 Y110.708 E.06601
G1 X112.452 Y109.168 E.07365
G1 X112.172 Y108.204 E.04453
G1 X111.893 Y106.743 E.06597
G1 X111.798 Y105.744 E.04451
G1 X111.798 Y104.256 E.066
G1 X111.893 Y103.257 E.04451
G1 X112.172 Y101.796 E.06597
G1 X112.452 Y100.832 E.04453
G1 X112.999 Y99.448 E.06601
G1 X113.455 Y98.554 E.04451
G1 X114.252 Y97.298 E.06598
