; generated by PrusaSlicer 2.7.1+win64 on 2024-07-30 at 21:56:43 UTC


;
;
; 

; external perimeters extrusion width = 0.60mm
; perimeters extrusion width = 0.50mm
; infill extrusion width = 0.50mm
; solid infill extrusion width = 0.50mm
; top infill extrusion width = 0.45mm
; support material extrusion width = 0.38mm
; first layer extrusion width = 0.42mm

M73 P0 R25
M73 Q0 S25
M201 X1000 Y1000 Z200 E5000 ; sets maximum accelerations, mm/sec^2
M203 X200 Y200 Z12 E120 ; sets maximum feedrates, mm / sec
M204 S1250 T1250 ; sets acceleration (S) and retract acceleration (R), mm/sec^2
M205 X8.00 Y8.00 Z0.40 E4.50 ; sets the jerk limits, mm/sec
M205 S0 T0 ; sets the minimum extruding and travel feed rate, mm/sec

; printing object CageTopGridCenter.stl id:0 copy 0
; stop printing object CageTopGridCenter.stl id:0 copy 0

;TYPE:Custom
M862.3 P "MK3S" ; printer model check
M862.1 P0.4 ; nozzle diameter check
G90 ; use absolute coordinates
M83 ; extruder relative mode
M104 S215 ; set extruder temp
M140 S60 ; set bed temp
M190 S60 ; wait for bed temp
M109 S215 ; wait for extruder temp
G28 W ; home all without mesh bed level
G80 ; mesh bed leveling

G1 Z0.2 F720
G1 Y-3 F1000 ; go outside print area
G92 E0
G1 X60 E9 F1000 ; intro line
G1 X100 E12.5 F1000 ; intro line

G92 E0
M221 S95

; Don't change E values below. Excessive value can damage the printer.

M907 E538 ; set extruder motor current
G21 ; set units to millimeters
G90 ; use absolute coordinates
M83 ; use relative distances for extrusion
M900 K0.05 ; Filament gcode LA 1.5
M900 K30 ; Filament gcode LA 1.0
M107
;LAYER_CHANGE
;Z:0.2
;HEIGHT:0.2
;BEFORE_LAYER_CHANGE
G92 E0.0
;0.2


G1 E-.8 F2100
G1 Z.2 F720
;AFTER_LAYER_CHANGE
;0.2
G1 X59.508 Y72.808 F10800
G1 Z.2 F720
G1 E.8 F2100
M204 S800
;TYPE:Skirt/Brim
;WIDTH:0.42
G1 F1200
G1 X60.237 Y72.264 E.02852
G1 X61.715 Y71.383 E.05395
G1 X63.678 Y70.53 E.06711
G1 X66.602 Y69.697 E.09533
G1 X68.88 Y69.321 E.07239
G1 X72.148 Y69.123 E.10265
G1 X177.852 Y69.123 E3.31427
G1 X181.12 Y69.321 E.10265
G1 X183.398 Y69.697 E.07239
G1 X186.322 Y70.53 E.09533
G1 X188.285 Y71.383 E.06711
G1 X189.763 Y72.264 E.05395
G1 X190.492 Y72.808 E.02852
G1 X191.748 Y74.03 E.05494
G1 X192.427 Y74.973 E.03643
G1 X192.846 Y75.77 E.02823
G1 X193.151 Y76.618 E.02826
G1 X193.324 Y77.474 E.02738
G1 X193.377 Y78.2 E.02282
G1 X193.369 Y132 E1.68686
G1 X193.272 Y132.859 E.0271
M73 P1 R25
M73 Q1 S25
G1 X193.048 Y133.715 E.02774
G1 X192.709 Y134.521 E.02742
G1 X191.926 Y135.751 E.04572
G1 X191.311 Y136.446 E.0291
G1 X190.492 Y137.192 E.03474
G1 X189.763 Y137.736 E.02852
G1 X188.285 Y138.617 E.05395
G1 X186.322 Y139.47 E.06711
G1 X183.398 Y140.303 E.09533
G1 X181.12 Y140.679 E.07239
G1 X177.852 Y140.877 E.10265
G1 X71.113 Y140.854 E3.34673
G1 X68.88 Y140.679 E.07023
G1 X66.602 Y140.303 E.07239
G1 X64.54 Y139.762 E.06684
G1 X62.624 Y139.047 E.06412
G1 X60.879 Y138.149 E.06153
G1 X59.347 Y137.058 E.05897
G1 X58.074 Y135.751 E.05721
G1 X57.291 Y134.521 E.04572
G1 X56.849 Y133.382 E.03831
G1 X56.676 Y132.526 E.02738
G1 X56.623 Y131.8 E.02282
G1 X56.631 Y78 E1.68686
G1 X56.728 Y77.141 E.0271
G1 X56.952 Y76.285 E.02774
G1 X57.291 Y75.479 E.02742
G1 X58.074 Y74.249 E.04572
G1 X58.689 Y73.554 E.0291
G1 X59.464 Y72.848 E.03287
M204 S1000
; printing object CageTopGridCenter.stl id:0 copy 0
;WIPE_START
G1 F8640
G1 X59.508 Y72.808 E-.01373
G1 X60.237 Y72.264 E-.21003
G1 X61.715 Y71.383 E-.3973
G1 X62.426 Y71.074 E-.17894
;WIPE_END
G1 Z.6 F720
G1 X148.43 Y128.578 F10800
G1 Z.2 F720
G1 E.8 F2100
M204 S800
;TYPE:Perimeter
;WIDTH:0.419999
G1 F1200
G1 X149.26 Y128.532 E.02606
G1 X150.671 Y128.323 E.04472
G1 X151.819 Y128.013 E.03728
G1 X151.485 Y128.601 E.0212
G1 X151.277 Y129.316 E.02335
G1 X151.215 Y130.055 E.02325
G1 X151.298 Y130.793 E.02329
G1 X151.524 Y131.5 E.02327
G1 X151.883 Y132.149 E.02325
G1 X152.363 Y132.716 E.02329
G1 X152.943 Y133.178 E.02325
G1 X153.603 Y133.518 E.02328
G1 X154.316 Y133.724 E.02327
G1 X155.055 Y133.785 E.02325
G1 X155.793 Y133.702 E.02329
G1 X156.5 Y133.476 E.02327
G1 X157.149 Y133.117 E.02325
G1 X157.716 Y132.637 E.02329
G1 X158.178 Y132.057 E.02325
G1 X158.519 Y131.397 E.02329
G1 X158.724 Y130.684 E.02326
G1 X158.785 Y129.945 E.02325
G1 X158.702 Y129.207 E.02329
G1 X158.476 Y128.5 E.02327
G1 X158.117 Y127.851 E.02325
G1 X157.637 Y127.284 E.02329
G1 X157.047 Y126.817 E.02359
G1 X156.485 Y126.53 E.01979
G1 X156.153 Y126.444 E.01075
G1 X157.237 Y125.965 E.03716
G1 X159.238 Y124.762 E.07321
G1 X161.112 Y123.37 E.07319
G1 X162.129 Y122.448 E.04304
G1 X162.363 Y122.716 E.01116
G1 X162.851 Y123.117 E.0198
G1 X163.603 Y123.519 E.02674
G1 X164.316 Y123.724 E.02326
G1 X165.055 Y123.785 E.02325
G1 X165.793 Y123.702 E.02329
G1 X166.5 Y123.476 E.02327
G1 X167.149 Y123.117 E.02325
G1 X167.716 Y122.638 E.02327
G1 X168.178 Y122.057 E.02327
G1 X168.519 Y121.397 E.02329
G1 X168.724 Y120.684 E.02326
G1 X168.785 Y119.945 E.02325
G1 X168.702 Y119.207 E.02329
G1 X168.476 Y118.5 E.02327
G1 X168.117 Y117.851 E.02325
G1 X167.638 Y117.284 E.02327
G1 X167.149 Y116.883 E.01983
G1 X166.722 Y116.643 E.01536
G1 X166.991 Y116.188 E.01657
G1 X167.987 Y114.077 E.07319
G1 X168.77 Y111.878 E.07319
G1 X169.335 Y109.613 E.07319
G1 X169.595 Y107.863 E.05547
G1 X169.675 Y107.304 E.01771
G1 X169.787 Y104.972 E.0732
G1 X169.669 Y102.641 E.07318
G1 X169.413 Y100.914 E.05474
M73 Q2 S25
G1 X169.324 Y100.332 E.01846
G1 X168.754 Y98.069 E.07317
G1 X167.965 Y95.872 E.07319
M73 P2 R25
G1 X166.991 Y93.812 E.07145
G1 X166.722 Y93.357 E.01657
G1 X167.149 Y93.117 E.01536
G1 X167.716 Y92.638 E.02327
G1 X168.178 Y92.057 E.02327
G1 X168.519 Y91.397 E.02329
G1 X168.724 Y90.684 E.02326
G1 X168.785 Y89.945 E.02325
G1 X168.702 Y89.207 E.02329
G1 X168.476 Y88.5 E.02327
G1 X168.117 Y87.851 E.02325
G1 X167.638 Y87.284 E.02327
G1 X167.057 Y86.822 E.02327
G1 X166.397 Y86.482 E.02328
G1 X165.684 Y86.277 E.02326
G1 X164.945 Y86.215 E.02325
G1 X164.207 Y86.298 E.02329
G1 X163.5 Y86.524 E.02327
G1 X162.851 Y86.883 E.02325
G1 X162.363 Y87.284 E.0198
G1 X162.129 Y87.552 E.01116
G1 X161.069 Y86.595 E.04478
G1 X159.192 Y85.207 E.0732
G1 X157.062 Y83.95 E.07755
G1 X156.175 Y83.552 E.03048
G1 X156.485 Y83.47 E.01005
G1 X157.169 Y83.1 E.02438
G1 X157.716 Y82.638 E.02245
G1 X158.178 Y82.057 E.02327
G1 X158.519 Y81.397 E.02329
G1 X158.724 Y80.684 E.02326
G1 X158.785 Y79.945 E.02325
G1 X158.702 Y79.207 E.02329
G1 X158.476 Y78.5 E.02327
G1 X158.117 Y77.851 E.02325
G1 X157.638 Y77.284 E.02327
G1 X157.057 Y76.822 E.02327
G1 X156.397 Y76.482 E.02328
G1 X155.684 Y76.277 E.02326
G1 X154.945 Y76.215 E.02325
G1 X154.207 Y76.298 E.02329
G1 X153.5 Y76.524 E.02327
G1 X152.851 Y76.883 E.02325
G1 X152.284 Y77.363 E.02329
G1 X151.822 Y77.943 E.02325
G1 X151.482 Y78.603 E.02328
G1 X151.276 Y79.318 E.02333
G1 X151.215 Y80.056 E.02322
G1 X151.277 Y80.684 E.01979
G1 X151.357 Y80.984 E.00973
G1 X151.541 Y81.524 E.01789
G1 X151.825 Y81.996 E.01727
G1 X150.612 Y81.665 E.03942
G1 X149.209 Y81.463 E.04444
G1 X148.43 Y81.422 E.02446
G1 X148.712 Y80.692 E.02454
G1 X148.785 Y79.943 E.0236
G1 X148.702 Y79.207 E.02322
G1 X148.476 Y78.5 E.02327
G1 X148.117 Y77.851 E.02325
G1 X147.638 Y77.284 E.02327
G1 X147.057 Y76.822 E.02327
G1 X146.397 Y76.482 E.02328
G1 X145.742 Y76.292 E.02138
G1 X144.936 Y76.215 E.02539
G1 X144.157 Y76.313 E.02462
G1 X143.5 Y76.524 E.02164
G1 X142.843 Y76.89 E.02358
G1 X142.245 Y77.41 E.02485
G1 X141.822 Y77.943 E.02134
G1 X141.482 Y78.603 E.02328
G1 X141.277 Y79.316 E.02326
G1 X141.215 Y80.056 E.02328
G1 X141.3 Y80.797 E.02339
G1 X141.488 Y81.401 E.01983
G1 X141.66 Y81.709 E.01106
G1 X141.296 Y81.726 E.01143
G1 X140.446 Y81.898 E.02719
G1 X139.069 Y82.246 E.04453
G1 X137.547 Y82.79 E.05068
G1 X137.716 Y82.638 E.00713
G1 X138.178 Y82.057 E.02327
G1 X138.519 Y81.397 E.02329
G1 X138.702 Y80.793 E.01979
G1 X138.734 Y80.574 E.00694
G1 X138.785 Y79.945 E.01979
G1 X138.702 Y79.207 E.02329
G1 X138.476 Y78.5 E.02327
G1 X138.117 Y77.851 E.02325
G1 X137.638 Y77.284 E.02327
G1 X137.057 Y76.822 E.02327
G1 X136.397 Y76.482 E.02328
G1 X135.684 Y76.277 E.02326
G1 X134.945 Y76.215 E.02325
G1 X134.207 Y76.298 E.02329
G1 X133.5 Y76.524 E.02327
G1 X132.851 Y76.883 E.02325
G1 X132.284 Y77.363 E.02329
G1 X131.822 Y77.943 E.02325
G1 X131.482 Y78.603 E.02328
G1 X131.277 Y79.316 E.02326
G1 X131.215 Y80.055 E.02325
G1 X131.298 Y80.793 E.02329
G1 X131.547 Y81.543 E.02478
G1 X131.883 Y82.149 E.02173
G1 X132.363 Y82.716 E.02329
G1 X132.851 Y83.117 E.0198
G1 X133.603 Y83.518 E.02672
G1 X134.316 Y83.724 E.02327
G1 X134.945 Y83.785 E.01981
G1 X135.344 Y83.757 E.01254
G1 X134.763 Y84.035 E.02019
G1 X133.149 Y85.002 E.05899
G1 X132.463 Y85.459 E.02584
G1 X131.248 Y84.083 E.05756
G1 X130.329 Y83.164 E.04075
G1 X129.891 Y82.727 E.0194
G1 X128.483 Y81.486 E.05885
G1 X128.724 Y80.684 E.02626
G1 X128.785 Y79.945 E.02325
G1 X128.702 Y79.207 E.02329
G1 X128.476 Y78.5 E.02327
G1 X128.117 Y77.851 E.02325
G1 X127.638 Y77.284 E.02327
G1 X127.057 Y76.822 E.02327
G1 X126.397 Y76.482 E.02328
G1 X125.684 Y76.277 E.02326
G1 X124.945 Y76.215 E.02325
G1 X124.207 Y76.298 E.02329
G1 X123.5 Y76.524 E.02327
G1 X122.851 Y76.883 E.02325
G1 X122.363 Y77.284 E.0198
G1 X122.197 Y77.468 E.00777
G1 X120.225 Y76.601 E.06754
G1 X118.453 Y75.963 E.05905
G1 X116.577 Y75.418 E.06125
G1 X114.661 Y74.994 E.06153
G1 X114.568 Y74.432 E.01786
G1 X114.045 Y73.171 E.0428
G1 X113.957 Y73.025 E.00534
G1 X113.273 Y72.231 E.03286
G1 X113.565 Y72.265 E.00922
G1 X114.574 Y72.287 E.03164
G1 X177.791 Y72.287 E1.98212
G1 X178.804 Y72.309 E.03177
G1 X179.802 Y72.369 E.03135
G1 X180.786 Y72.468 E.03101
G1 X181.751 Y72.607 E.03057
G1 X182.69 Y72.781 E.02994
G1 X183.594 Y72.994 E.02912
G1 X184.657 Y73.306 E.03474
G1 X185.676 Y73.676 E.03399
G1 X186.813 Y74.184 E.03905
G1 X187.607 Y74.639 E.02869
G1 X188.06 Y74.934 E.01695
G1 X188.584 Y75.338 E.02075
G1 X189.06 Y75.781 E.02039
G1 X189.42 Y76.184 E.01694
G1 X189.714 Y76.605 E.0161
G1 X189.975 Y77.114 E.01794
G1 X190.161 Y77.732 E.02024
G1 X190.213 Y78.27 E.01695
G1 X190.213 Y131.017 E1.65384
G1 X190.193 Y132.008 E.03108
G1 X190.097 Y132.544 E.01707
G1 X189.944 Y132.963 E.01399
G1 X189.686 Y133.446 E.01717
G1 X189.384 Y133.866 E.01622
G1 X189.003 Y134.282 E.01769
G1 X188.55 Y134.694 E.0192
G1 X188.027 Y135.091 E.02059
G1 X187.432 Y135.473 E.02217
G1 X186.777 Y135.835 E.02346
G1 X186.059 Y136.17 E.02484
G1 X185.285 Y136.48 E.02614
G1 X184.463 Y136.759 E.02722
G1 X183.594 Y137.006 E.02833
G1 X182.69 Y137.219 E.02912
G1 X181.751 Y137.393 E.02994
G1 X180.786 Y137.532 E.03057
G1 X179.802 Y137.631 E.03101
G1 X178.804 Y137.691 E.03135
G1 X177.791 Y137.713 E.03177
G1 X114.636 Y137.713 E1.98018
G1 X113.791 Y137.73 E.0265
M73 P3 R25
M73 Q3 S25
G1 X113.244 Y137.773 E.0172
G1 X113.68 Y137.327 E.01956
G1 X114.045 Y136.829 E.01936
G1 X114.568 Y135.568 E.0428
G1 X114.661 Y135.006 E.01786
G1 X116.577 Y134.582 E.06153
G1 X118.453 Y134.037 E.06125
G1 X120.258 Y133.386 E.06016
G1 X122.197 Y132.532 E.06643
G1 X122.363 Y132.716 E.00777
G1 X122.978 Y133.197 E.02448
G1 X123.603 Y133.518 E.02203
G1 X124.316 Y133.724 E.02327
G1 X125.055 Y133.785 E.02325
G1 X125.793 Y133.702 E.02329
G1 X126.5 Y133.476 E.02327
G1 X127.149 Y133.117 E.02325
G1 X127.716 Y132.637 E.02329
G1 X128.178 Y132.057 E.02325
G1 X128.518 Y131.397 E.02328
G1 X128.724 Y130.684 E.02327
G1 X128.785 Y129.945 E.02325
G1 X128.702 Y129.207 E.02329
G1 X128.483 Y128.514 E.02279
G1 X129.917 Y127.248 E.05998
G1 X131.273 Y125.891 E.06015
G1 X132.463 Y124.541 E.05643
G1 X132.808 Y124.793 E.0134
G1 X134.812 Y125.991 E.07321
G1 X135.344 Y126.243 E.01846
G1 X135.055 Y126.215 E.0091
M73 P3 R24
G1 X134.207 Y126.298 E.02672
G1 X133.5 Y126.524 E.02327
G1 X132.851 Y126.883 E.02325
G1 X132.284 Y127.363 E.02329
G1 X131.822 Y127.943 E.02325
G1 X131.482 Y128.603 E.02328
G1 X131.277 Y129.316 E.02326
G1 X131.215 Y130.055 E.02325
G1 X131.298 Y130.793 E.02329
G1 X131.524 Y131.5 E.02327
G1 X131.883 Y132.149 E.02325
G1 X132.363 Y132.716 E.02329
G1 X132.943 Y133.178 E.02325
G1 X133.603 Y133.518 E.02328
G1 X134.316 Y133.724 E.02327
G1 X135.055 Y133.785 E.02325
G1 X135.793 Y133.702 E.02329
G1 X136.5 Y133.476 E.02327
G1 X137.149 Y133.117 E.02325
G1 X137.716 Y132.638 E.02327
G1 X138.178 Y132.057 E.02327
G1 X138.519 Y131.397 E.02329
G1 X138.724 Y130.684 E.02326
G1 X138.785 Y129.944 E.02328
G1 X138.702 Y129.207 E.02325
G1 X138.457 Y128.464 E.02453
G1 X138.117 Y127.851 E.02198
G1 X137.716 Y127.363 E.0198
G1 X137.547 Y127.21 E.00715
G1 X139.124 Y127.771 E.05248
G1 X140.714 Y128.163 E.05135
G1 X141.29 Y128.276 E.0184
G1 X141.66 Y128.291 E.01161
G1 X141.55 Y128.466 E.00648
G1 X141.379 Y128.948 E.01604
G1 X141.266 Y129.422 E.01528
G1 X141.215 Y130.055 E.01991
G1 X141.298 Y130.793 E.02329
G1 X141.527 Y131.505 E.02345
G1 X141.907 Y132.178 E.02423
G1 X142.363 Y132.716 E.02211
G1 X142.943 Y133.178 E.02325
G1 X143.603 Y133.518 E.02328
G1 X144.258 Y133.708 E.02138
G1 X145.055 Y133.785 E.02511
G1 X145.793 Y133.702 E.02329
G1 X146.5 Y133.476 E.02327
G1 X147.149 Y133.117 E.02325
G1 X147.716 Y132.638 E.02327
G1 X148.178 Y132.057 E.02327
G1 X148.519 Y131.397 E.02329
G1 X148.723 Y130.684 E.02325
G1 X148.785 Y130.057 E.01975
G1 X148.77 Y129.816 E.00757
G1 X148.671 Y129.154 E.02099
G1 X148.453 Y128.633 E.01771
M204 S1000
G1 X147.602 Y128.132 F10800
M204 S800
;TYPE:External perimeter
G1 F1200
G1 X147.855 Y128.119 E.00794
G1 X148.217 Y128.204 E.01166
G1 X149.206 Y128.159 E.03104
G1 X150.577 Y127.958 E.04345
G1 X151.212 Y127.795 E.02056
G1 X151.924 Y127.583 E.02329
G1 X153.079 Y127.064 E.0397
;WIDTH:0.414793
G1 X153.156 Y127.06 E.00238
;WIDTH:0.458056
G1 X153.234 Y127.055 E.0027
;WIDTH:0.501319
G1 X153.311 Y127.05 E.00294
;WIDTH:0.544582
G1 X153.388 Y127.045 E.00322
;WIDTH:0.587845
G1 X153.465 Y127.041 E.00349
;WIDTH:0.631108
G1 X153.543 Y127.036 E.00382
G1 X153.49 Y127.089 E.00367
;WIDTH:0.587845
G1 X153.438 Y127.142 E.00336
;WIDTH:0.544582
G1 X153.385 Y127.194 E.0031
;WIDTH:0.501319
G1 X153.333 Y127.247 E.00283
;WIDTH:0.458056
G1 X153.28 Y127.3 E.00259
;WIDTH:0.414793
G1 X153.228 Y127.353 E.0023
;WIDTH:0.419999
G1 X152.712 Y127.682 E.01919
G1 X152.189 Y128.129 E.02157
G1 X151.845 Y128.712 E.02122
G1 X151.652 Y129.353 E.02099
G1 X151.59 Y130.018 E.02094
G1 X151.659 Y130.683 E.02096
G1 X151.857 Y131.322 E.02098
G1 X152.175 Y131.91 E.02096
G1 X152.602 Y132.424 E.02095
G1 X153.121 Y132.846 E.02097
G1 X153.712 Y133.158 E.02095
G1 X154.353 Y133.348 E.02096
G1 X155.018 Y133.41 E.02094
G1 X155.683 Y133.341 E.02096
G1 X156.322 Y133.144 E.02097
G1 X156.91 Y132.825 E.02097
G1 X157.424 Y132.398 E.02095
G1 X157.846 Y131.879 E.02097
G1 X158.158 Y131.288 E.02095
G1 X158.348 Y130.647 E.02096
G1 X158.41 Y129.982 E.02094
G1 X158.341 Y129.317 E.02096
G1 X158.143 Y128.678 E.02098
G1 X157.825 Y128.09 E.02096
G1 X157.398 Y127.575 E.02098
G1 X156.876 Y127.153 E.02105
G1 X156.263 Y126.848 E.02147
;WIDTH:0.463904
G1 X155.589 Y126.708 E.0241
G1 X155.262 Y126.754 E.01156
;WIDTH:0.436224
G1 X154.936 Y126.801 E.01077
;WIDTH:0.45472
G1 X154.825 Y126.788 E.00383
;WIDTH:0.500897
G1 X154.714 Y126.776 E.00425
;WIDTH:0.547074
G1 X154.603 Y126.764 E.00468
;WIDTH:0.593251
G1 X154.492 Y126.752 E.00511
;WIDTH:0.639428
G1 X154.381 Y126.74 E.00554
G1 X154.479 Y126.68 E.0057
;WIDTH:0.593251
G1 X154.577 Y126.621 E.00523
;WIDTH:0.547074
G1 X154.674 Y126.561 E.00478
;WIDTH:0.500897
G1 X154.772 Y126.502 E.00436
;WIDTH:0.45472
G1 X154.87 Y126.442 E.00393
;WIDTH:0.428636
G1 X155.77 Y126.205 E.02985
G1 X156.342 Y125.95 E.02009
;WIDTH:0.419999
G1 X157.044 Y125.642 E.02404
G1 X159.014 Y124.46 E.07203
G1 X160.858 Y123.09 E.07203
G1 X162.175 Y121.91 E.05544
G1 X162.602 Y122.424 E.02095
G1 X163.09 Y122.825 E.0198
G1 X163.266 Y122.923 E.00632
G1 X163.712 Y123.158 E.01581
G1 X164.353 Y123.348 E.02096
G1 X165.018 Y123.41 E.02094
G1 X165.683 Y123.341 E.02096
G1 X166.322 Y123.144 E.02097
G1 X166.91 Y122.825 E.02097
G1 X167.424 Y122.398 E.02095
G1 X167.846 Y121.879 E.02097
G1 X168.158 Y121.288 E.02095
G1 X168.348 Y120.647 E.02096
G1 X168.41 Y119.982 E.02094
G1 X168.341 Y119.317 E.02096
G1 X168.144 Y118.678 E.02097
G1 X167.825 Y118.09 E.02097
G1 X167.398 Y117.576 E.02095
G1 X166.879 Y117.154 E.02097
