; generated by PrusaSlicer 2.7.1+win64 on 2024-07-25 at 16:32:10 UTC


;
;
; 

; external perimeters extrusion width = 0.60mm
; perimeters extrusion width = 0.50mm
; infill extrusion width = 0.50mm
; solid infill extrusion width = 0.50mm
; top infill extrusion width = 0.45mm
; support material extrusion width = 0.38mm
; first layer extrusion width = 0.42mm

M73 P0 R117
M73 Q0 S117
M201 X1000 Y1000 Z200 E5000 ; sets maximum accelerations, mm/sec^2
M203 X200 Y200 Z12 E120 ; sets maximum feedrates, mm / sec
M204 S1250 T1250 ; sets acceleration (S) and retract acceleration (R), mm/sec^2
M205 X8.00 Y8.00 Z0.40 E4.50 ; sets the jerk limits, mm/sec
M205 S0 T0 ; sets the minimum extruding and travel feed rate, mm/sec

; printing object CageTopGrid.stl id:0 copy 0
; stop printing object CageTopGrid.stl id:0 copy 0
; printing object CageTopGrid.stl id:0 copy 1
; stop printing object CageTopGrid.stl id:0 copy 1

;TYPE:Custom
M862.3 P "MK3S" ; printer model check
M862.1 P0.4 ; nozzle diameter check
G90 ; use absolute coordinates
M83 ; extruder relative mode
M104 S215 ; set extruder temp
M140 S60 ; set bed temp
M190 S60 ; wait for bed temp
M109 S215 ; wait for extruder temp
G28 W ; home all without mesh bed level
G80 ; mesh bed leveling

G1 Z0.2 F720
G1 Y-3 F1000 ; go outside print area
G92 E0
G1 X60 E9 F1000 ; intro line
G1 X100 E12.5 F1000 ; intro line

G92 E0
M221 S95

; Don't change E values below. Excessive value can damage the printer.

M907 E538 ; set extruder motor current
G21 ; set units to millimeters
G90 ; use absolute coordinates
M83 ; use relative distances for extrusion
M900 K0.05 ; Filament gcode LA 1.5
M900 K30 ; Filament gcode LA 1.0
M107
;LAYER_CHANGE
;Z:0.2
;HEIGHT:0.2
;BEFORE_LAYER_CHANGE
G92 E0.0
;0.2


G1 E-.8 F2100
G1 Z.2 F720
;AFTER_LAYER_CHANGE
;0.2
G1 X37.852 Y40.337 F10800
G1 Z.2 F720
G1 E.8 F2100
M204 S800
;TYPE:Skirt/Brim
;WIDTH:0.42
G1 F1200
G1 X39.159 Y39.119 E.05602
G1 X40.155 Y38.419 E.03817
G1 X41.652 Y37.681 E.05233
G1 X42.838 Y37.323 E.03884
G1 X44.6 Y37.123 E.0556
G1 X205.555 Y37.128 E5.04663
G1 X206.491 Y37.204 E.02944
M73 P0 R116
G1 X207.434 Y37.389 E.03013
G1 X208.348 Y37.681 E.03008
G1 X209.845 Y38.419 E.05233
G1 X211.431 Y39.62 E.06238
G1 X212.916 Y41.257 E.0693
G1 X213.517 Y42.11 E.03272
G1 X214.465 Y43.805 E.06089
G1 X215.333 Y45.958 E.07279
G1 X215.657 Y47.033 E.0352
G1 X216.098 Y49.107 E.06648
G1 X216.347 Y51.505 E.07559
G1 X216.347 Y158.495 E3.3546
G1 X216.118 Y160.766 E.07157
G1 X215.657 Y162.967 E.07051
G1 X215.292 Y164.165 E.03927
G1 X214.532 Y166.055 E.06387
G1 X213.973 Y167.134 E.0381
G1 X212.916 Y168.743 E.06036
G1 X212.148 Y169.663 E.03758
G1 X210.841 Y170.881 E.05602
G1 X209.845 Y171.581 E.03817
G1 X208.348 Y172.319 E.05233
G1 X207.162 Y172.677 E.03884
G1 X205.4 Y172.877 E.0556
G1 X44.6 Y172.877 E5.04177
G1 X43.509 Y172.796 E.0343
G1 X42.566 Y172.611 E.03013
G1 X41.652 Y172.319 E.03008
G1 X40.79 Y171.934 E.0296
G1 X39.935 Y171.442 E.03093
G1 X39.159 Y170.881 E.03002
G1 X38.413 Y170.235 E.03094
G1 X37.189 Y168.879 E.05728
G1 X35.954 Y167.002 E.07045
G1 X35.468 Y166.055 E.03337
G1 X34.708 Y164.165 E.06387
G1 X34.087 Y161.883 E.07415
G1 X33.751 Y159.757 E.06749
G1 X33.653 Y158.495 E.03969
G1 X33.624 Y52.533 E3.32236
G1 X33.751 Y50.243 E.07191
G1 X34.087 Y48.117 E.06749
G1 X34.381 Y46.892 E.0395
G1 X35.092 Y44.8 E.06928
G1 X36.027 Y42.866 E.06735
G1 X37.084 Y41.257 E.06036
G1 X37.813 Y40.383 E.03568
M204 S1000
; printing object CageTopGrid.stl id:0 copy 1
;WIPE_START
G1 F8640
G1 X37.852 Y40.337 E-.01393
G1 X39.159 Y39.119 E-.41252
G1 X40.155 Y38.419 E-.2811
G1 X40.514 Y38.242 E-.09245
;WIPE_END
G1 Z.6 F720
G1 X133.729 Y168.836 F10800
G1 Z.2 F720
G1 E.8 F2100
M204 S800
;TYPE:Perimeter
;WIDTH:0.419999
G1 F1200
G1 X133.182 Y168.448 E.02103
G1 X132.645 Y167.992 E.02209
G1 X132.131 Y167.469 E.02299
G1 X131.641 Y166.879 E.02405
G1 X131.177 Y166.231 E.02499
G1 X130.75 Y165.522 E.02595
G1 X130.355 Y164.76 E.02691
G1 X130 Y163.951 E.0277
G1 X129.686 Y163.096 E.02856
G1 X129.415 Y162.207 E.02914
G1 X129.194 Y161.284 E.02976
G1 X129.017 Y160.335 E.03027
G1 X128.891 Y159.368 E.03058
G1 X128.815 Y158.386 E.03088
G1 X128.787 Y157.389 E.03127
G1 X128.787 Y52.611 E3.28524
G1 X128.815 Y51.614 E.03127
M73 Q0 S116
G1 X128.891 Y50.632 E.03088
G1 X129.017 Y49.665 E.03058
G1 X129.194 Y48.716 E.03027
G1 X129.415 Y47.793 E.02976
G1 X129.686 Y46.904 E.02914
G1 X130 Y46.049 E.02856
G1 X130.355 Y45.24 E.0277
G1 X130.75 Y44.478 E.02691
G1 X131.177 Y43.769 E.02595
G1 X131.641 Y43.121 E.02499
G1 X132.131 Y42.531 E.02405
G1 X132.645 Y42.008 E.02299
G1 X133.182 Y41.552 E.02209
G1 X133.729 Y41.164 E.02103
G1 X134.292 Y40.851 E.0202
G1 X134.864 Y40.605 E.01952
G1 X135.439 Y40.43 E.01885
G1 X136.021 Y40.327 E.01853
G1 X136.626 Y40.287 E.01901
G1 X205.374 Y40.287 E2.15554
G1 X205.979 Y40.327 E.01901
G1 X206.561 Y40.43 E.01853
G1 X207.136 Y40.604 E.01884
G1 X207.708 Y40.851 E.01954
G1 X208.271 Y41.164 E.0202
G1 X208.818 Y41.552 E.02103
G1 X209.355 Y42.008 E.02209
G1 X209.869 Y42.531 E.02299
G1 X210.359 Y43.121 E.02405
G1 X210.823 Y43.769 E.02499
G1 X211.25 Y44.478 E.02595
G1 X211.645 Y45.24 E.02691
G1 X212 Y46.049 E.0277
G1 X212.314 Y46.904 E.02856
G1 X212.585 Y47.793 E.02914
G1 X212.806 Y48.716 E.02976
G1 X212.983 Y49.665 E.03027
G1 X213.109 Y50.632 E.03058
G1 X213.192 Y51.877 E.03912
G1 X213.213 Y52.639 E.0239
G1 X213.213 Y157.389 E3.28436
G1 X213.185 Y158.386 E.03127
G1 X213.109 Y159.368 E.03088
G1 X212.983 Y160.335 E.03058
G1 X212.806 Y161.284 E.03027
G1 X212.585 Y162.207 E.02976
G1 X212.314 Y163.096 E.02914
G1 X212 Y163.951 E.02856
G1 X211.645 Y164.76 E.0277
G1 X211.25 Y165.522 E.02691
G1 X210.823 Y166.231 E.02595
G1 X210.359 Y166.879 E.02499
G1 X209.869 Y167.469 E.02405
G1 X209.355 Y167.992 E.02299
G1 X208.818 Y168.448 E.02209
G1 X208.271 Y168.836 E.02103
G1 X207.708 Y169.149 E.0202
G1 X207.136 Y169.395 E.01952
G1 X206.561 Y169.57 E.01885
G1 X205.979 Y169.673 E.01853
G1 X205.374 Y169.713 E.01901
G1 X136.626 Y169.713 E2.15554
G1 X136.021 Y169.673 E.01901
G1 X135.439 Y169.57 E.01853
G1 X134.864 Y169.396 E.01884
G1 X134.292 Y169.149 E.01954
G1 X133.782 Y168.865 E.0183
M204 S1000
G1 X133.528 Y169.156 F10800
M204 S800
;TYPE:External perimeter
G1 F1200
G1 X132.95 Y168.746 E.02222
G1 X132.388 Y168.268 E.02313
G1 X131.851 Y167.722 E.02401
G1 X131.342 Y167.109 E.02498
G1 X130.862 Y166.438 E.02587
G1 X130.421 Y165.707 E.02677
G1 X130.014 Y164.923 E.0277
G1 X129.65 Y164.091 E.02847
G1 X129.329 Y163.216 E.02922
G1 X129.051 Y162.306 E.02983
G1 X128.825 Y161.363 E.0304
G1 X128.644 Y160.394 E.03091
G1 X128.516 Y159.407 E.03121
G1 X128.439 Y158.406 E.03148
G1 X128.41 Y157.394 E.03174
G1 X128.41 Y52.606 E3.28555
G1 X128.439 Y51.594 E.03174
G1 X128.516 Y50.593 E.03148
G1 X128.644 Y49.606 E.03121
G1 X128.825 Y48.637 E.03091
G1 X129.051 Y47.694 E.0304
G1 X129.329 Y46.784 E.02983
G1 X129.65 Y45.909 E.02922
G1 X130.014 Y45.077 E.02847
G1 X130.421 Y44.294 E.02767
G1 X130.862 Y43.562 E.02679
G1 X131.342 Y42.891 E.02587
G1 X131.851 Y42.278 E.02498
G1 X132.388 Y41.732 E.02401
G1 X132.95 Y41.254 E.02313
G1 X133.528 Y40.844 E.02222
G1 X134.126 Y40.512 E.02145
G1 X134.735 Y40.25 E.02079
G1 X135.351 Y40.063 E.02018
G1 X135.975 Y39.952 E.01987
G1 X136.613 Y39.91 E.02005
G1 X205.387 Y39.91 E2.15636
G1 X206.025 Y39.952 E.02005
G1 X206.649 Y40.063 E.01987
G1 X207.265 Y40.25 E.02018
G1 X207.874 Y40.512 E.02079
G1 X208.472 Y40.844 E.02145
G1 X209.05 Y41.254 E.02222
G1 X209.612 Y41.732 E.02313
G1 X210.149 Y42.278 E.02401
G1 X210.658 Y42.891 E.02498
G1 X211.138 Y43.562 E.02587
G1 X211.579 Y44.293 E.02677
G1 X211.986 Y45.077 E.0277
M73 Q1 S116
G1 X212.35 Y45.909 E.02847
G1 X212.671 Y46.784 E.02922
G1 X212.949 Y47.694 E.02983
G1 X213.175 Y48.637 E.0304
M73 P1 R116
G1 X213.356 Y49.606 E.03091
G1 X213.484 Y50.593 E.03121
G1 X213.569 Y51.867 E.04003
G1 X213.59 Y52.639 E.02421
G1 X213.59 Y157.394 E3.28451
G1 X213.561 Y158.406 E.03174
M73 P1 R115
G1 X213.484 Y159.407 E.03148
G1 X213.356 Y160.394 E.03121
G1 X213.175 Y161.363 E.03091
G1 X212.949 Y162.306 E.0304
G1 X212.671 Y163.216 E.02983
G1 X212.35 Y164.091 E.02922
G1 X211.986 Y164.923 E.02847
G1 X211.579 Y165.707 E.0277
G1 X211.138 Y166.438 E.02677
G1 X210.658 Y167.109 E.02587
G1 X210.149 Y167.722 E.02498
G1 X209.612 Y168.268 E.02401
G1 X209.05 Y168.746 E.02313
G1 X208.472 Y169.156 E.02222
G1 X207.874 Y169.488 E.02145
G1 X207.265 Y169.75 E.02079
G1 X206.649 Y169.937 E.02018
G1 X206.025 Y170.048 E.01987
G1 X205.387 Y170.09 E.02005
G1 X136.613 Y170.09 E2.15636
G1 X135.975 Y170.048 E.02005
G1 X135.351 Y169.937 E.01987
G1 X134.735 Y169.75 E.02018
G1 X134.126 Y169.488 E.02079
G1 X133.581 Y169.185 E.01955
M204 S1000
;WIPE_START
G1 F8640
G1 X133.528 Y169.156 E-.01395
G1 X132.95 Y168.746 E-.16363
G1 X132.388 Y168.268 E-.17036
G1 X131.851 Y167.722 E-.17683
G1 X131.342 Y167.109 E-.18398
G1 X131.112 Y166.788 E-.09125
;WIPE_END
G1 Z.6 F720
G1 X209.78 Y45 F10800
G1 Z.2 F720
G1 E.8 F2100
M204 S800
;TYPE:Perimeter
G1 F1200
G1 X209.734 Y45.576 E.01812
G1 X209.592 Y46.155 E.01869
G1 X209.476 Y46.5 E.01141
G1 X209.178 Y47.057 E.01981
G1 X208.716 Y47.638 E.02327
G1 X208.149 Y48.117 E.02327
G1 X207.5 Y48.476 E.02325
G1 X206.793 Y48.702 E.02327
G1 X206.055 Y48.785 E.02329
G1 X205.316 Y48.724 E.02325
G1 X204.603 Y48.518 E.02327
G1 X203.943 Y48.178 E.02328
G1 X203.363 Y47.716 E.02325
G1 X202.883 Y47.149 E.02329
G1 X202.524 Y46.5 E.02325
G1 X202.298 Y45.793 E.02327
G1 X202.215 Y45.055 E.02329
G1 X202.276 Y44.316 E.02325
G1 X202.482 Y43.603 E.02327
G1 X202.883 Y42.851 E.02672
G1 X203.284 Y42.363 E.0198
G1 X203.851 Y41.883 E.02329
G1 X204.5 Y41.524 E.02325
G1 X205.207 Y41.298 E.02327
G1 X205.945 Y41.215 E.02329
G1 X206.684 Y41.277 E.02325
G1 X207.397 Y41.482 E.02326
G1 X208.149 Y41.883 E.02672
G1 X208.638 Y42.284 E.01983
G1 X208.83 Y42.502 E.00911
G1 X209.178 Y42.943 E.01761
G1 X209.476 Y43.5 E.01981
G1 X209.702 Y44.207 E.02327
G1 X209.785 Y44.938 E.02307
G1 X209.785 Y44.94 E.00006
M204 S1000
G1 X209.41 Y44.975 F10800
M204 S800
;TYPE:External perimeter
G1 F1200
G1 X209.359 Y45.539 E.01776
G1 X209.231 Y46.046 E.0164
G1 X209.058 Y46.482 E.01471
G1 X208.825 Y46.91 E.01528
G1 X208.424 Y47.398 E.0198
G1 X207.91 Y47.825 E.02095
G1 X207.322 Y48.144 E.02097
G1 X206.683 Y48.341 E.02097
G1 X206.018 Y48.41 E.02096
G1 X205.353 Y48.348 E.02094
G1 X204.712 Y48.158 E.02096
G1 X204.121 Y47.846 E.02095
G1 X203.602 Y47.424 E.02097
G1 X203.175 Y46.91 E.02095
G1 X202.856 Y46.322 E.02097
G1 X202.659 Y45.683 E.02097
G1 X202.59 Y45.018 E.02096
G1 X202.652 Y44.353 E.02094
G1 X202.842 Y43.712 E.02096
G1 X203.154 Y43.121 E.02095
G1 X203.576 Y42.602 E.02097
G1 X204.09 Y42.175 E.02095
G1 X204.678 Y41.856 E.02097
G1 X205.317 Y41.659 E.02097
G1 X205.982 Y41.59 E.02096
G1 X206.647 Y41.652 E.02094
G1 X207.288 Y41.842 E.02096
G1 X207.751 Y42.086 E.01641
G1 X208.154 Y42.375 E.01555
G1 X208.539 Y42.741 E.01666
G1 X208.874 Y43.174 E.01717
G1 X209.144 Y43.678 E.01793
G1 X209.341 Y44.317 E.02097
G1 X209.403 Y44.915 E.01885
M204 S1000
;WIPE_START
G1 F8640
G1 X209.41 Y44.975 E-.01395
G1 X209.359 Y45.539 E-.13076
G1 X209.231 Y46.046 E-.12074
G1 X209.058 Y46.482 E-.10831
G1 X208.825 Y46.91 E-.11252
G1 X208.424 Y47.398 E-.14584
G1 X207.91 Y47.825 E-.1543
G1 X207.858 Y47.853 E-.01358
;WIPE_END
G1 Z.6 F720
G1 X193.906 Y41.853 F10800
G1 Z.2 F720
G1 E.8 F2100
M204 S800
;TYPE:Perimeter
G1 F1200
G1 X194.5 Y41.524 E.02129
G1 X195.207 Y41.298 E.02327
G1 X195.945 Y41.215 E.02329
G1 X196.793 Y41.298 E.02672
G1 X197.397 Y41.482 E.0198
G1 X198.057 Y41.822 E.02328
G1 X198.637 Y42.284 E.02325
G1 X199.117 Y42.851 E.02329
G1 X199.476 Y43.5 E.02325
G1 X199.702 Y44.207 E.02327
G1 X199.785 Y44.945 E.02329
G1 X199.724 Y45.684 E.02325
G1 X199.518 Y46.397 E.02327
G1 X199.178 Y47.057 E.02328
G1 X198.716 Y47.637 E.02325
G1 X198.149 Y48.117 E.02329
G1 X197.5 Y48.476 E.02325
G1 X196.793 Y48.702 E.02327
G1 X196.055 Y48.785 E.02329
G1 X195.316 Y48.724 E.02325
G1 X194.603 Y48.518 E.02327
G1 X193.943 Y48.178 E.02328
G1 X193.363 Y47.716 E.02325
G1 X192.883 Y47.149 E.02329
G1 X192.524 Y46.5 E.02325
G1 X192.298 Y45.793 E.02327
G1 X192.215 Y45.055 E.02329
G1 X192.276 Y44.316 E.02325
G1 X192.482 Y43.603 E.02327
G1 X192.883 Y42.851 E.02672
G1 X193.284 Y42.363 E.0198
G1 X193.851 Y41.883 E.02329
G1 X193.854 Y41.882 E.0001
M204 S1000
G1 X194.09 Y42.175 F10800
M204 S800
;TYPE:External perimeter
G1 F1200
G1 X194.678 Y41.856 E.02097
G1 X195.317 Y41.659 E.02097
G1 X195.982 Y41.59 E.02096
G1 X196.683 Y41.659 E.02209
G1 X197.288 Y41.842 E.01982
G1 X197.879 Y42.154 E.02095
G1 X198.398 Y42.576 E.02097
G1 X198.825 Y43.09 E.02095
G1 X199.144 Y43.678 E.02097
G1 X199.341 Y44.317 E.02097
G1 X199.41 Y44.982 E.02096
G1 X199.348 Y45.647 E.02094
G1 X199.158 Y46.288 E.02096
G1 X198.846 Y46.879 E.02095
G1 X198.424 Y47.398 E.02097
G1 X197.91 Y47.825 E.02095
G1 X197.322 Y48.144 E.02097
G1 X196.683 Y48.341 E.02097
G1 X196.018 Y48.41 E.02096
G1 X195.353 Y48.348 E.02094
G1 X194.712 Y48.158 E.02096
G1 X194.121 Y47.846 E.02095
G1 X193.602 Y47.424 E.02097
G1 X193.175 Y46.91 E.02095
G1 X192.856 Y46.322 E.02097
G1 X192.659 Y45.683 E.02097
G1 X192.59 Y45.018 E.02096
G1 X192.652 Y44.353 E.02094
G1 X192.842 Y43.712 E.02096
G1 X193.154 Y43.121 E.02095
G1 X193.576 Y42.602 E.02097
G1 X194.044 Y42.213 E.01908
M204 S1000
;WIPE_START
G1 F8640
G1 X194.09 Y42.175 E-.01378
G1 X194.678 Y41.856 E-.15446
G1 X195.317 Y41.659 E-.1544
G1 X195.982 Y41.59 E-.15437
G1 X196.683 Y41.659 E-.16265
G1 X197.288 Y41.842 E-.14595
G1 X197.343 Y41.871 E-.01439
;WIPE_END
G1 Z.6 F720
G1 X199.489 Y56.454 F10800
G1 Z.2 F720
G1 E.8 F2100
M204 S800
;TYPE:Perimeter
G1 F1200
G1 X199.178 Y57.057 E.02127
G1 X198.716 Y57.637 E.02325
G1 X198.149 Y58.117 E.02329
G1 X197.5 Y58.476 E.02325
G1 X196.793 Y58.702 E.02327
G1 X196.055 Y58.785 E.02329
G1 X195.316 Y58.724 E.02325
G1 X194.603 Y58.518 E.02327
G1 X193.943 Y58.178 E.02328
G1 X193.363 Y57.716 E.02325
G1 X192.883 Y57.149 E.02329
G1 X192.524 Y56.5 E.02325
G1 X192.298 Y55.793 E.02327
G1 X192.215 Y55.055 E.02329
G1 X192.276 Y54.316 E.02325
G1 X192.482 Y53.603 E.02327
G1 X192.822 Y52.943 E.02328
G1 X193.284 Y52.363 E.02325
G1 X193.851 Y51.883 E.02329
G1 X194.5 Y51.524 E.02325
G1 X195.316 Y51.277 E.02673
G1 X195.945 Y51.215 E.01982
G1 X196.684 Y51.277 E.02325
G1 X197.397 Y51.482 E.02326
G1 X198.057 Y51.822 E.02328
G1 X198.637 Y52.284 E.02325
G1 X199.117 Y52.851 E.02329
G1 X199.476 Y53.5 E.02325
G1 X199.702 Y54.207 E.02327
G1 X199.785 Y54.945 E.02329
G1 X199.724 Y55.684 E.02325
G1 X199.518 Y56.397 E.02327
G1 X199.517 Y56.401 E.00013
M204 S1000
G1 X199.158 Y56.288 F10800
M204 S800
;TYPE:External perimeter
G1 F1200
G1 X198.846 Y56.879 E.02095
G1 X198.424 Y57.398 E.02097
G1 X197.91 Y57.825 E.02095
G1 X197.322 Y58.143 E.02096
G1 X196.683 Y58.341 E.02098
G1 X196.018 Y58.41 E.02096
G1 X195.353 Y58.348 E.02094
G1 X194.712 Y58.158 E.02096
G1 X194.121 Y57.846 E.02095
G1 X193.602 Y57.424 E.02097
G1 X193.175 Y56.91 E.02095
G1 X192.856 Y56.322 E.02097
G1 X192.659 Y55.683 E.02097
G1 X192.59 Y55.018 E.02096
G1 X192.652 Y54.353 E.02094
G1 X192.842 Y53.712 E.02096
G1 X193.154 Y53.121 E.02095
G1 X193.576 Y52.602 E.02097
G1 X194.09 Y52.175 E.02095
G1 X194.678 Y51.856 E.02097
G1 X195.353 Y51.652 E.02211
G1 X195.984 Y51.59 E.01988
G1 X196.647 Y51.652 E.02088
G1 X197.288 Y51.842 E.02096
G1 X197.879 Y52.154 E.02095
G1 X198.398 Y52.576 E.02097
G1 X198.825 Y53.09 E.02095
G1 X199.144 Y53.678 E.02097
G1 X199.341 Y54.317 E.02097
G1 X199.41 Y54.982 E.02096
G1 X199.348 Y55.647 E.02094
G1 X199.175 Y56.23 E.01907
M204 S1000
;WIPE_START
G1 F8640
G1 X199.158 Y56.288 E-.01396
G1 X198.846 Y56.879 E-.15431
G1 X198.424 Y57.398 E-.15445
G1 X197.91 Y57.825 E-.1543
G1 X197.322 Y58.143 E-.15435
G1 X196.683 Y58.341 E-.15447
G1 X196.622 Y58.347 E-.01416
;WIPE_END
G1 Z.6 F720
G1 X209.147 Y52.905 F10800
G1 Z.2 F720
G1 E.8 F2100
M204 S800
;TYPE:Perimeter
G1 F1200
G1 X209.476 Y53.5 E.02132
G1 X209.702 Y54.207 E.02327
G1 X209.785 Y54.945 E.02329
G1 X209.724 Y55.684 E.02325
G1 X209.518 Y56.397 E.02327
G1 X209.178 Y57.057 E.02328
G1 X208.716 Y57.638 E.02327
G1 X208.149 Y58.117 E.02327
G1 X207.5 Y58.476 E.02325
G1 X206.793 Y58.702 E.02327
