; generated by PrusaSlicer 2.7.1+win64 on 2024-07-30 at 23:42:47 UTC


;
;
; 

; external perimeters extrusion width = 0.60mm
; perimeters extrusion width = 0.50mm
; infill extrusion width = 0.50mm
; solid infill extrusion width = 0.50mm
; top infill extrusion width = 0.45mm
; support material extrusion width = 0.38mm
; first layer extrusion width = 0.42mm

M73 P0 R76
M73 Q0 S76
M201 X1000 Y1000 Z200 E5000 ; sets maximum accelerations, mm/sec^2
M203 X200 Y200 Z12 E120 ; sets maximum feedrates, mm / sec
M204 S1250 T1250 ; sets acceleration (S) and retract acceleration (R), mm/sec^2
M205 X8.00 Y8.00 Z0.40 E4.50 ; sets the jerk limits, mm/sec
M205 S0 T0 ; sets the minimum extruding and travel feed rate, mm/sec

; printing object CageTopGridCenter.stl id:0 copy 0
; stop printing object CageTopGridCenter.stl id:0 copy 0
; printing object CageTopGridCenter.stl id:0 copy 1
; stop printing object CageTopGridCenter.stl id:0 copy 1
; printing object CageTopGridCenter.stl id:0 copy 2
; stop printing object CageTopGridCenter.stl id:0 copy 2

;TYPE:Custom
M862.3 P "MK3S" ; printer model check
M862.1 P0.4 ; nozzle diameter check
G90 ; use absolute coordinates
M83 ; extruder relative mode
M104 S215 ; set extruder temp
M140 S60 ; set bed temp
M190 S60 ; wait for bed temp
M109 S215 ; wait for extruder temp
G28 W ; home all without mesh bed level
G80 ; mesh bed leveling

G1 Z0.2 F720
G1 Y-3 F1000 ; go outside print area
G92 E0
G1 X60 E9 F1000 ; intro line
G1 X100 E12.5 F1000 ; intro line

G92 E0
M221 S95

; Don't change E values below. Excessive value can damage the printer.

M907 E538 ; set extruder motor current
G21 ; set units to millimeters
G90 ; use absolute coordinates
M83 ; use relative distances for extrusion
M900 K0.05 ; Filament gcode LA 1.5
M900 K30 ; Filament gcode LA 1.0
M107
;LAYER_CHANGE
;Z:0.2
;HEIGHT:0.2
;BEFORE_LAYER_CHANGE
G92 E0.0
;0.2


G1 E-.8 F2100
G1 Z.2 F720
;AFTER_LAYER_CHANGE
;0.2
G1 X21.9 Y37.628 F10800
G1 Z.2 F720
G1 E.8 F2100
M204 S800
;TYPE:Skirt/Brim
;WIDTH:0.42
G1 F1200
G1 X22.479 Y37.291 E.02101
G1 X23.285 Y36.952 E.02742
G1 X24.141 Y36.728 E.02774
G1 X25.2 Y36.623 E.03337
G1 X225 Y36.631 E6.26459
G1 X225.859 Y36.728 E.0271
G1 X226.715 Y36.952 E.02774
G1 X227.521 Y37.291 E.02742
G1 X228.256 Y37.719 E.02667
G1 X229.598 Y38.842 E.05487
G1 X230.192 Y39.508 E.02798
G1 X231.149 Y40.879 E.05242
G1 X232.099 Y42.743 E.0656
G1 X232.47 Y43.678 E.03154
G1 X233.055 Y45.559 E.06176
G1 X233.523 Y47.783 E.07126
G1 X233.854 Y51.113 E.10492
G1 X233.85 Y158.977 E3.382
G1 X233.666 Y161.22 E.07056
G1 X233.303 Y163.398 E.06923
G1 X232.762 Y165.46 E.06684
G1 X232.099 Y167.257 E.06006
G1 X231.229 Y168.987 E.06072
G1 X230.192 Y170.492 E.05731
G1 X229.446 Y171.311 E.03474
G1 X228.256 Y172.281 E.04814
G1 X227.521 Y172.709 E.02667
G1 X226.715 Y173.048 E.02742
G1 X225.859 Y173.272 E.02774
G1 X224.8 Y173.377 E.03337
G1 X25.2 Y173.377 E6.25832
G1 X24.474 Y173.324 E.02282
M73 P0 R75
G1 X23.618 Y173.151 E.02738
G1 X22.77 Y172.846 E.02826
G1 X21.973 Y172.427 E.02823
G1 X21.249 Y171.926 E.02761
G1 X20.554 Y171.311 E.0291
G1 X19.264 Y169.763 E.06318
G1 X18.308 Y168.138 E.05911
G1 X17.575 Y166.444 E.05787
G1 X17.202 Y165.345 E.03639
G1 X16.697 Y163.398 E.06307
G1 X16.477 Y162.217 E.03767
G1 X16.146 Y158.887 E.10492
G1 X16.123 Y52.148 E3.34673
G1 X16.219 Y49.896 E.07067
G1 X16.493 Y47.688 E.06976
G1 X16.945 Y45.559 E.06824
G1 X17.575 Y43.556 E.06584
G1 X18.383 Y41.715 E.06304
G1 X19.371 Y40.084 E.05979
G1 X20.554 Y38.689 E.05735
G1 X21.744 Y37.719 E.04814
G1 X21.848 Y37.658 E.00378
M204 S1000
; printing object CageTopGridCenter.stl id:0 copy 0
;WIPE_START
G1 F8640
G1 X21.9 Y37.628 E-.01386
G1 X22.479 Y37.291 E-.15469
G1 X23.285 Y36.952 E-.2019
G1 X24.141 Y36.728 E-.20431
G1 X25.112 Y36.632 E-.22524
;WIPE_END
G1 Z.6 F720
G1 X62.98 Y149.287 F10800
G1 Z.2 F720
G1 E.8 F2100
M204 S800
;TYPE:Perimeter
;WIDTH:0.419999
G1 F1200
G1 X63.123 Y149.351 E.00491
G1 X63.431 Y149.311 E.00974
G1 X64.915 Y148.669 E.0507
G1 X65.406 Y148.426 E.01718
G1 X65.737 Y148.559 E.01118
G1 X66.316 Y148.724 E.01888
G1 X67.055 Y148.785 E.02325
G1 X67.793 Y148.702 E.02329
G1 X68.5 Y148.476 E.02327
G1 X69.149 Y148.117 E.02325
G1 X69.716 Y147.637 E.02329
G1 X70.178 Y147.057 E.02325
G1 X70.518 Y146.397 E.02328
G1 X70.724 Y145.684 E.02327
G1 X70.785 Y145.057 E.01975
G1 X71.479 Y144.518 E.02755
G1 X73.031 Y143.134 E.0652
;WIDTH:0.433108
G1 X74.27 Y141.889 E.05699
;WIDTH:0.436551
G1 X75.194 Y140.846 E.04561
;WIDTH:0.419999
G1 X75.54 Y140.451 E.01646
G1 X76.825 Y138.774 E.06624
G1 X77.055 Y138.785 E.00722
G1 X77.793 Y138.702 E.02329
G1 X78.5 Y138.476 E.02327
G1 X79.149 Y138.117 E.02325
G1 X79.716 Y137.638 E.02327
G1 X80.178 Y137.057 E.02327
G1 X80.518 Y136.397 E.02328
G1 X80.724 Y135.684 E.02327
G1 X80.785 Y134.945 E.02325
G1 X80.702 Y134.207 E.02329
G1 X80.434 Y133.421 E.02604
G1 X80.124 Y132.862 E.02004
G1 X80.399 Y132.225 E.02175
G1 X81.048 Y130.42 E.06014
G1 X81.582 Y128.577 E.06016
G1 X82.006 Y126.661 E.06153
G1 X82.568 Y126.568 E.01786
G1 X83.829 Y126.045 E.0428
G1 X84.185 Y125.781 E.0139
G1 X84.769 Y125.274 E.02425
G1 X84.736 Y125.545 E.00856
G1 X84.716 Y126.064 E.01628
G1 X84.713 Y157.791 E.99478
G1 X84.691 Y158.804 E.03177
M73 P1 R75
M73 Q1 S76
G1 X84.631 Y159.802 E.03135
G1 X84.532 Y160.786 E.03101
G1 X84.393 Y161.751 E.03057
G1 X84.219 Y162.69 E.02994
G1 X84.006 Y163.594 E.02912
G1 X83.84 Y164.178 E.01904
G1 X83.694 Y164.657 E.0157
G1 X83.324 Y165.676 E.03399
G1 X82.816 Y166.813 E.03905
G1 X82.361 Y167.607 E.02869
G1 X82.066 Y168.06 E.01695
G1 X81.662 Y168.584 E.02075
G1 X81.219 Y169.06 E.02039
G1 X80.816 Y169.42 E.01694
G1 X80.395 Y169.714 E.0161
G1 X79.886 Y169.975 E.01794
G1 X79.268 Y170.161 E.02024
G1 X78.767 Y170.213 E.01579
G1 X25.983 Y170.213 E1.655
G1 X24.992 Y170.193 E.03108
G1 X24.456 Y170.097 E.01707
G1 X24.037 Y169.944 E.01399
G1 X23.554 Y169.686 E.01717
G1 X23.134 Y169.384 E.01622
G1 X22.719 Y169.003 E.01766
G1 X22.306 Y168.55 E.01922
G1 X21.909 Y168.027 E.02059
G1 X21.527 Y167.432 E.02217
G1 X21.165 Y166.777 E.02346
M73 Q1 S75
G1 X20.83 Y166.059 E.02484
G1 X20.52 Y165.285 E.02614
G1 X20.241 Y164.463 E.02722
G1 X19.994 Y163.594 E.02833
G1 X19.781 Y162.69 E.02912
G1 X19.607 Y161.751 E.02994
G1 X19.468 Y160.786 E.03057
G1 X19.369 Y159.802 E.03101
G1 X19.309 Y158.804 E.03135
G1 X19.287 Y157.791 E.03177
G1 X19.284 Y126.638 E.97678
G1 X19.282 Y126.017 E.01947
G1 X19.216 Y125.233 E.02467
G1 X19.673 Y125.68 E.02004
G1 X20.171 Y126.045 E.01936
G1 X21.432 Y126.568 E.0428
G1 X21.994 Y126.661 E.01786
G1 X22.418 Y128.577 E.06153
G1 X22.952 Y130.42 E.06016
G1 X23.614 Y132.258 E.06125
G1 X23.876 Y132.862 E.02064
G1 X23.482 Y133.603 E.02631
G1 X23.276 Y134.316 E.02327
G1 X23.215 Y135.055 E.02325
G1 X23.298 Y135.793 E.02329
G1 X23.524 Y136.5 E.02327
G1 X23.883 Y137.149 E.02325
G1 X24.363 Y137.716 E.02329
G1 X24.943 Y138.178 E.02325
G1 X25.603 Y138.518 E.02328
G1 X26.207 Y138.702 E.0198
G1 X26.651 Y138.756 E.01402
G1 X27.175 Y138.774 E.01644
G1 X28.482 Y140.479 E.06736
G1 X28.927 Y140.984 E.0211
;WIDTH:0.447183
G1 X29.438 Y141.583 E.02647
G1 X29.975 Y142.127 E.02569
;WIDTH:0.433029
G1 X31.109 Y143.273 E.0523
;WIDTH:0.419999
G1 X32.549 Y144.54 E.06014
G1 X33.215 Y145.057 E.02644
G1 X33.298 Y145.793 E.02322
G1 X33.524 Y146.5 E.02327
G1 X33.883 Y147.149 E.02325
G1 X34.363 Y147.716 E.02329
G1 X34.943 Y148.178 E.02325
G1 X35.603 Y148.518 E.02328
G1 X36.316 Y148.724 E.02327
G1 X37.055 Y148.785 E.02325
G1 X37.684 Y148.724 E.01981
G1 X38.088 Y148.612 E.01314
G1 X38.594 Y148.426 E.0169
G1 X39.014 Y148.638 E.01475
G1 X40.321 Y149.204 E.04466
G1 X40.766 Y149.357 E.01475
G1 X41.008 Y149.315 E.0077
G1 X41.195 Y149.191 E.00704
G1 X43.298 Y147.072 E.09361
G1 X43.661 Y146.659 E.01724
G1 X43.886 Y147.141 E.01668
G1 X44.362 Y147.716 E.0234
G1 X44.943 Y148.178 E.02327
G1 X45.603 Y148.518 E.02328
G1 X46.316 Y148.724 E.02327
G1 X47.055 Y148.785 E.02325
G1 X47.793 Y148.702 E.02329
G1 X48.5 Y148.476 E.02327
G1 X49.149 Y148.117 E.02325
G1 X49.716 Y147.637 E.02329
G1 X50.178 Y147.057 E.02325
G1 X50.518 Y146.397 E.02328
G1 X50.724 Y145.684 E.02327
G1 X50.785 Y144.945 E.02325
G1 X50.702 Y144.207 E.02329
G1 X50.476 Y143.5 E.02327
G1 X50.117 Y142.851 E.02325
G1 X49.633 Y142.28 E.02347
G1 X49.14 Y141.885 E.01981
G1 X48.63 Y141.649 E.01762
G1 X49.189 Y141.186 E.02276
G1 X51.247 Y139.138 E.09103
G1 X51.618 Y138.896 E.01389
G1 X52 Y138.812 E.01226
G1 X52.382 Y138.896 E.01226
G1 X52.753 Y139.138 E.01389
G1 X54.87 Y141.239 E.09352
G1 X55.374 Y141.648 E.02035
G1 X54.999 Y141.803 E.01272
G1 X54.77 Y141.957 E.00865
G1 X54.284 Y142.362 E.01984
G1 X53.822 Y142.943 E.02327
G1 X53.482 Y143.603 E.02328
G1 X53.276 Y144.316 E.02327
G1 X53.215 Y145.055 E.02325
G1 X53.298 Y145.793 E.02329
G1 X53.524 Y146.5 E.02327
G1 X53.883 Y147.149 E.02325
G1 X54.363 Y147.716 E.02329
G1 X54.943 Y148.178 E.02325
G1 X55.603 Y148.518 E.02328
G1 X56.316 Y148.724 E.02327
G1 X57.055 Y148.785 E.02325
G1 X57.793 Y148.702 E.02329
G1 X58.5 Y148.476 E.02327
G1 X59.149 Y148.117 E.02325
G1 X59.72 Y147.633 E.02347
G1 X60.115 Y147.14 E.01981
G1 X60.339 Y146.659 E.01664
G1 X60.403 Y146.712 E.00261
G1 X60.735 Y147.108 E.0162
G1 X62.843 Y149.225 E.09367
G1 X62.925 Y149.262 E.00282
M204 S1000
G1 X63.122 Y148.96 F10800
M204 S800
;TYPE:External perimeter
G1 F1200
G1 X63.281 Y148.965 E.00499
G1 X64.847 Y148.287 E.05351
G1 X65.41 Y148 E.01981
G1 X65.847 Y148.199 E.01506
G1 X66.353 Y148.348 E.01654
G1 X67.018 Y148.41 E.02094
G1 X67.683 Y148.341 E.02096
G1 X68.322 Y148.144 E.02097
G1 X68.91 Y147.825 E.02097
G1 X69.424 Y147.398 E.02095
G1 X69.846 Y146.879 E.02097
G1 X70.158 Y146.288 E.02095
G1 X70.356 Y145.566 E.02347
G1 X70.4 Y144.879 E.02158
G1 X71.229 Y144.235 E.03291
G1 X72.648 Y142.984 E.05931
G1 X73.99 Y141.642 E.05951
G1 X75.242 Y140.22 E.0594
G1 X76.187 Y139.003 E.04831
G1 X76.639 Y138.376 E.02423
G1 X77.018 Y138.41 E.01193
G1 X77.683 Y138.341 E.02096
G1 X78.322 Y138.144 E.02097
G1 X78.91 Y137.825 E.02097
G1 X79.424 Y137.398 E.02095
G1 X79.846 Y136.879 E.02097
G1 X80.158 Y136.288 E.02095
G1 X80.348 Y135.647 E.02096
G1 X80.41 Y134.982 E.02094
G1 X80.341 Y134.317 E.02096
G1 X80.145 Y133.681 E.02087
G1 X79.846 Y133.121 E.0199
G1 X79.688 Y132.922 E.00797
G1 X80.043 Y132.1 E.02807
G1 X80.686 Y130.314 E.05952
G1 X81.214 Y128.495 E.05939
G1 X81.551 Y126.987 E.04845
G1 X81.678 Y126.324 E.02117
G1 X82.424 Y126.22 E.02362
G1 X83.733 Y125.668 E.04454
G1 X84.324 Y125.172 E.02419
G1 X84.711 Y124.78 E.01727
G1 X84.979 Y124.303 E.01715
G1 X85.29 Y123.897 E.01604
G1 X85.29 Y124.554 E.0206
G1 X85.179 Y125.045 E.01578
G1 X85.113 Y125.56 E.01628
G1 X85.093 Y126.064 E.01581
G1 X85.09 Y157.796 E.99493
G1 X85.068 Y158.819 E.03208
G1 X85.007 Y159.832 E.03182
G1 X84.907 Y160.832 E.03151
G1 X84.765 Y161.812 E.03105
G1 X84.589 Y162.767 E.03045
G1 X84.371 Y163.689 E.02971
G1 X84.203 Y164.281 E.01929
G1 X84.051 Y164.778 E.0163
G1 X83.674 Y165.817 E.03466
G1 X83.146 Y166.995 E.04048
G1 X82.678 Y167.811 E.02949
G1 X82.26 Y168.428 E.02337
G1 X81.941 Y168.838 E.01629
G1 X81.474 Y169.338 E.02145
G1 X81.036 Y169.726 E.01835
G1 X80.465 Y170.107 E.02152
G1 X79.819 Y170.406 E.02232
G1 X79.353 Y170.528 E.0151
G1 X78.783 Y170.59 E.01798
G1 X25.983 Y170.59 E1.6555
G1 X24.961 Y170.568 E.03205
G1 X24.371 Y170.465 E.01878
G1 X23.812 Y170.261 E.01866
G1 X23.351 Y170.004 E.01655
G1 X22.895 Y169.677 E.01759
G1 X22.451 Y169.269 E.01891
G1 X22.016 Y168.791 E.02026
G1 X21.6 Y168.243 E.02157
G1 X21.203 Y167.626 E.023
G1 X20.828 Y166.948 E.02429
G1 X20.484 Y166.209 E.02556
G1 X20.166 Y165.416 E.02679
G1 X19.88 Y164.575 E.02785
G1 X19.629 Y163.689 E.02887
G1 X19.411 Y162.767 E.02971
G1 X19.235 Y161.812 E.03045
G1 X19.093 Y160.832 E.03105
G1 X18.993 Y159.832 E.03151
G1 X18.932 Y158.819 E.03182
G1 X18.91 Y157.796 E.03208
G1 X18.906 Y126.049 E.9954
G1 X18.822 Y125.054 E.03131
G1 X18.71 Y124.554 E.01607
G1 X18.71 Y123.88 E.02113
G1 X19.012 Y124.29 E.01597
G1 X19.219 Y124.693 E.01421
G1 X19.906 Y125.383 E.03053
G1 X20.316 Y125.697 E.01619
G1 X21.624 Y126.232 E.04431
G1 X22.322 Y126.324 E.02207
G1 X22.375 Y126.657 E.01057
G1 X22.786 Y128.495 E.05905
G1 X23.314 Y130.314 E.05939
G1 X23.96 Y132.108 E.05979
G1 X24.312 Y132.922 E.02781
G1 X24.154 Y133.121 E.00797
G1 X23.842 Y133.712 E.02095
G1 X23.652 Y134.353 E.02096
G1 X23.59 Y135.018 E.02094
G1 X23.659 Y135.683 E.02096
G1 X23.856 Y136.322 E.02097
G1 X24.175 Y136.91 E.02097
G1 X24.602 Y137.424 E.02095
G1 X25.121 Y137.846 E.02097
G1 X25.712 Y138.158 E.02095
G1 X26.353 Y138.348 E.02096
G1 X26.982 Y138.41 E.01982
G1 X27.361 Y138.376 E.01193
G1 X27.604 Y138.732 E.01351
G1 X28.765 Y140.229 E.0594
G1 X30.018 Y141.65 E.0594
G1 X31.358 Y142.99 E.05942
G1 X32.78 Y144.242 E.0594
G1 X33.6 Y144.879 E.03256
G1 X33.59 Y145.018 E.00437
G1 X33.659 Y145.683 E.02096
G1 X33.856 Y146.322 E.02097
G1 X34.175 Y146.91 E.02097
G1 X34.602 Y147.424 E.02095
G1 X35.121 Y147.846 E.02097
G1 X35.712 Y148.158 E.02095
G1 X36.353 Y148.348 E.02096
G1 X37.018 Y148.41 E.02094
G1 X37.647 Y148.348 E.01982
G1 X38.153 Y148.198 E.01655
G1 X38.59 Y148 E.01504
G1 X39.164 Y148.292 E.02019
G1 X40.784 Y148.98 E.05518
G1 X40.927 Y148.925 E.0048
G1 X43.116 Y146.7 E.09787
G1 X43.874 Y145.705 E.03922
G1 X43.91 Y146.274 E.01788
G1 X44.18 Y146.905 E.02152
G1 X44.602 Y147.424 E.02097
G1 X45.121 Y147.846 E.02097
G1 X45.712 Y148.158 E.02095
G1 X46.353 Y148.348 E.02096
G1 X47.018 Y148.41 E.02094
G1 X47.683 Y148.341 E.02096
G1 X48.322 Y148.144 E.02097
G1 X48.91 Y147.825 E.02097
G1 X49.424 Y147.398 E.02095
G1 X49.846 Y146.879 E.02097
G1 X50.158 Y146.288 E.02095
G1 X50.348 Y145.647 E.02096
G1 X50.41 Y144.982 E.02094
G1 X50.341 Y144.317 E.02096
G1 X50.144 Y143.678 E.02097
G1 X49.825 Y143.09 E.02097
G1 X49.397 Y142.574 E.02102
G1 X48.858 Y142.151 E.02148
G1 X48.273 Y141.91 E.01984
G1 X47.906 Y141.927 E.01152
G1 X47.709 Y141.875 E.00639
G1 X48.536 Y141.25 E.0325
G1 X48.923 Y140.918 E.01599
G1 X50.929 Y138.923 E.08871
G1 X51.307 Y138.617 E.01525
G1 X51.641 Y138.478 E.01134
G1 X52 Y138.431 E.01135
G1 X52.359 Y138.478 E.01135
G1 X52.693 Y138.617 E.01134
G1 X53.002 Y138.854 E.01221
G1 X55.087 Y140.928 E.09221
G1 X55.479 Y141.262 E.01615
G1 X55.893 Y141.546 E.01574
G1 X56.291 Y141.875 E.01619
G1 X56.132 Y141.924 E.00522
G1 X55.819 Y141.897 E.00985
G1 X55.332 Y142.073 E.01624
G1 X55.006 Y142.251 E.01165
G1 X54.576 Y142.602 E.0174
G1 X54.154 Y143.121 E.02097
G1 X53.842 Y143.712 E.02095
G1 X53.652 Y144.353 E.02096
G1 X53.59 Y145.018 E.02094
G1 X53.659 Y145.683 E.02096
G1 X53.856 Y146.322 E.02097
G1 X54.175 Y146.91 E.02097
G1 X54.602 Y147.424 E.02095
G1 X55.121 Y147.846 E.02097
G1 X55.712 Y148.158 E.02095
G1 X56.353 Y148.348 E.02096
G1 X57.018 Y148.41 E.02094
G1 X57.683 Y148.341 E.02096
G1 X58.322 Y148.144 E.02097
G1 X58.91 Y147.825 E.02097
G1 X59.426 Y147.397 E.02102
G1 X59.849 Y146.858 E.02148
G1 X60.09 Y146.274 E.01981
G1 X60.073 Y145.906 E.01155
G1 X60.126 Y145.705 E.00652
G1 X60.243 Y145.835 E.00548
G1 X60.679 Y146.452 E.02369
G1 X61.003 Y146.842 E.0159
G1 X63.08 Y148.918 E.09208
M204 S1000
;WIPE_START
G1 F8640
G1 X63.122 Y148.96 E-.01371
G1 X63.281 Y148.965 E-.03673
G1 X64.847 Y148.287 E-.39403
G1 X65.41 Y148 E-.14591
G1 X65.847 Y148.199 E-.11087
G1 X66.257 Y148.32 E-.09875
;WIPE_END
G1 Z.6 F720
G1 X74.893 Y148.139 F10800
G1 Z.2 F720
G1 E.8 F2100
M204 S800
;TYPE:Perimeter
G1 F1200
G1 X74.363 Y147.716 E.02126
G1 X73.883 Y147.149 E.02329
G1 X73.524 Y146.5 E.02325
G1 X73.298 Y145.793 E.02327
G1 X73.215 Y144.945 E.02672
G1 X73.277 Y144.316 E.01982
G1 X73.482 Y143.603 E.02326
;WIDTH:0.433032
G1 X73.816 Y142.94 E.02408
G1 X74.291 Y142.368 E.02412
;WIDTH:0.447186
G1 X74.842 Y141.873 E.0249
G1 X75.5 Y141.524 E.02504
;WIDTH:0.419999
G1 X76.316 Y141.276 E.02674
G1 X76.945 Y141.215 E.01981
G1 X77.684 Y141.277 E.02325
G1 X78.397 Y141.482 E.02326
G1 X79.057 Y141.822 E.02328
G1 X79.638 Y142.284 E.02327
G1 X80.117 Y142.851 E.02327
G1 X80.476 Y143.5 E.02325
G1 X80.702 Y144.207 E.02327
G1 X80.785 Y144.945 E.02329
G1 X80.724 Y145.684 E.02325
G1 X80.518 Y146.397 E.02327
G1 X80.178 Y147.057 E.02328
G1 X79.716 Y147.638 E.02327
G1 X79.149 Y148.117 E.02327
G1 X78.5 Y148.476 E.02325
G1 X77.793 Y148.702 E.02327
