; generated by PrusaSlicer 2.7.1+win64 on 2024-07-18 at 22:31:47 UTC


;
;
; 

; external perimeters extrusion width = 0.60mm
; perimeters extrusion width = 0.50mm
; infill extrusion width = 0.50mm
; solid infill extrusion width = 0.50mm
; top infill extrusion width = 0.45mm
; support material extrusion width = 0.38mm
; first layer extrusion width = 0.42mm

M73 P0 R58
M73 Q0 S59
M201 X1000 Y1000 Z200 E5000 ; sets maximum accelerations, mm/sec^2
M203 X200 Y200 Z12 E120 ; sets maximum feedrates, mm / sec
M204 S1250 T1250 ; sets acceleration (S) and retract acceleration (R), mm/sec^2
M205 X8.00 Y8.00 Z0.40 E4.50 ; sets the jerk limits, mm/sec
M205 S0 T0 ; sets the minimum extruding and travel feed rate, mm/sec

; printing object CageTopGrid.stl id:0 copy 0
; stop printing object CageTopGrid.stl id:0 copy 0

;TYPE:Custom
M862.3 P "MK3S" ; printer model check
M862.1 P0.4 ; nozzle diameter check
G90 ; use absolute coordinates
M83 ; extruder relative mode
M104 S215 ; set extruder temp
M140 S60 ; set bed temp
M190 S60 ; wait for bed temp
M109 S215 ; wait for extruder temp
G28 W ; home all without mesh bed level
G80 ; mesh bed leveling

G1 Z0.2 F720
G1 Y-3 F1000 ; go outside print area
G92 E0
G1 X60 E9 F1000 ; intro line
G1 X100 E12.5 F1000 ; intro line

G92 E0
M221 S95

; Don't change E values below. Excessive value can damage the printer.

M907 E538 ; set extruder motor current
G21 ; set units to millimeters
G90 ; use absolute coordinates
M83 ; use relative distances for extrusion
M900 K0.05 ; Filament gcode LA 1.5
M900 K30 ; Filament gcode LA 1.0
M107
;LAYER_CHANGE
;Z:0.2
;HEIGHT:0.2
;BEFORE_LAYER_CHANGE
G92 E0.0
;0.2


G1 E-.8 F2100
G1 Z.2 F720
;AFTER_LAYER_CHANGE
;0.2
G1 X59.62 Y64.569 F10800
G1 Z.2 F720
G1 E.8 F2100
M204 S800
;TYPE:Skirt/Brim
;WIDTH:0.42
G1 F1200
G1 X61.257 Y63.084 E.0693
G1 X62.11 Y62.483 E.03272
G1 X63.805 Y61.535 E.06089
G1 X65.958 Y60.667 E.07279
G1 X67.033 Y60.343 E.0352
G1 X69.107 Y59.902 E.06648
G1 X71.505 Y59.653 E.07559
G1 X177.467 Y59.624 E3.32236
G1 X179.632 Y59.737 E.06797
G1 X180.766 Y59.882 E.03585
G1 X183.108 Y60.381 E.07508
G1 X185.063 Y61.037 E.06466
G1 X186.055 Y61.468 E.03391
G1 X187.89 Y62.483 E.06575
G1 X189.663 Y63.852 E.07023
G1 X190.38 Y64.569 E.03179
G1 X191.442 Y65.935 E.05425
G1 X192.319 Y67.652 E.06045
G1 X192.611 Y68.566 E.03008
G1 X192.796 Y69.509 E.03013
G1 X192.877 Y70.6 E.0343
G1 X192.872 Y139.555 E2.16204
G1 X192.796 Y140.491 E.02944
M73 Q0 S58
G1 X192.611 Y141.434 E.03013
G1 X192.319 Y142.348 E.03008
G1 X191.581 Y143.845 E.05233
G1 X190.38 Y145.431 E.06238
G1 X188.743 Y146.916 E.0693
G1 X187.89 Y147.517 E.03272
G1 X186.195 Y148.465 E.06089
G1 X184.042 Y149.333 E.07279
G1 X182.967 Y149.657 E.0352
G1 X180.893 Y150.098 E.06648
G1 X178.495 Y150.347 E.07559
G1 X72.533 Y150.376 E3.32236
G1 X70.243 Y150.249 E.07191
G1 X68.117 Y149.913 E.06749
G1 X66.892 Y149.619 E.0395
G1 X64.8 Y148.908 E.06928
G1 X62.866 Y147.973 E.06735
G1 X61.257 Y146.916 E.06036
G1 X59.765 Y145.587 E.06265
G1 X58.991 Y144.676 E.03748
G1 X58.066 Y143.21 E.05435
G1 X57.589 Y142.096 E.038
G1 X57.204 Y140.491 E.05175
G1 X57.123 Y139.4 E.0343
G1 X57.123 Y70.6 E2.15718
G1 X57.204 Y69.509 E.0343
G1 X57.389 Y68.566 E.03013
G1 X57.681 Y67.652 E.03008
G1 X58.558 Y65.935 E.06045
G1 X59.584 Y64.616 E.05239
M204 S1000
; printing object CageTopGrid.stl id:0 copy 0
;WIPE_START
G1 F8640
G1 X59.62 Y64.569 E-.01367
G1 X61.257 Y63.084 E-.51034
G1 X62.11 Y62.483 E-.24094
G1 X62.242 Y62.409 E-.03505
;WIPE_END
G1 Z.6 F720
G1 X61.164 Y67.729 F10800
G1 Z.2 F720
G1 E.8 F2100
M204 S800
;TYPE:Perimeter
;WIDTH:0.419999
G1 F1200
G1 X61.552 Y67.182 E.02103
G1 X62.008 Y66.645 E.02209
G1 X62.531 Y66.131 E.02299
G1 X63.121 Y65.641 E.02405
G1 X63.769 Y65.177 E.02499
G1 X64.478 Y64.75 E.02595
G1 X65.24 Y64.355 E.02691
G1 X66.049 Y64 E.0277
G1 X66.904 Y63.686 E.02856
G1 X67.793 Y63.415 E.02914
G1 X68.716 Y63.194 E.02976
G1 X69.665 Y63.017 E.03027
G1 X70.632 Y62.891 E.03058
G1 X71.614 Y62.815 E.03088
G1 X72.611 Y62.787 E.03127
G1 X177.389 Y62.787 E3.28524
G1 X178.052 Y62.806 E.0208
G1 X179.372 Y62.891 E.04147
G1 X180.335 Y63.017 E.03045
G1 X181.284 Y63.194 E.03027
G1 X182.044 Y63.376 E.0245
G1 X182.623 Y63.542 E.01889
G1 X183.307 Y63.764 E.02255
G1 X183.987 Y64.016 E.02274
G1 X184.789 Y64.37 E.02749
G1 X185.544 Y64.763 E.02669
G1 X186.315 Y65.238 E.02839
G1 X187.017 Y65.756 E.02735
G1 X187.658 Y66.317 E.02671
G1 X188.119 Y66.794 E.0208
G1 X188.456 Y67.194 E.0164
M73 P1 R58
M73 Q1 S58
G1 X188.845 Y67.746 E.02117
G1 X189.178 Y68.361 E.02193
G1 X189.402 Y68.885 E.01787
G1 X189.574 Y69.464 E.01894
G1 X189.677 Y70.07 E.01927
G1 X189.713 Y70.642 E.01797
G1 X189.713 Y139.374 E2.15504
G1 X189.673 Y139.979 E.01901
G1 X189.57 Y140.561 E.01853
G1 X189.396 Y141.136 E.01884
G1 X189.149 Y141.708 E.01954
G1 X188.836 Y142.271 E.0202
G1 X188.448 Y142.818 E.02103
G1 X187.992 Y143.355 E.02209
G1 X187.469 Y143.869 E.02299
G1 X186.879 Y144.359 E.02405
G1 X186.231 Y144.823 E.02499
G1 X185.522 Y145.25 E.02595
G1 X184.76 Y145.645 E.02691
G1 X183.951 Y146 E.0277
G1 X183.096 Y146.314 E.02856
G1 X182.207 Y146.585 E.02914
G1 X181.284 Y146.806 E.02976
G1 X180.335 Y146.983 E.03027
G1 X179.368 Y147.109 E.03058
G1 X178.386 Y147.185 E.03088
G1 X177.389 Y147.213 E.03127
G1 X72.611 Y147.213 E3.28524
G1 X71.614 Y147.185 E.03127
G1 X70.632 Y147.109 E.03088
G1 X69.665 Y146.983 E.03058
G1 X68.716 Y146.806 E.03027
G1 X67.793 Y146.585 E.02976
G1 X66.904 Y146.314 E.02914
G1 X66.049 Y146 E.02856
G1 X65.24 Y145.645 E.0277
G1 X64.478 Y145.25 E.02691
G1 X63.769 Y144.823 E.02595
G1 X63.121 Y144.359 E.02499
G1 X62.531 Y143.869 E.02405
G1 X62.008 Y143.355 E.02299
G1 X61.552 Y142.818 E.02209
G1 X61.164 Y142.271 E.02103
G1 X60.851 Y141.708 E.0202
G1 X60.605 Y141.136 E.01952
G1 X60.43 Y140.561 E.01885
G1 X60.327 Y139.979 E.01853
G1 X60.287 Y139.374 E.01901
G1 X60.287 Y70.626 E2.15554
G1 X60.327 Y70.021 E.01901
G1 X60.43 Y69.439 E.01853
G1 X60.604 Y68.864 E.01884
G1 X60.851 Y68.292 E.01954
G1 X61.135 Y67.782 E.0183
M204 S1000
G1 X60.844 Y67.528 F10800
M204 S800
;TYPE:External perimeter
G1 F1200
G1 X61.254 Y66.95 E.02222
G1 X61.732 Y66.388 E.02313
G1 X62.278 Y65.851 E.02401
G1 X62.891 Y65.342 E.02498
G1 X63.562 Y64.862 E.02587
G1 X64.293 Y64.421 E.02677
G1 X65.077 Y64.014 E.0277
G1 X65.909 Y63.65 E.02847
G1 X66.784 Y63.329 E.02922
G1 X67.694 Y63.051 E.02983
G1 X68.637 Y62.825 E.0304
G1 X69.606 Y62.644 E.03091
G1 X70.593 Y62.516 E.03121
G1 X71.594 Y62.439 E.03148
G1 X72.606 Y62.41 E.03174
G1 X177.394 Y62.41 E3.28555
G1 X178.07 Y62.429 E.0212
G1 X179.408 Y62.516 E.04204
G1 X180.394 Y62.644 E.03117
G1 X181.363 Y62.825 E.03091
G1 X182.306 Y63.051 E.0304
G1 X183.216 Y63.329 E.02983
G1 X184.485 Y63.823 E.0427
G1 X184.963 Y64.035 E.0164
G1 X185.738 Y64.44 E.02742
G1 X186.535 Y64.931 E.02935
G1 X187.258 Y65.466 E.0282
G1 X187.922 Y66.048 E.02768
G1 X188.406 Y66.55 E.02186
G1 X188.764 Y66.976 E.01745
G1 X189.175 Y67.563 E.02247
G1 X189.525 Y68.212 E.02312
G1 X189.793 Y68.877 E.02248
G1 X189.945 Y69.397 E.01699
G1 X190.053 Y70.045 E.0206
G1 X190.09 Y70.642 E.01875
G1 X190.09 Y139.387 E2.15545
G1 X190.048 Y140.025 E.02005
M73 P1 R57
G1 X189.937 Y140.649 E.01987
G1 X189.75 Y141.265 E.02018
G1 X189.488 Y141.874 E.02079
G1 X189.156 Y142.472 E.02145
G1 X188.746 Y143.05 E.02222
G1 X188.268 Y143.612 E.02313
G1 X187.722 Y144.149 E.02401
G1 X187.109 Y144.658 E.02498
G1 X186.438 Y145.138 E.02587
G1 X185.707 Y145.579 E.02677
G1 X184.923 Y145.986 E.0277
G1 X184.091 Y146.35 E.02847
G1 X183.216 Y146.671 E.02922
G1 X182.306 Y146.949 E.02983
G1 X181.363 Y147.175 E.0304
G1 X180.394 Y147.356 E.03091
G1 X179.407 Y147.484 E.03121
G1 X178.406 Y147.561 E.03148
G1 X177.394 Y147.59 E.03174
G1 X72.606 Y147.59 E3.28555
G1 X71.594 Y147.561 E.03174
G1 X70.593 Y147.484 E.03148
G1 X69.606 Y147.356 E.03121
G1 X68.637 Y147.175 E.03091
G1 X67.694 Y146.949 E.0304
G1 X66.784 Y146.671 E.02983
G1 X65.909 Y146.35 E.02922
G1 X65.077 Y145.986 E.02847
G1 X64.293 Y145.579 E.0277
G1 X63.562 Y145.138 E.02677
G1 X62.891 Y144.658 E.02587
G1 X62.278 Y144.149 E.02498
G1 X61.732 Y143.612 E.02401
G1 X61.254 Y143.05 E.02313
G1 X60.844 Y142.472 E.02222
G1 X60.512 Y141.874 E.02145
G1 X60.25 Y141.265 E.02079
G1 X60.063 Y140.649 E.02018
G1 X59.952 Y140.025 E.01987
G1 X59.91 Y139.387 E.02005
G1 X59.91 Y70.613 E2.15636
G1 X59.952 Y69.975 E.02005
G1 X60.063 Y69.351 E.01987
G1 X60.25 Y68.735 E.02018
G1 X60.512 Y68.126 E.02079
G1 X60.815 Y67.581 E.01955
M204 S1000
;WIPE_START
G1 F8640
G1 X60.844 Y67.528 E-.01395
G1 X61.254 Y66.95 E-.16363
G1 X61.732 Y66.388 E-.17036
G1 X62.278 Y65.851 E-.17683
G1 X62.891 Y65.342 E-.18398
G1 X63.212 Y65.112 E-.09125
;WIPE_END
G1 Z.6 F720
G1 X181.861 Y67.895 F10800
G1 Z.2 F720
M73 P2 R57
M73 Q2 S58
G1 E.8 F2100
M204 S800
;TYPE:Perimeter
G1 F1200
G1 X182.363 Y67.284 E.02479
G1 X182.851 Y66.883 E.0198
G1 X183.603 Y66.482 E.02672
G1 X184.207 Y66.298 E.0198
G1 X184.898 Y66.219 E.02181
G1 X185.676 Y66.276 E.02446
G1 X186.397 Y66.482 E.02351
G1 X187.004 Y66.793 E.02138
G1 X187.498 Y67.17 E.01948
G1 X187.716 Y67.363 E.00913
G1 X188.117 Y67.851 E.0198
G1 X188.476 Y68.5 E.02325
G1 X188.671 Y69.106 E.01996
G1 X188.785 Y69.945 E.02655
G1 X188.732 Y70.594 E.02042
G1 X188.518 Y71.397 E.02606
G1 X188.178 Y72.057 E.02328
G1 X187.716 Y72.637 E.02325
G1 X187.149 Y73.117 E.02329
G1 X186.5 Y73.476 E.02325
G1 X185.793 Y73.702 E.02327
G1 X185.055 Y73.785 E.02329
G1 X184.316 Y73.724 E.02325
G1 X183.603 Y73.518 E.02327
G1 X182.943 Y73.178 E.02328
G1 X182.363 Y72.716 E.02325
G1 X181.883 Y72.149 E.02329
G1 X181.524 Y71.5 E.02325
G1 X181.298 Y70.793 E.02327
G1 X181.215 Y70.055 E.02329
G1 X181.277 Y69.316 E.02325
G1 X181.482 Y68.603 E.02326
G1 X181.822 Y67.943 E.02328
M204 S1000
G1 X182.154 Y68.121 F10800
M204 S800
;TYPE:External perimeter
G1 F1200
G1 X182.576 Y67.602 E.02097
G1 X183.09 Y67.175 E.02095
G1 X183.678 Y66.856 E.02097
G1 X184.317 Y66.659 E.02097
G1 X184.935 Y66.594 E.01948
G1 X185.645 Y66.651 E.02233
G1 X186.288 Y66.842 E.02103
G1 X186.826 Y67.126 E.01907
G1 X187.259 Y67.461 E.01717
G1 X187.625 Y67.846 E.01666
G1 X187.914 Y68.249 E.01555
G1 X188.154 Y68.701 E.01605
G1 X188.31 Y69.216 E.01687
G1 X188.41 Y69.982 E.02422
G1 X188.357 Y70.557 E.01811
G1 X188.158 Y71.288 E.02375
G1 X187.846 Y71.879 E.02095
G1 X187.424 Y72.398 E.02097
G1 X186.91 Y72.825 E.02095
G1 X186.322 Y73.144 E.02097
G1 X185.683 Y73.341 E.02097
G1 X185.018 Y73.41 E.02096
G1 X184.353 Y73.348 E.02094
G1 X183.712 Y73.158 E.02096
G1 X183.121 Y72.846 E.02095
G1 X182.602 Y72.424 E.02097
G1 X182.175 Y71.91 E.02095
G1 X181.856 Y71.322 E.02097
G1 X181.659 Y70.683 E.02097
G1 X181.59 Y70.018 E.02096
G1 X181.652 Y69.353 E.02094
G1 X181.842 Y68.712 E.02096
G1 X182.126 Y68.174 E.01907
M204 S1000
;WIPE_START
G1 F8640
G1 X182.154 Y68.121 E-.01384
G1 X182.576 Y67.602 E-.15445
G1 X183.09 Y67.175 E-.1543
G1 X183.678 Y66.856 E-.15446
G1 X184.317 Y66.659 E-.1544
G1 X184.935 Y66.594 E-.14349
G1 X185.043 Y66.603 E-.02506
;WIPE_END
G1 Z.6 F720
G1 X182.321 Y82.667 F10800
G1 Z.2 F720
G1 E.8 F2100
M204 S800
;TYPE:Perimeter
G1 F1200
G1 X181.883 Y82.149 E.02127
G1 X181.501 Y81.452 E.02492
G1 X181.298 Y80.793 E.02162
G1 X181.215 Y80.055 E.02329
G1 X181.277 Y79.316 E.02325
G1 X181.482 Y78.603 E.02326
G1 X181.822 Y77.943 E.02328
G1 X182.284 Y77.363 E.02325
G1 X182.851 Y76.883 E.02329
G1 X183.5 Y76.524 E.02325
M73 Q2 S57
G1 X184.207 Y76.298 E.02327
G1 X184.945 Y76.215 E.02329
G1 X185.684 Y76.276 E.02325
G1 X186.397 Y76.482 E.02327
G1 X187.149 Y76.883 E.02672
G1 X187.638 Y77.284 E.01983
G1 X188.117 Y77.851 E.02327
G1 X188.476 Y78.5 E.02325
G1 X188.702 Y79.207 E.02327
G1 X188.785 Y79.945 E.02329
G1 X188.724 Y80.684 E.02325
G1 X188.518 Y81.397 E.02327
G1 X188.178 Y82.057 E.02328
G1 X187.716 Y82.637 E.02325
G1 X187.149 Y83.117 E.02329
G1 X186.5 Y83.476 E.02325
G1 X185.793 Y83.702 E.02327
G1 X185.055 Y83.785 E.02329
G1 X184.316 Y83.724 E.02325
G1 X183.603 Y83.518 E.02327
G1 X182.943 Y83.178 E.02328
G1 X182.363 Y82.716 E.02325
G1 X182.36 Y82.713 E.00013
M204 S1000
G1 X182.602 Y82.424 F10800
M204 S800
;TYPE:External perimeter
G1 F1200
G1 X182.175 Y81.91 E.02095
G1 X181.849 Y81.306 E.02152
G1 X181.659 Y80.683 E.02042
G1 X181.59 Y80.018 E.02096
G1 X181.652 Y79.353 E.02094
G1 X181.842 Y78.712 E.02096
G1 X182.154 Y78.121 E.02095
G1 X182.576 Y77.602 E.02097
G1 X183.09 Y77.175 E.02095
G1 X183.678 Y76.856 E.02097
G1 X184.317 Y76.659 E.02097
G1 X184.982 Y76.59 E.02096
G1 X185.647 Y76.652 E.02094
G1 X186.288 Y76.842 E.02096
G1 X186.879 Y77.154 E.02095
G1 X187.398 Y77.576 E.02097
G1 X187.825 Y78.09 E.02095
G1 X188.144 Y78.678 E.02097
G1 X188.341 Y79.317 E.02097
G1 X188.41 Y79.982 E.02096
G1 X188.348 Y80.647 E.02094
G1 X188.158 Y81.288 E.02096
G1 X187.846 Y81.879 E.02095
G1 X187.424 Y82.398 E.02097
G1 X186.91 Y82.825 E.02095
G1 X186.322 Y83.144 E.02097
G1 X185.683 Y83.341 E.02097
G1 X185.018 Y83.41 E.02096
G1 X184.353 Y83.348 E.02094
G1 X183.712 Y83.158 E.02096
G1 X183.121 Y82.846 E.02095
G1 X182.648 Y82.462 E.0191
M204 S1000
;WIPE_START
G1 F8640
G1 X182.602 Y82.424 E-.01378
G1 X182.175 Y81.91 E-.1543
G1 X181.849 Y81.306 E-.15848
G1 X181.659 Y80.683 E-.15039
G1 X181.59 Y80.018 E-.15437
G1 X181.652 Y79.353 E-.15422
G1 X181.67 Y79.293 E-.01446
;WIPE_END
G1 Z.6 F720
G1 X171.22 Y79.992 F10800
G1 Z.2 F720
G1 E.8 F2100
M204 S800
;TYPE:Perimeter
G1 F1200
G1 X171.277 Y79.316 E.02127
G1 X171.482 Y78.603 E.02326
G1 X171.852 Y77.892 E.02513
G1 X172.284 Y77.363 E.02141
G1 X172.851 Y76.883 E.02329
G1 X173.5 Y76.524 E.02325
G1 X174.207 Y76.298 E.02327
G1 X174.945 Y76.215 E.02329
G1 X175.684 Y76.276 E.02325
G1 X176.397 Y76.482 E.02327
G1 X177.057 Y76.822 E.02328
G1 X177.638 Y77.284 E.02327
G1 X178.117 Y77.851 E.02327
G1 X178.476 Y78.5 E.02325
G1 X178.702 Y79.207 E.02327
G1 X178.785 Y79.945 E.02329
G1 X178.724 Y80.684 E.02325
G1 X178.518 Y81.397 E.02327
G1 X178.178 Y82.057 E.02328
G1 X177.716 Y82.637 E.02325
G1 X177.149 Y83.117 E.02329
G1 X176.5 Y83.476 E.02325
G1 X175.793 Y83.702 E.02327
G1 X175.055 Y83.785 E.02329
G1 X174.316 Y83.724 E.02325
G1 X173.603 Y83.518 E.02327
G1 X172.943 Y83.178 E.02328
G1 X172.363 Y82.716 E.02325
G1 X171.883 Y82.149 E.02329
G1 X171.524 Y81.5 E.02325
G1 X171.298 Y80.793 E.02327
G1 X171.215 Y80.055 E.02329
G1 X171.215 Y80.052 E.00009
M204 S1000
G1 X171.59 Y80.018 F10800
M204 S800
;TYPE:External perimeter
G1 F1200
G1 X171.652 Y79.353 E.02094
G1 X171.842 Y78.712 E.02096
G1 X172.164 Y78.104 E.02157
G1 X172.576 Y77.602 E.02036
G1 X173.09 Y77.175 E.02095
G1 X173.678 Y76.856 E.02097
G1 X174.317 Y76.659 E.02097
G1 X174.982 Y76.59 E.02096
G1 X175.647 Y76.652 E.02094
G1 X176.288 Y76.842 E.02096
G1 X176.879 Y77.154 E.02095
G1 X177.398 Y77.576 E.02097
G1 X177.825 Y78.09 E.02095
G1 X178.144 Y78.678 E.02097
G1 X178.341 Y79.317 E.02097
G1 X178.41 Y79.982 E.02096
G1 X178.348 Y80.647 E.02094
G1 X178.158 Y81.288 E.02096
G1 X177.846 Y81.879 E.02095
G1 X177.424 Y82.398 E.02097
G1 X176.91 Y82.825 E.02095
G1 X176.322 Y83.144 E.02097
G1 X175.683 Y83.341 E.02097
G1 X175.018 Y83.41 E.02096
G1 X174.353 Y83.348 E.02094
G1 X173.712 Y83.158 E.02096
G1 X173.121 Y82.846 E.02095
G1 X172.602 Y82.424 E.02097
G1 X172.175 Y81.91 E.02095
G1 X171.856 Y81.322 E.02097
G1 X171.659 Y80.683 E.02097
G1 X171.596 Y80.078 E.01907
M204 S1000
;WIPE_START
G1 F8640
G1 X171.59 Y80.018 E-.01392
G1 X171.652 Y79.353 E-.15422
G1 X171.842 Y78.712 E-.15437
G1 X172.164 Y78.104 E-.15886
G1 X172.576 Y77.602 E-.14995
G1 X173.09 Y77.175 E-.1543
G1 X173.145 Y77.145 E-.01438
;WIPE_END
G1 Z.6 F720
G1 X161.22 Y79.992 F10800
G1 Z.2 F720
G1 E.8 F2100
M204 S800
;TYPE:Perimeter
G1 F1200
G1 X161.277 Y79.316 E.02127
G1 X161.482 Y78.603 E.02326
G1 X161.822 Y77.943 E.02328
G1 X162.284 Y77.363 E.02325
G1 X162.851 Y76.883 E.02329
G1 X163.5 Y76.524 E.02325
G1 X164.207 Y76.298 E.02327
G1 X164.945 Y76.215 E.02329
G1 X165.684 Y76.276 E.02325
G1 X166.397 Y76.482 E.02327
G1 X167.057 Y76.822 E.02328
G1 X167.638 Y77.284 E.02327
G1 X168.117 Y77.851 E.02327
G1 X168.476 Y78.5 E.02325
G1 X168.702 Y79.207 E.02327
G1 X168.785 Y79.945 E.02329
G1 X168.724 Y80.684 E.02325
G1 X168.518 Y81.397 E.02327
G1 X168.178 Y82.057 E.02328
G1 X167.716 Y82.637 E.02325
G1 X167.149 Y83.117 E.02329
