; generated by PrusaSlicer 2.7.1+win64 on 2024-08-09 at 18:10:59 UTC


;
;
; 

; external perimeters extrusion width = 0.60mm
; perimeters extrusion width = 0.50mm
; infill extrusion width = 0.50mm
; solid infill extrusion width = 0.50mm
; top infill extrusion width = 0.45mm
; support material extrusion width = 0.38mm
; first layer extrusion width = 0.42mm

M73 P0 R195
M73 Q0 S195
M201 X1000 Y1000 Z200 E5000 ; sets maximum accelerations, mm/sec^2
M203 X200 Y200 Z12 E120 ; sets maximum feedrates, mm / sec
M204 S1250 T1250 ; sets acceleration (S) and retract acceleration (R), mm/sec^2
M205 X8.00 Y8.00 Z0.40 E4.50 ; sets the jerk limits, mm/sec
M205 S0 T0 ; sets the minimum extruding and travel feed rate, mm/sec

; printing object BncBreakoutBox_Top.stl id:0 copy 0
; stop printing object BncBreakoutBox_Top.stl id:0 copy 0

;TYPE:Custom
M862.3 P "MK3S" ; printer model check
M862.1 P0.4 ; nozzle diameter check
G90 ; use absolute coordinates
M83 ; extruder relative mode
M104 S215 ; set extruder temp
M140 S60 ; set bed temp
M190 S60 ; wait for bed temp
M109 S215 ; wait for extruder temp
G28 W ; home all without mesh bed level
G80 ; mesh bed leveling

G1 Z0.2 F720
G1 Y-3 F1000 ; go outside print area
G92 E0
G1 X60 E9 F1000 ; intro line
G1 X100 E12.5 F1000 ; intro line
M73 P0 R194

G92 E0
M221 S95

; Don't change E values below. Excessive value can damage the printer.

M907 E538 ; set extruder motor current
G21 ; set units to millimeters
G90 ; use absolute coordinates
M83 ; use relative distances for extrusion
M900 K0.05 ; Filament gcode LA 1.5
M900 K30 ; Filament gcode LA 1.0
M107
;LAYER_CHANGE
;Z:0.2
;HEIGHT:0.2
;BEFORE_LAYER_CHANGE
G92 E0.0
;0.2


G1 E-.8 F2100
G1 Z.2 F720
;AFTER_LAYER_CHANGE
;0.2
G1 X33.015 Y37.443 F10800
G1 Z.2 F720
G1 E.8 F2100
M204 S800
;TYPE:Skirt/Brim
;WIDTH:0.42
G1 F1200
G1 X34.06 Y36.567 E.04275
G1 X35 Y36.373 E.03009
G1 X215 Y36.373 E5.64377
G1 X216.307 Y36.765 E.04278
G1 X217.183 Y37.81 E.04275
G1 X217.377 Y38.75 E.03009
G1 X217.377 Y171.25 E4.15444
G1 X216.985 Y172.557 E.04278
G1 X215.94 Y173.433 E.04275
G1 X215 Y173.627 E.03009
G1 X35 Y173.627 E5.64377
G1 X33.693 Y173.235 E.04278
M73 Q0 S194
G1 X32.817 Y172.19 E.04275
G1 X32.623 Y171.25 E.03009
G1 X32.623 Y38.75 E4.15444
G1 X32.997 Y37.5 E.04091
M204 S1000
; printing object BncBreakoutBox_Top.stl id:0 copy 0
;WIPE_START
G1 F8640
G1 X33.015 Y37.443 E-.0138
G1 X34.06 Y36.567 E-.31486
G1 X35 Y36.373 E-.22162
G1 X36.081 Y36.373 E-.24972
;WIPE_END
G1 Z.6 F720
G1 X35.787 Y170.463 F10800
G1 Z.2 F720
G1 E.8 F2100
M204 S800
;TYPE:Perimeter
;WIDTH:0.419999
G1 F1200
G1 X35.787 Y39.537 E4.10509
G1 X214.213 Y39.537 E5.59441
G1 X214.213 Y105 E2.05254
G1 X214.213 Y170.463 E2.05254
G1 X35.847 Y170.463 E5.59253
M204 S1000
G1 X35.41 Y170.84 F10800
M73 P0 R193
M204 S800
;TYPE:External perimeter
G1 F1200
G1 X35.41 Y39.16 E4.12873
G1 X214.59 Y39.16 E5.61805
G1 X214.59 Y105 E2.06436
M73 Q0 S193
G1 X214.59 Y170.84 E2.06436
G1 X35.47 Y170.84 E5.61617
M204 S1000
;WIPE_START
G1 F8640
G1 X35.41 Y170.84 E-.01385
G1 X35.41 Y167.435 E-.78615
;WIPE_END
G1 Z.6 F720
G1 X213.28 Y39.707 F10800
G1 Z.2 F720
G1 E.8 F2100
M204 S800
;TYPE:Solid infill
;WIDTH:0.420632
G1 F1200
G1 X213.874 Y40.301 E.02638
G1 X213.874 Y40.835 E.01677
G1 X212.915 Y39.876 E.04259
G1 X212.381 Y39.876 E.01677
G1 X213.874 Y41.369 E.06631
G1 X213.874 Y41.903 E.01677
G1 X211.847 Y39.876 E.09003
G1 X211.313 Y39.876 E.01677
G1 X213.874 Y42.437 E.11375
G1 X213.874 Y42.972 E.0168
G1 X210.778 Y39.876 E.13751
G1 X210.244 Y39.876 E.01677
G1 X213.874 Y43.506 E.16123
G1 X213.874 Y44.04 E.01677
G1 X209.71 Y39.876 E.18495
G1 X209.176 Y39.876 E.01677
G1 X213.874 Y44.574 E.20867
G1 X213.874 Y45.108 E.01677
G1 X208.642 Y39.876 E.23238
G1 X208.108 Y39.876 E.01677
G1 X213.874 Y45.642 E.2561
G1 X213.874 Y46.177 E.0168
G1 X207.573 Y39.876 E.27987
G1 X207.039 Y39.876 E.01677
G1 X213.874 Y46.711 E.30358
G1 X213.874 Y47.245 E.01677
G1 X206.505 Y39.876 E.3273
G1 X205.971 Y39.876 E.01677
G1 X213.874 Y47.779 E.35102
G1 X213.874 Y48.313 E.01677
G1 X205.437 Y39.876 E.37474
G1 X204.903 Y39.876 E.01677
G1 X213.874 Y48.847 E.39846
G1 X213.874 Y49.382 E.0168
G1 X204.368 Y39.876 E.42222
G1 X203.834 Y39.876 E.01677
G1 X213.874 Y49.916 E.44594
G1 X213.874 Y50.45 E.01677
G1 X203.3 Y39.876 E.46966
G1 X202.766 Y39.876 E.01677
G1 X213.874 Y50.984 E.49337
G1 X213.874 Y51.518 E.01677
G1 X202.232 Y39.876 E.51709
G1 X201.698 Y39.876 E.01677
G1 X213.874 Y52.052 E.54081
G1 X213.874 Y52.586 E.01677
G1 X201.164 Y39.876 E.56453
G1 X200.629 Y39.876 E.0168
M73 Q1 S193
G1 X213.874 Y53.121 E.58829
G1 X213.874 Y53.655 E.01677
M73 P1 R193
G1 X200.095 Y39.876 E.61201
G1 X199.561 Y39.876 E.01677
G1 X213.874 Y54.189 E.63573
G1 X213.874 Y54.723 E.01677
G1 X199.027 Y39.876 E.65944
G1 X198.493 Y39.876 E.01677
G1 X213.874 Y55.257 E.68316
G1 X213.874 Y55.791 E.01677
G1 X197.959 Y39.876 E.70688
G1 X197.424 Y39.876 E.0168
G1 X213.874 Y56.326 E.73064
G1 X213.874 Y56.86 E.01677
M73 P1 R192
G1 X196.89 Y39.876 E.75436
G1 X196.356 Y39.876 E.01677
G1 X213.874 Y57.394 E.77808
G1 X213.874 Y57.928 E.01677
G1 X195.822 Y39.876 E.8018
G1 X195.288 Y39.876 E.01677
G1 X213.874 Y58.462 E.82552
G1 X213.874 Y58.996 E.01677
G1 X194.754 Y39.876 E.84923
G1 X194.219 Y39.876 E.0168
G1 X213.874 Y59.531 E.873
G1 X213.874 Y60.065 E.01677
G1 X193.685 Y39.876 E.89672
G1 X193.151 Y39.876 E.01677
G1 X213.874 Y60.599 E.92043
G1 X213.874 Y61.133 E.01677
G1 X192.617 Y39.876 E.94415
G1 X192.083 Y39.876 E.01677
G1 X213.874 Y61.667 E.96787
G1 X213.874 Y62.201 E.01677
G1 X191.549 Y39.876 E.99159
G1 X191.014 Y39.876 E.0168
G1 X213.874 Y62.736 E1.01535
G1 X213.874 Y63.27 E.01677
G1 X190.48 Y39.876 E1.03907
G1 X189.946 Y39.876 E.01677
M73 Q1 S192
G1 X213.874 Y63.804 E1.06279
G1 X213.874 Y64.338 E.01677
G1 X189.412 Y39.876 E1.08651
G1 X188.878 Y39.876 E.01677
G1 X213.874 Y64.872 E1.11022
G1 X213.874 Y65.406 E.01677
G1 X188.344 Y39.876 E1.13394
G1 X187.809 Y39.876 E.0168
G1 X213.874 Y65.941 E1.1577
G1 X213.874 Y66.475 E.01677
G1 X187.275 Y39.876 E1.18142
G1 X186.741 Y39.876 E.01677
G1 X213.874 Y67.009 E1.20514
G1 X213.874 Y67.543 E.01677
G1 X186.207 Y39.876 E1.22886
G1 X185.673 Y39.876 E.01677
G1 X213.874 Y68.077 E1.25258
G1 X213.874 Y68.611 E.01677
G1 X185.139 Y39.876 E1.27629
G1 X184.604 Y39.876 E.0168
G1 X213.874 Y69.146 E1.30006
G1 X213.874 Y69.68 E.01677
G1 X184.07 Y39.876 E1.32378
G1 X183.536 Y39.876 E.01677
G1 X213.874 Y70.214 E1.34749
G1 X213.874 Y70.748 E.01677
G1 X183.002 Y39.876 E1.37121
G1 X182.468 Y39.876 E.01677
G1 X213.874 Y71.282 E1.39493
G1 X213.874 Y71.816 E.01677
G1 X181.934 Y39.876 E1.41865
G1 X181.399 Y39.876 E.0168
G1 X213.874 Y72.351 E1.44241
G1 X213.874 Y72.885 E.01677
G1 X180.865 Y39.876 E1.46613
G1 X180.331 Y39.876 E.01677
G1 X213.874 Y73.419 E1.48985
G1 X213.874 Y73.953 E.01677
G1 X179.797 Y39.876 E1.51357
G1 X179.263 Y39.876 E.01677
M73 P1 R191
G1 X213.874 Y74.487 E1.53728
G1 X213.874 Y75.021 E.01677
G1 X178.729 Y39.876 E1.561
G1 X178.194 Y39.876 E.0168
G1 X213.874 Y75.556 E1.58476
G1 X213.874 Y76.09 E.01677
G1 X177.66 Y39.876 E1.60848
G1 X177.126 Y39.876 E.01677
G1 X213.874 Y76.624 E1.6322
G1 X213.874 Y77.158 E.01677
G1 X176.592 Y39.876 E1.65592
G1 X176.058 Y39.876 E.01677
G1 X213.874 Y77.692 E1.67964
G1 X213.874 Y78.226 E.01677
M73 Q1 S191
G1 X175.524 Y39.876 E1.70336
G1 X174.989 Y39.876 E.0168
G1 X213.874 Y78.761 E1.72712
G1 X213.874 Y79.295 E.01677
G1 X174.455 Y39.876 E1.75084
G1 X173.921 Y39.876 E.01677
G1 X213.874 Y79.829 E1.77455
G1 X213.874 Y80.363 E.01677
G1 X173.387 Y39.876 E1.79827
G1 X172.853 Y39.876 E.01677
G1 X213.874 Y80.897 E1.82199
G1 X213.874 Y81.431 E.01677
G1 X172.319 Y39.876 E1.84571
G1 X171.784 Y39.876 E.0168
G1 X213.874 Y81.966 E1.86947
G1 X213.874 Y82.5 E.01677
G1 X171.25 Y39.876 E1.89319
G1 X170.716 Y39.876 E.01677
G1 X213.874 Y83.034 E1.91691
G1 X213.874 Y83.568 E.01677
G1 X170.182 Y39.876 E1.94063
G1 X169.648 Y39.876 E.01677
M73 P2 R191
M73 Q2 S191
G1 X213.874 Y84.102 E1.96434
G1 X213.874 Y84.636 E.01677
G1 X169.114 Y39.876 E1.98806
G1 X168.579 Y39.876 E.0168
G1 X213.874 Y85.171 E2.01182
G1 X213.874 Y85.705 E.01677
M73 P2 R190
G1 X168.045 Y39.876 E2.03554
G1 X167.511 Y39.876 E.01677
G1 X213.874 Y86.239 E2.05926
G1 X213.874 Y86.773 E.01677
G1 X166.977 Y39.876 E2.08298
G1 X166.443 Y39.876 E.01677
G1 X213.874 Y87.307 E2.1067
G1 X213.874 Y87.841 E.01677
G1 X165.909 Y39.876 E2.13042
G1 X165.374 Y39.876 E.0168
G1 X213.874 Y88.376 E2.15418
G1 X213.874 Y88.91 E.01677
M73 Q2 S190
G1 X164.84 Y39.876 E2.1779
G1 X164.306 Y39.876 E.01677
G1 X213.874 Y89.444 E2.20161
G1 X213.874 Y89.978 E.01677
G1 X163.772 Y39.876 E2.22533
G1 X163.238 Y39.876 E.01677
G1 X213.874 Y90.512 E2.24905
G1 X213.874 Y91.046 E.01677
G1 X162.704 Y39.876 E2.27277
G1 X162.169 Y39.876 E.0168
G1 X213.874 Y91.581 E2.29653
G1 X213.874 Y92.115 E.01677
G1 X161.635 Y39.876 E2.32025
G1 X161.101 Y39.876 E.01677
G1 X213.874 Y92.649 E2.34397
G1 X213.874 Y93.183 E.01677
G1 X160.567 Y39.876 E2.36769
G1 X160.033 Y39.876 E.01677
G1 X213.874 Y93.717 E2.3914
G1 X213.874 Y94.251 E.01677
G1 X159.499 Y39.876 E2.41512
G1 X158.964 Y39.876 E.0168
M73 P2 R189
G1 X213.874 Y94.786 E2.43888
G1 X213.874 Y95.32 E.01677
G1 X158.43 Y39.876 E2.4626
G1 X157.896 Y39.876 E.01677
G1 X213.874 Y95.854 E2.48632
G1 X213.874 Y96.388 E.01677
G1 X157.362 Y39.876 E2.51004
G1 X156.828 Y39.876 E.01677
G1 X213.874 Y96.922 E2.53376
G1 X213.874 Y97.456 E.01677
M73 Q2 S189
G1 X156.294 Y39.876 E2.55748
G1 X155.759 Y39.876 E.0168
G1 X213.874 Y97.991 E2.58124
G1 X213.874 Y98.525 E.01677
G1 X155.225 Y39.876 E2.60496
G1 X154.691 Y39.876 E.01677
G1 X213.874 Y99.059 E2.62867
G1 X213.874 Y99.593 E.01677
G1 X154.157 Y39.876 E2.65239
G1 X153.623 Y39.876 E.01677
G1 X213.874 Y100.127 E2.67611
G1 X213.874 Y100.661 E.01677
M73 Q3 S189
G1 X153.089 Y39.876 E2.69983
G1 X152.554 Y39.876 E.0168
M73 P3 R189
G1 X213.874 Y101.196 E2.72359
G1 X213.874 Y101.73 E.01677
G1 X152.02 Y39.876 E2.74731
G1 X151.486 Y39.876 E.01677
M73 P3 R188
G1 X213.874 Y102.264 E2.77103
G1 X213.874 Y102.798 E.01677
G1 X150.952 Y39.876 E2.79475
G1 X150.418 Y39.876 E.01677
G1 X213.874 Y103.332 E2.81846
G1 X213.874 Y103.866 E.01677
G1 X149.884 Y39.876 E2.84218
G1 X149.349 Y39.876 E.0168
G1 X213.874 Y104.401 E2.86594
G1 X213.874 Y104.935 E.01677
M73 Q3 S188
G1 X148.815 Y39.876 E2.88966
G1 X148.281 Y39.876 E.01677
G1 X213.874 Y105.469 E2.91338
G1 X213.874 Y106.003 E.01677
G1 X147.747 Y39.876 E2.9371
G1 X147.213 Y39.876 E.01677
G1 X213.874 Y106.537 E2.96082
G1 X213.874 Y107.071 E.01677
G1 X146.679 Y39.876 E2.98454
G1 X146.144 Y39.876 E.0168
G1 X213.874 Y107.606 E3.0083
G1 X213.874 Y108.14 E.01677
G1 X145.61 Y39.876 E3.03202
G1 X145.076 Y39.876 E.01677
G1 X213.874 Y108.674 E3.05573
G1 X213.874 Y109.208 E.01677
M73 P3 R187
G1 X144.542 Y39.876 E3.07945
G1 X144.008 Y39.876 E.01677
G1 X213.874 Y109.742 E3.10317
G1 X213.874 Y110.276 E.01677
G1 X143.474 Y39.876 E3.12689
G1 X142.939 Y39.876 E.0168
G1 X213.874 Y110.811 E3.15065
G1 X213.874 Y111.345 E.01677
M73 Q3 S187
G1 X142.405 Y39.876 E3.17437
G1 X141.871 Y39.876 E.01677
G1 X213.874 Y111.879 E3.19809
G1 X213.874 Y112.413 E.01677
G1 X141.337 Y39.876 E3.22181
G1 X140.803 Y39.876 E.01677
G1 X213.874 Y112.947 E3.24552
G1 X213.874 Y113.481 E.01677
G1 X140.269 Y39.876 E3.26924
G1 X139.734 Y39.876 E.0168
M73 P4 R187
M73 Q4 S187
G1 X213.874 Y114.016 E3.29301
G1 X213.874 Y114.55 E.01677
G1 X139.2 Y39.876 E3.31672
G1 X138.666 Y39.876 E.01677
G1 X213.874 Y115.084 E3.34044
G1 X213.874 Y115.618 E.01677
M73 P4 R186
G1 X138.132 Y39.876 E3.36416
G1 X137.598 Y39.876 E.01677
G1 X213.874 Y116.152 E3.38788
G1 X213.874 Y116.686 E.01677
G1 X137.064 Y39.876 E3.4116
G1 X136.529 Y39.876 E.0168
M73 Q4 S186
G1 X213.874 Y117.221 E3.43536
G1 X213.874 Y117.755 E.01677
G1 X135.995 Y39.876 E3.45908
G1 X135.461 Y39.876 E.01677
G1 X213.874 Y118.289 E3.48279
G1 X213.874 Y118.823 E.01677
G1 X134.927 Y39.876 E3.50651
G1 X134.393 Y39.876 E.01677
G1 X213.874 Y119.357 E3.53023
G1 X213.874 Y119.891 E.01677
G1 X133.859 Y39.876 E3.55395
G1 X133.324 Y39.876 E.0168
G1 X213.874 Y120.426 E3.57771
G1 X213.874 Y120.96 E.01677
G1 X132.79 Y39.876 E3.60143
G1 X132.256 Y39.876 E.01677
M73 P4 R185
G1 X213.874 Y121.494 E3.62515
G1 X213.874 Y122.028 E.01677
G1 X131.722 Y39.876 E3.64887
G1 X131.188 Y39.876 E.01677
G1 X213.874 Y122.562 E3.67258
G1 X213.874 Y123.096 E.01677
M73 Q4 S185
G1 X130.654 Y39.876 E3.6963
G1 X130.12 Y39.876 E.01677
G1 X213.874 Y123.631 E3.72004
G1 X213.874 Y124.165 E.01677
G1 X129.585 Y39.876 E3.74378
G1 X129.051 Y39.876 E.01677
G1 X213.874 Y124.699 E3.7675
G1 X213.874 Y125.233 E.01677
M73 P5 R185
M73 Q5 S185
G1 X128.517 Y39.876 E3.79122
G1 X127.983 Y39.876 E.01677
G1 X213.874 Y125.767 E3.81494
G1 X213.874 Y126.301 E.01677
G1 X127.449 Y39.876 E3.83866
G1 X126.915 Y39.876 E.01677
M73 P5 R184
G1 X213.874 Y126.835 E3.86237
G1 X213.874 Y127.37 E.0168
G1 X126.38 Y39.876 E3.88614
G1 X125.846 Y39.876 E.01677
G1 X213.874 Y127.904 E3.90986
G1 X213.874 Y128.438 E.01677
M73 Q5 S184
G1 X125.312 Y39.876 E3.93357
G1 X124.778 Y39.876 E.01677
G1 X213.874 Y128.972 E3.95729
G1 X213.874 Y129.506 E.01677
G1 X124.244 Y39.876 E3.98101
G1 X123.71 Y39.876 E.01677
G1 X213.874 Y130.04 E4.00473
G1 X213.874 Y130.575 E.0168
G1 X123.175 Y39.876 E4.02849
G1 X122.641 Y39.876 E.01677
G1 X213.874 Y131.109 E4.05221
G1 X213.874 Y131.643 E.01677
M73 P5 R183
G1 X122.107 Y39.876 E4.07593
G1 X121.573 Y39.876 E.01677
G1 X213.874 Y132.177 E4.09964
G1 X213.874 Y132.711 E.01677
G1 X121.039 Y39.876 E4.12336
G1 X120.505 Y39.876 E.01677
M73 Q5 S183
G1 X213.874 Y133.245 E4.14708
G1 X213.874 Y133.78 E.0168
G1 X119.97 Y39.876 E4.17084
G1 X119.436 Y39.876 E.01677
G1 X213.874 Y134.314 E4.19456
G1 X213.874 Y134.848 E.01677
M73 P6 R183
M73 Q6 S183
G1 X118.902 Y39.876 E4.21828
G1 X118.368 Y39.876 E.01677
G1 X213.874 Y135.382 E4.242
G1 X213.874 Y135.916 E.01677
G1 X117.834 Y39.876 E4.26572
G1 X117.3 Y39.876 E.01677
M73 P6 R182
G1 X213.874 Y136.45 E4.28943
G1 X213.874 Y136.985 E.0168
G1 X116.765 Y39.876 E4.3132
G1 X116.231 Y39.876 E.01677
G1 X213.874 Y137.519 E4.33692
G1 X213.874 Y138.053 E.01677
M73 Q6 S182
G1 X115.697 Y39.876 E4.36063
G1 X115.163 Y39.876 E.01677
G1 X213.874 Y138.587 E4.38435
G1 X213.874 Y139.121 E.01677
G1 X114.629 Y39.876 E4.40807
G1 X114.095 Y39.876 E.01677
G1 X213.874 Y139.655 E4.43179
G1 X213.874 Y140.19 E.0168
G1 X113.56 Y39.876 E4.45555
G1 X113.026 Y39.876 E.01677
G1 X213.874 Y140.724 E4.47927
G1 X213.874 Y141.258 E.01677
M73 P6 R181
G1 X112.492 Y39.876 E4.50299
G1 X111.958 Y39.876 E.01677
G1 X213.874 Y141.792 E4.52671
G1 X213.874 Y142.326 E.01677
M73 Q6 S181
G1 X111.424 Y39.876 E4.55042
G1 X110.89 Y39.876 E.01677
G1 X213.874 Y142.86 E4.57414
G1 X213.874 Y143.395 E.0168
G1 X110.355 Y39.876 E4.5979
G1 X109.821 Y39.876 E.01677
M73 P7 R181
M73 Q7 S181
G1 X213.874 Y143.929 E4.62162
G1 X213.874 Y144.463 E.01677
G1 X109.287 Y39.876 E4.64534
G1 X108.753 Y39.876 E.01677
G1 X213.874 Y144.997 E4.66906
G1 X213.874 Y145.531 E.01677
M73 P7 R180
G1 X108.219 Y39.876 E4.69278
G1 X107.685 Y39.876 E.01677
G1 X213.874 Y146.065 E4.71649
G1 X213.874 Y146.6 E.0168
G1 X107.15 Y39.876 E4.74026
G1 X106.616 Y39.876 E.01677
M73 Q7 S180
G1 X213.874 Y147.134 E4.76398
G1 X213.874 Y147.668 E.01677
G1 X106.082 Y39.876 E4.78769
G1 X105.548 Y39.876 E.01677
G1 X213.874 Y148.202 E4.81141
G1 X213.874 Y148.736 E.01677
G1 X105.014 Y39.876 E4.83513
G1 X104.48 Y39.876 E.01677
G1 X213.874 Y149.27 E4.85885
G1 X213.874 Y149.805 E.0168
M73 P7 R179
G1 X103.945 Y39.876 E4.88261
G1 X103.411 Y39.876 E.01677
G1 X213.874 Y150.339 E4.90633
G1 X213.874 Y150.873 E.01677
M73 Q7 S179
G1 X102.877 Y39.876 E4.93005
G1 X102.343 Y39.876 E.01677
G1 X213.874 Y151.407 E4.95377
G1 X213.874 Y151.941 E.01677
M73 P8 R179
M73 Q8 S179
G1 X101.809 Y39.876 E4.97748
G1 X101.275 Y39.876 E.01677
G1 X213.874 Y152.475 E5.0012
G1 X213.874 Y153.01 E.0168
G1 X100.74 Y39.876 E5.02496
G1 X100.206 Y39.876 E.01677
M73 P8 R178
G1 X213.874 Y153.544 E5.04868
G1 X213.874 Y154.078 E.01677
G1 X99.672 Y39.876 E5.0724
G1 X99.138 Y39.876 E.01677
G1 X213.874 Y154.612 E5.09612
G1 X213.874 Y155.146 E.01677
M73 Q8 S178
G1 X98.604 Y39.876 E5.11984
G1 X98.07 Y39.876 E.01677
