; generated by PrusaSlicer 2.7.1+win64 on 2024-08-09 at 18:09:45 UTC


;
;
; 

; external perimeters extrusion width = 0.60mm
; perimeters extrusion width = 0.50mm
; infill extrusion width = 0.50mm
; solid infill extrusion width = 0.50mm
; top infill extrusion width = 0.45mm
; support material extrusion width = 0.38mm
; first layer extrusion width = 0.42mm

M73 P0 R69
M73 Q0 S69
M201 X1000 Y1000 Z200 E5000 ; sets maximum accelerations, mm/sec^2
M203 X200 Y200 Z12 E120 ; sets maximum feedrates, mm / sec
M204 S1250 T1250 ; sets acceleration (S) and retract acceleration (R), mm/sec^2
M205 X8.00 Y8.00 Z0.40 E4.50 ; sets the jerk limits, mm/sec
M205 S0 T0 ; sets the minimum extruding and travel feed rate, mm/sec

; printing object BncBreakoutBox_FrontPanel.stl id:0 copy 0
; stop printing object BncBreakoutBox_FrontPanel.stl id:0 copy 0

;TYPE:Custom
M862.3 P "MK3S" ; printer model check
M862.1 P0.4 ; nozzle diameter check
G90 ; use absolute coordinates
M83 ; extruder relative mode
M104 S215 ; set extruder temp
M140 S60 ; set bed temp
M190 S60 ; wait for bed temp
M109 S215 ; wait for extruder temp
G28 W ; home all without mesh bed level
G80 ; mesh bed leveling

G1 Z0.2 F720
G1 Y-3 F1000 ; go outside print area
G92 E0
G1 X60 E9 F1000 ; intro line
G1 X100 E12.5 F1000 ; intro line

G92 E0
M221 S95

; Don't change E values below. Excessive value can damage the printer.

M907 E538 ; set extruder motor current
G21 ; set units to millimeters
G90 ; use absolute coordinates
M83 ; use relative distances for extrusion
M900 K0.05 ; Filament gcode LA 1.5
M900 K30 ; Filament gcode LA 1.0
M107
;LAYER_CHANGE
;Z:0.2
;HEIGHT:0.2
;BEFORE_LAYER_CHANGE
G92 E0.0
;0.2


G1 E-.8 F2100
G1 Z.2 F720
;AFTER_LAYER_CHANGE
;0.2
G1 X59.265 Y61.193 F10800
G1 Z.2 F720
G1 E.8 F2100
M204 S800
;TYPE:Skirt/Brim
;WIDTH:0.42
G1 F1200
G1 X60.31 Y60.317 E.04275
G1 X61.25 Y60.123 E.03009
G1 X188.75 Y60.123 E3.99767
G1 X190.057 Y60.514 E.04277
G1 X190.933 Y61.56 E.04278
G1 X191.127 Y62.5 E.03009
G1 X191.127 Y147.5 E2.66512
G1 X190.735 Y148.807 E.04278
G1 X189.69 Y149.683 E.04275
G1 X188.75 Y149.877 E.03009
G1 X61.25 Y149.877 E3.99767
G1 X59.943 Y149.486 E.04277
G1 X59.067 Y148.44 E.04278
G1 X58.873 Y147.5 E.03009
G1 X58.873 Y62.5 E2.66512
G1 X59.247 Y61.25 E.04091
M204 S1000
; printing object BncBreakoutBox_FrontPanel.stl id:0 copy 0
;WIPE_START
G1 F8640
G1 X59.265 Y61.193 E-.0138
G1 X60.31 Y60.317 E-.31486
G1 X61.25 Y60.123 E-.22162
G1 X62.331 Y60.123 E-.24972
;WIPE_END
G1 Z.6 F720
G1 X187.963 Y146.713 F10800
G1 Z.2 F720
G1 E.8 F2100
M204 S800
;TYPE:Perimeter
;WIDTH:0.419999
G1 F1200
G1 X62.037 Y146.713 E3.94831
G1 X62.037 Y63.287 E2.61576
M73 P0 R68
G1 X187.963 Y63.287 E3.94831
G1 X187.963 Y67.327 E.12667
M73 P1 R68
M73 Q1 S68
G1 X187.963 Y146.653 E2.48721
M204 S1000
G1 X188.34 Y147.09 F10800
M204 S800
;TYPE:External perimeter
G1 F1200
G1 X61.66 Y147.09 E3.97196
G1 X61.66 Y62.91 E2.6394
G1 X188.34 Y62.91 E3.97196
G1 X188.34 Y67.327 E.13849
G1 X188.34 Y147.03 E2.49903
M204 S1000
;WIPE_START
G1 F8640
G1 X188.34 Y147.09 E-.01385
G1 X184.935 Y147.09 E-.78615
;WIPE_END
G1 Z.6 F720
G1 X180.065 Y73.903 F10800
G1 Z.2 F720
G1 E.8 F2100
M204 S800
;TYPE:Perimeter
G1 F1200
G1 X180.02 Y74.083 E.00582
G1 X179.78 Y74.51 E.01536
G1 X179.052 Y75.38 E.03557
G1 X178.168 Y76.091 E.03557
G1 X177.163 Y76.616 E.03555
G1 X176.074 Y76.935 E.03558
G1 X174.945 Y77.035 E.03554
G1 X173.817 Y76.913 E.03557
G1 X172.735 Y76.574 E.03555
G1 X171.74 Y76.03 E.03556
G1 X170.87 Y75.302 E.03557
G1 X170.219 Y74.508 E.03219
G1 X169.634 Y73.413 E.03893
G1 X169.315 Y72.324 E.03558
G1 X169.215 Y71.195 E.03554
G1 X169.315 Y70.176 E.0321
G1 X169.676 Y68.985 E.03902
G1 X170.22 Y67.99 E.03556
G1 X170.948 Y67.12 E.03557
G1 X171.832 Y66.409 E.03557
G1 X172.837 Y65.884 E.03555
G1 X173.926 Y65.565 E.03558
G1 X175.055 Y65.465 E.03554
G1 X176.183 Y65.587 E.03557
G1 X177.265 Y65.926 E.03555
G1 X178.168 Y66.409 E.03211
G1 X179.052 Y67.12 E.03557
G1 X179.78 Y67.99 E.03557
G1 X180.062 Y68.517 E.01874
G1 X180.087 Y68.684 E.00529
G1 X180.087 Y73.816 E.16091
G1 X180.08 Y73.845 E.00094
M204 S1000
G1 X179.678 Y73.883 F10800
M204 S800
;TYPE:External perimeter
G1 F1200
G1 X179.488 Y74.271 E.01355
G1 X178.812 Y75.089 E.03327
G1 X177.99 Y75.759 E.03325
G1 X177.053 Y76.255 E.03324
G1 X176.037 Y76.56 E.03326
G1 X175.016 Y76.66 E.03217
G1 X173.926 Y76.553 E.03434
G1 X172.913 Y76.241 E.03323
G1 X172.01 Y75.759 E.03209
G1 X171.188 Y75.089 E.03325
G1 X170.511 Y74.27 E.03332
G1 X170.009 Y73.337 E.03322
G1 X169.697 Y72.324 E.03323
G1 X169.59 Y71.268 E.03328
G1 X169.69 Y70.213 E.03323
G1 X170.009 Y69.163 E.03441
G1 X170.512 Y68.229 E.03326
G1 X171.188 Y67.411 E.03327
G1 X172.01 Y66.741 E.03325
G1 X172.947 Y66.245 E.03324
G1 X173.926 Y65.947 E.03209
G1 X174.982 Y65.84 E.03328
G1 X176.037 Y65.94 E.03323
G1 X177.053 Y66.245 E.03326
G1 X177.99 Y66.741 E.03324
G1 X178.839 Y67.437 E.03442
G1 X179.488 Y68.229 E.03211
G1 X179.71 Y68.684 E.01587
G1 X179.71 Y73.816 E.16091
G1 X179.704 Y73.829 E.00045
M204 S1000
;WIPE_START
G1 F8640
G1 X179.678 Y73.883 E-.01384
G1 X179.488 Y74.271 E-.09976
G1 X178.812 Y75.089 E-.24503
G1 X177.99 Y75.759 E-.24486
G1 X177.238 Y76.157 E-.19651
;WIPE_END
G1 Z.6 F720
G1 X160.065 Y88.903 F10800
G1 Z.2 F720
G1 E.8 F2100
M204 S800
;TYPE:Perimeter
G1 F1200
G1 X160.02 Y89.083 E.00582
G1 X159.78 Y89.51 E.01536
G1 X159.052 Y90.38 E.03557
G1 X158.26 Y91.03 E.03212
G1 X157.265 Y91.574 E.03556
G1 X156.183 Y91.913 E.03555
G1 X155.055 Y92.035 E.03557
G1 X153.817 Y91.913 E.039
G1 X152.735 Y91.574 E.03555
G1 X151.74 Y91.03 E.03556
G1 X150.87 Y90.302 E.03557
G1 X150.219 Y89.508 E.03219
G1 X149.634 Y88.413 E.03893
G1 X149.315 Y87.324 E.03558
G1 X149.215 Y86.195 E.03554
G1 X149.34 Y85.056 E.03593
G1 X149.634 Y84.087 E.03175
G1 X150.22 Y82.99 E.039
G1 X150.948 Y82.12 E.03557
G1 X151.832 Y81.409 E.03557
G1 X152.837 Y80.884 E.03555
G1 X153.926 Y80.565 E.03558
G1 X155.055 Y80.465 E.03554
G1 X156.183 Y80.587 E.03557
G1 X157.265 Y80.926 E.03555
G1 X158.26 Y81.47 E.03556
G1 X159.13 Y82.198 E.03557
G1 X159.781 Y82.992 E.03219
G1 X160.046 Y83.471 E.01716
G1 X160.087 Y83.695 E.00714
G1 X160.087 Y88.816 E.16057
G1 X160.08 Y88.845 E.00094
M204 S1000
G1 X159.71 Y88.794 F10800
M204 S800
;TYPE:External perimeter
G1 F1200
G1 X159.71 Y88.816 E.00069
G1 X159.489 Y89.27 E.01583
G1 X158.812 Y90.089 E.03332
G1 X158.021 Y90.738 E.03208
G1 X157.087 Y91.241 E.03326
G1 X156.037 Y91.56 E.03441
G1 X155.016 Y91.66 E.03217
G1 X153.926 Y91.553 E.03434
G1 X152.913 Y91.241 E.03323
G1 X151.979 Y90.738 E.03326
G1 X151.161 Y90.062 E.03327
G1 X150.511 Y89.27 E.03212
G1 X150.009 Y88.337 E.03322
G1 X149.697 Y87.324 E.03323
G1 X149.59 Y86.268 E.03328
G1 X149.69 Y85.213 E.03323
G1 X149.995 Y84.197 E.03326
G1 X150.512 Y83.229 E.03441
G1 X151.188 Y82.411 E.03327
G1 X152.01 Y81.741 E.03325
G1 X152.947 Y81.245 E.03324
G1 X153.963 Y80.94 E.03326
G1 X154.984 Y80.84 E.03217
G1 X156.074 Y80.947 E.03434
G1 X157.087 Y81.259 E.03323
G1 X158.021 Y81.762 E.03326
G1 X158.839 Y82.437 E.03325
G1 X159.489 Y83.23 E.03215
G1 X159.71 Y83.684 E.01583
G1 X159.71 Y88.734 E.15834
M204 S1000
;WIPE_START
G1 F8640
G1 X159.71 Y88.794 E-.01385
G1 X159.71 Y88.816 E-.00508
G1 X159.489 Y89.27 E-.11659
G1 X158.812 Y90.089 E-.24535
G1 X158.021 Y90.738 E-.23625
G1 X157.324 Y91.114 E-.18288
;WIPE_END
G1 Z.6 F720
G1 X160.065 Y73.903 F10800
G1 Z.2 F720
G1 E.8 F2100
M204 S800
;TYPE:Perimeter
G1 F1200
G1 X160.02 Y74.083 E.00582
G1 X159.78 Y74.51 E.01536
G1 X159.052 Y75.38 E.03557
G1 X158.168 Y76.091 E.03557
G1 X157.163 Y76.616 E.03555
G1 X156.074 Y76.935 E.03558
G1 X154.945 Y77.035 E.03554
G1 X153.817 Y76.913 E.03557
G1 X152.735 Y76.574 E.03555
G1 X151.74 Y76.03 E.03556
G1 X150.87 Y75.302 E.03557
G1 X150.219 Y74.508 E.03219
G1 X149.634 Y73.413 E.03893
G1 X149.315 Y72.324 E.03558
G1 X149.215 Y71.195 E.03554
G1 X149.315 Y70.176 E.0321
G1 X149.634 Y69.087 E.03558
G1 X150.22 Y67.99 E.039
G1 X150.948 Y67.12 E.03557
G1 X151.832 Y66.409 E.03557
G1 X152.837 Y65.884 E.03555
G1 X153.926 Y65.565 E.03558
G1 X155.055 Y65.465 E.03554
G1 X156.183 Y65.587 E.03557
G1 X157.265 Y65.926 E.03555
G1 X158.168 Y66.409 E.03211
G1 X159.052 Y67.12 E.03557
G1 X159.78 Y67.99 E.03557
M73 Q2 S68
G1 X160.064 Y68.525 E.01899
G1 X160.087 Y68.695 E.00538
G1 X160.087 Y73.816 E.16057
G1 X160.08 Y73.845 E.00094
M204 S1000
G1 X159.71 Y73.794 F10800
M204 S800
;TYPE:External perimeter
G1 F1200
G1 X159.71 Y73.816 E.00069
G1 X159.489 Y74.27 E.01583
G1 X158.839 Y75.062 E.03212
G1 X158.021 Y75.738 E.03327
G1 X157.087 Y76.241 E.03326
G1 X156.074 Y76.553 E.03323
M73 P2 R68
G1 X155.016 Y76.66 E.03334
G1 X153.963 Y76.56 E.03316
G1 X152.913 Y76.241 E.03441
G1 X151.979 Y75.738 E.03326
G1 X151.161 Y75.062 E.03327
G1 X150.511 Y74.27 E.03212
G1 X149.995 Y73.303 E.03437
G1 X149.69 Y72.287 E.03326
G1 X149.59 Y71.232 E.03323
G1 X149.69 Y70.213 E.0321
G1 X149.995 Y69.197 E.03326
G1 X150.491 Y68.26 E.03324
G1 X151.161 Y67.437 E.03327
G1 X152.01 Y66.741 E.03442
G1 X152.947 Y66.245 E.03324
G1 X153.963 Y65.94 E.03326
G1 X155.018 Y65.84 E.03323
G1 X156.074 Y65.947 E.03328
G1 X157.087 Y66.259 E.03323
G1 X157.99 Y66.741 E.03209
G1 X158.812 Y67.411 E.03325
G1 X159.488 Y68.229 E.03327
G1 X159.71 Y68.684 E.01587
G1 X159.71 Y73.734 E.15834
M204 S1000
;WIPE_START
G1 F8640
G1 X159.71 Y73.794 E-.01385
G1 X159.71 Y73.816 E-.00508
G1 X159.489 Y74.27 E-.11659
G1 X158.839 Y75.062 E-.23658
G1 X158.021 Y75.738 E-.24503
G1 X157.324 Y76.114 E-.18287
;WIPE_END
G1 Z.6 F720
G1 X140.065 Y73.903 F10800
G1 Z.2 F720
G1 E.8 F2100
M204 S800
;TYPE:Perimeter
G1 F1200
G1 X140.02 Y74.083 E.00582
G1 X139.78 Y74.51 E.01536
G1 X139.052 Y75.38 E.03557
G1 X138.168 Y76.091 E.03557
G1 X137.265 Y76.574 E.03211
G1 X136.074 Y76.935 E.03902
G1 X134.945 Y77.035 E.03554
G1 X133.817 Y76.913 E.03557
G1 X132.735 Y76.574 E.03555
G1 X131.74 Y76.03 E.03556
G1 X130.87 Y75.302 E.03557
G1 X130.219 Y74.508 E.03219
G1 X129.676 Y73.515 E.03549
G1 X129.337 Y72.433 E.03555
G1 X129.215 Y71.305 E.03557
G1 X129.315 Y70.176 E.03554
G1 X129.676 Y68.985 E.03902
G1 X130.22 Y67.99 E.03556
G1 X130.948 Y67.12 E.03557
G1 X131.832 Y66.409 E.03557
G1 X132.837 Y65.884 E.03555
G1 X133.926 Y65.565 E.03558
G1 X135.055 Y65.465 E.03554
G1 X136.183 Y65.587 E.03557
G1 X137.265 Y65.926 E.03555
G1 X138.26 Y66.47 E.03556
G1 X139.13 Y67.198 E.03557
G1 X139.78 Y67.99 E.03212
G1 X140.064 Y68.525 E.01899
G1 X140.087 Y68.695 E.00538
G1 X140.087 Y73.816 E.16057
G1 X140.08 Y73.845 E.00094
M204 S1000
G1 X139.71 Y73.794 F10800
M204 S800
;TYPE:External perimeter
G1 F1200
G1 X139.71 Y73.816 E.00069
G1 X139.489 Y74.27 E.01583
G1 X138.812 Y75.089 E.03332
G1 X137.99 Y75.759 E.03325
G1 X137.087 Y76.241 E.03209
G1 X136.037 Y76.56 E.03441
G1 X135.016 Y76.66 E.03217
G1 X133.926 Y76.553 E.03434
G1 X132.913 Y76.241 E.03323
G1 X131.979 Y75.738 E.03326
G1 X131.161 Y75.062 E.03327
G1 X130.511 Y74.27 E.03212
G1 X130.009 Y73.337 E.03322
G1 X129.697 Y72.324 E.03323
G1 X129.59 Y71.268 E.03328
G1 X129.69 Y70.213 E.03323
G1 X130.009 Y69.163 E.03441
G1 X130.491 Y68.26 E.03209
G1 X131.161 Y67.437 E.03327
G1 X131.979 Y66.762 E.03325
G1 X132.913 Y66.259 E.03326
G1 X133.926 Y65.947 E.03323
G1 X135.018 Y65.84 E.0344
G1 X136.074 Y65.947 E.03328
G1 X137.087 Y66.259 E.03323
G1 X138.021 Y66.762 E.03326
G1 X138.839 Y67.437 E.03325
G1 X139.488 Y68.229 E.03211
G1 X139.71 Y68.684 E.01587
G1 X139.71 Y73.734 E.15834
M204 S1000
;WIPE_START
G1 F8640
G1 X139.71 Y73.794 E-.01385
G1 X139.71 Y73.816 E-.00508
G1 X139.489 Y74.27 E-.11659
G1 X138.812 Y75.089 E-.24535
G1 X137.99 Y75.759 E-.24486
G1 X137.325 Y76.115 E-.17427
;WIPE_END
G1 Z.6 F720
G1 X140.065 Y88.903 F10800
G1 Z.2 F720
G1 E.8 F2100
M204 S800
;TYPE:Perimeter
G1 F1200
G1 X140.02 Y89.083 E.00582
G1 X139.78 Y89.51 E.01536
G1 X139.13 Y90.302 E.03212
G1 X138.168 Y91.091 E.03901
G1 X137.163 Y91.616 E.03555
G1 X136.074 Y91.935 E.03558
G1 X134.945 Y92.035 E.03554
G1 X133.817 Y91.913 E.03557
G1 X132.735 Y91.574 E.03555
G1 X131.74 Y91.03 E.03556
G1 X130.87 Y90.302 E.03557
G1 X130.159 Y89.418 E.03557
G1 X129.634 Y88.413 E.03555
G1 X129.315 Y87.324 E.03558
G1 X129.215 Y86.195 E.03554
G1 X129.34 Y85.056 E.03593
G1 X129.634 Y84.087 E.03175
G1 X130.22 Y82.99 E.039
G1 X130.948 Y82.12 E.03557
G1 X131.832 Y81.409 E.03557
G1 X132.837 Y80.884 E.03555
G1 X133.926 Y80.565 E.03558
G1 X135.055 Y80.465 E.03554
G1 X136.183 Y80.587 E.03557
G1 X137.265 Y80.926 E.03555
G1 X138.26 Y81.47 E.03556
G1 X139.13 Y82.198 E.03557
M73 P2 R67
G1 X139.781 Y82.992 E.03219
G1 X140.046 Y83.471 E.01716
G1 X140.087 Y83.695 E.00714
G1 X140.087 Y88.816 E.16057
G1 X140.08 Y88.845 E.00094
M204 S1000
G1 X139.71 Y88.794 F10800
M204 S800
;TYPE:External perimeter
G1 F1200
G1 X139.71 Y88.816 E.00069
G1 X139.489 Y89.27 E.01583
G1 X138.839 Y90.062 E.03212
G1 X137.99 Y90.759 E.03444
G1 X137.053 Y91.255 E.03324
G1 X136.037 Y91.56 E.03326
G1 X135.016 Y91.66 E.03217
G1 X133.926 Y91.553 E.03434
G1 X132.913 Y91.241 E.03323
G1 X131.979 Y90.738 E.03326
G1 X131.161 Y90.062 E.03327
G1 X130.491 Y89.24 E.03325
G1 X129.995 Y88.303 E.03324
G1 X129.69 Y87.287 E.03326
G1 X129.59 Y86.231 E.03326
G1 X129.69 Y85.213 E.03207
G1 X129.995 Y84.197 E.03326
G1 X130.512 Y83.229 E.03441
G1 X131.188 Y82.411 E.03327
G1 X132.01 Y81.741 E.03325
G1 X132.947 Y81.245 E.03324
G1 X133.963 Y80.94 E.03326
G1 X134.984 Y80.84 E.03217
G1 X136.074 Y80.947 E.03434
G1 X137.087 Y81.259 E.03323
G1 X138.021 Y81.762 E.03326
G1 X138.839 Y82.437 E.03325
G1 X139.489 Y83.23 E.03215
G1 X139.71 Y83.684 E.01583
G1 X139.71 Y88.734 E.15834
M204 S1000
;WIPE_START
G1 F8640
G1 X139.71 Y88.794 E-.01385
G1 X139.71 Y88.816 E-.00508
G1 X139.489 Y89.27 E-.11659
G1 X138.839 Y90.062 E-.23658
G1 X137.99 Y90.759 E-.25364
G1 X137.323 Y91.112 E-.17426
;WIPE_END
G1 Z.6 F720
G1 X140.065 Y103.903 F10800
G1 Z.2 F720
G1 E.8 F2100
M204 S800
;TYPE:Perimeter
G1 F1200
G1 X140.02 Y104.083 E.00582
G1 X139.78 Y104.51 E.01536
G1 X139.052 Y105.38 E.03557
G1 X138.168 Y106.091 E.03557
G1 X137.163 Y106.616 E.03555
G1 X136.074 Y106.935 E.03558
G1 X134.945 Y107.035 E.03554
G1 X133.926 Y106.935 E.0321
G1 X132.837 Y106.616 E.03558
G1 X131.832 Y106.091 E.03555
G1 X130.948 Y105.38 E.03557
G1 X130.219 Y104.508 E.03564
G1 X129.676 Y103.515 E.03549
G1 X129.337 Y102.433 E.03555
G1 X129.215 Y101.305 E.03557
G1 X129.315 Y100.176 E.03554
G1 X129.634 Y99.087 E.03558
G1 X130.22 Y97.99 E.039
G1 X130.87 Y97.198 E.03212
G1 X131.74 Y96.47 E.03557
G1 X132.735 Y95.926 E.03556
G1 X133.817 Y95.587 E.03555
G1 X134.945 Y95.465 E.03557
G1 X136.074 Y95.565 E.03554
G1 X137.163 Y95.884 E.03558
G1 X138.168 Y96.409 E.03555
G1 X139.052 Y97.12 E.03557
G1 X139.781 Y97.992 E.03564
G1 X140.046 Y98.471 E.01716
G1 X140.087 Y98.695 E.00714
G1 X140.087 Y103.816 E.16057
G1 X140.08 Y103.845 E.00094
M204 S1000
G1 X139.71 Y103.794 F10800
M204 S800
;TYPE:External perimeter
G1 F1200
G1 X139.71 Y103.816 E.00069
G1 X139.489 Y104.27 E.01583
G1 X138.812 Y105.089 E.03332
G1 X137.99 Y105.759 E.03325
G1 X137.053 Y106.255 E.03324
G1 X136.037 Y106.56 E.03326
G1 X135.016 Y106.66 E.03217
G1 X133.963 Y106.56 E.03316
G1 X132.947 Y106.255 E.03326
G1 X132.01 Y105.759 E.03324
G1 X131.188 Y105.089 E.03325
G1 X130.511 Y104.27 E.03332
G1 X130.009 Y103.337 E.03322
G1 X129.697 Y102.324 E.03323
G1 X129.59 Y101.268 E.03328
G1 X129.69 Y100.213 E.03323
G1 X129.995 Y99.197 E.03326
G1 X130.512 Y98.229 E.03441
G1 X131.161 Y97.437 E.03211
G1 X131.979 Y96.762 E.03325
G1 X132.913 Y96.259 E.03326
G1 X133.926 Y95.947 E.03323
G1 X134.984 Y95.84 E.03334
G1 X136.037 Y95.94 E.03316
G1 X137.053 Y96.245 E.03326
G1 X137.99 Y96.741 E.03324
G1 X138.813 Y97.411 E.03327
G1 X139.489 Y98.23 E.0333
G1 X139.71 Y98.684 E.01583
G1 X139.71 Y103.734 E.15834
M204 S1000
;WIPE_START
G1 F8640
G1 X139.71 Y103.794 E-.01385
G1 X139.71 Y103.816 E-.00508
G1 X139.489 Y104.27 E-.11659
G1 X138.812 Y105.089 E-.24535
G1 X137.99 Y105.759 E-.24486
G1 X137.323 Y106.112 E-.17427
;WIPE_END
G1 Z.6 F720
G1 X140.071 Y113.611 F10800
G1 Z.2 F720
G1 E.8 F2100
M204 S800
;TYPE:Perimeter
G1 F1200
G1 X140.087 Y113.695 E.00268
G1 X140.087 Y118.816 E.16057
G1 X140.02 Y119.083 E.00863
G1 X139.78 Y119.51 E.01536
G1 X139.052 Y120.38 E.03557
G1 X138.168 Y121.091 E.03557
