; generated by PrusaSlicer 2.7.1+win64 on 2024-08-09 at 18:11:33 UTC


;
;
; 

; external perimeters extrusion width = 0.60mm
; perimeters extrusion width = 0.50mm
; infill extrusion width = 0.50mm
; solid infill extrusion width = 0.50mm
; top infill extrusion width = 0.45mm
; support material extrusion width = 0.38mm
; first layer extrusion width = 0.42mm

M73 P0 R484
M73 Q0 S488
M201 X1000 Y1000 Z200 E5000 ; sets maximum accelerations, mm/sec^2
M203 X200 Y200 Z12 E120 ; sets maximum feedrates, mm / sec
M204 S1250 T1250 ; sets acceleration (S) and retract acceleration (R), mm/sec^2
M205 X8.00 Y8.00 Z0.40 E4.50 ; sets the jerk limits, mm/sec
M205 S0 T0 ; sets the minimum extruding and travel feed rate, mm/sec

; printing object BncBreakoutBox_Box.stl id:0 copy 0
; stop printing object BncBreakoutBox_Box.stl id:0 copy 0

;TYPE:Custom
M862.3 P "MK3S" ; printer model check
M862.1 P0.4 ; nozzle diameter check
G90 ; use absolute coordinates
M83 ; extruder relative mode
M104 S215 ; set extruder temp
M140 S60 ; set bed temp
M190 S60 ; wait for bed temp
M109 S215 ; wait for extruder temp
G28 W ; home all without mesh bed level
G80 ; mesh bed leveling

G1 Z0.2 F720
G1 Y-3 F1000 ; go outside print area
G92 E0
G1 X60 E9 F1000 ; intro line
G1 X100 E12.5 F1000 ; intro line

G92 E0
M221 S95

; Don't change E values below. Excessive value can damage the printer.

M907 E538 ; set extruder motor current
G21 ; set units to millimeters
G90 ; use absolute coordinates
M83 ; use relative distances for extrusion
M900 K0.05 ; Filament gcode LA 1.5
M900 K30 ; Filament gcode LA 1.0
M107
;LAYER_CHANGE
;Z:0.2
;HEIGHT:0.2
;BEFORE_LAYER_CHANGE
G92 E0.0
;0.2


G1 E-.8 F2100
G1 Z.2 F720
;AFTER_LAYER_CHANGE
;0.2
G1 X33.015 Y37.443 F10800
G1 Z.2 F720
G1 E.8 F2100
M204 S800
;TYPE:Skirt/Brim
;WIDTH:0.42
G1 F1200
G1 X34.06 Y36.567 E.04275
G1 X35 Y36.373 E.03009
G1 X215 Y36.373 E5.64377
G1 X216.307 Y36.765 E.04278
G1 X217.183 Y37.81 E.04275
G1 X217.377 Y38.75 E.03009
G1 X217.377 Y171.25 E4.15444
M73 P0 R483
G1 X216.985 Y172.557 E.04278
G1 X215.94 Y173.433 E.04275
G1 X215 Y173.627 E.03009
G1 X35 Y173.627 E5.64377
G1 X33.693 Y173.235 E.04278
G1 X32.817 Y172.19 E.04275
G1 X32.623 Y171.25 E.03009
G1 X32.623 Y38.75 E4.15444
G1 X32.997 Y37.5 E.04091
M204 S1000
; printing object BncBreakoutBox_Box.stl id:0 copy 0
;WIPE_START
G1 F8640
G1 X33.015 Y37.443 E-.0138
G1 X34.06 Y36.567 E-.31486
G1 X35 Y36.373 E-.22162
G1 X36.081 Y36.373 E-.24972
;WIPE_END
G1 Z.6 F720
G1 X35.787 Y170.463 F10800
G1 Z.2 F720
G1 E.8 F2100
M204 S800
;TYPE:Perimeter
;WIDTH:0.419999
G1 F1200
G1 X35.787 Y39.537 E4.10509
G1 X214.213 Y39.537 E5.59441
G1 X214.213 Y58.285 E.58783
G1 X214.213 Y170.463 E3.51726
G1 X35.847 Y170.463 E5.59253
M73 Q0 S487
M204 S1000
G1 X35.41 Y170.84 F10800
M204 S800
;TYPE:External perimeter
G1 F1200
G1 X35.41 Y39.16 E4.12873
G1 X214.59 Y39.16 E5.61805
M73 P0 R482
G1 X214.59 Y58.285 E.59965
G1 X214.59 Y170.84 E3.52908
G1 X35.47 Y170.84 E5.61617
M204 S1000
;WIPE_START
G1 F8640
G1 X35.41 Y170.84 E-.01385
G1 X35.41 Y167.435 E-.78615
;WIPE_END
G1 Z.6 F720
G1 X192.251 Y81.029 F10800
G1 Z.2 F720
G1 E.8 F2100
M204 S800
;TYPE:Perimeter
G1 F1200
G1 X192.206 Y80.99 E.00187
G1 X191.919 Y80.623 E.01461
G1 X191.709 Y80.208 E.01458
G1 X191.601 Y79.852 E.01166
G1 X191.547 Y79.353 E.01574
G1 X191.602 Y78.847 E.01596
G1 X191.752 Y78.39 E.01508
G1 X191.981 Y77.984 E.01462
G1 X192.285 Y77.631 E.01461
G1 X192.651 Y77.344 E.01458
G1 X193.076 Y77.132 E.01489
G1 X193.546 Y77.006 E.01526
G1 X193.98 Y76.975 E.01364
G1 X194.443 Y77.031 E.01462
G1 X194.885 Y77.177 E.0146
G1 X195.291 Y77.406 E.01462
G1 X195.644 Y77.71 E.01461
G1 X195.931 Y78.076 E.01458
G1 X196.141 Y78.492 E.01461
G1 X196.266 Y78.941 E.01461
G1 X196.3 Y79.405 E.01459
G1 X196.244 Y79.868 E.01462
G1 X196.098 Y80.31 E.0146
G1 X195.869 Y80.716 E.01462
G1 X195.565 Y81.069 E.01461
G1 X195.199 Y81.356 E.01458
G1 X194.783 Y81.566 E.01461
G1 X194.334 Y81.691 E.01461
G1 X193.87 Y81.725 E.01459
G1 X193.407 Y81.669 E.01462
G1 X192.965 Y81.523 E.0146
G1 X192.559 Y81.294 E.01462
G1 X192.297 Y81.069 E.01083
M204 S1000
G1 X192.49 Y80.742 F10800
M204 S800
;TYPE:External perimeter
G1 F1200
G1 X192.251 Y80.445 E.01195
G1 X192.07 Y80.098 E.01227
G1 X191.965 Y79.753 E.01131
G1 X191.925 Y79.332 E.01326
G1 X191.967 Y78.942 E.0123
G1 X192.084 Y78.568 E.01229
G1 X192.272 Y78.223 E.01232
G1 X192.524 Y77.923 E.01228
G1 X192.829 Y77.677 E.01229
G1 X193.18 Y77.494 E.01241
G1 X193.583 Y77.382 E.01311
G1 X193.943 Y77.35 E.01133
G1 X194.333 Y77.392 E.0123
G1 X194.707 Y77.509 E.01229
G1 X195.052 Y77.697 E.01232
G1 X195.352 Y77.949 E.01228
G1 X195.598 Y78.254 E.01229
G1 X195.78 Y78.602 E.01231
G1 X195.89 Y78.978 E.01228
G1 X195.925 Y79.368 E.01228
G1 X195.883 Y79.758 E.0123
G1 X195.766 Y80.133 E.01232
G1 X195.578 Y80.477 E.01229
G1 X195.326 Y80.777 E.01228
G1 X195.021 Y81.023 E.01229
G1 X194.673 Y81.205 E.01231
G1 X194.297 Y81.315 E.01228
G1 X193.907 Y81.35 E.01228
G1 X193.517 Y81.308 E.0123
G1 X193.142 Y81.191 E.01232
G1 X192.798 Y81.003 E.01229
G1 X192.534 Y80.782 E.0108
M204 S1000
;WIPE_START
G1 F8640
G1 X192.49 Y80.742 E-.01373
G1 X192.251 Y80.445 E-.08803
G1 X192.07 Y80.098 E-.09037
G1 X191.965 Y79.753 E-.08327
G1 X191.925 Y79.332 E-.09765
G1 X191.967 Y78.942 E-.09057
G1 X192.084 Y78.568 E-.09048
G1 X192.272 Y78.223 E-.09072
G1 X192.524 Y77.923 E-.09047
G1 X192.742 Y77.747 E-.06471
;WIPE_END
G1 Z.6 F720
G1 X192.604 Y128.681 F10800
G1 Z.2 F720
G1 E.8 F2100
M204 S800
;TYPE:Perimeter
G1 F1200
G1 X192.651 Y128.644 E.00188
G1 X193.076 Y128.432 E.01489
G1 X193.546 Y128.306 E.01526
G1 X193.98 Y128.275 E.01364
G1 X194.443 Y128.331 E.01462
G1 X194.885 Y128.477 E.0146
G1 X195.291 Y128.706 E.01462
G1 X195.644 Y129.01 E.01461
G1 X195.931 Y129.376 E.01458
G1 X196.141 Y129.792 E.01461
G1 X196.266 Y130.241 E.01461
G1 X196.3 Y130.705 E.01459
G1 X196.244 Y131.168 E.01462
G1 X196.098 Y131.61 E.0146
G1 X195.869 Y132.016 E.01462
G1 X195.565 Y132.369 E.01461
G1 X195.199 Y132.656 E.01458
G1 X194.783 Y132.866 E.01461
G1 X194.334 Y132.991 E.01461
G1 X193.895 Y133.027 E.01381
G1 X193.407 Y132.969 E.01541
G1 X192.965 Y132.823 E.0146
G1 X192.559 Y132.594 E.01462
G1 X192.206 Y132.29 E.01461
G1 X191.919 Y131.924 E.01458
G1 X191.709 Y131.508 E.01461
G1 X191.584 Y131.059 E.01461
G1 X191.55 Y130.595 E.01459
G1 X191.606 Y130.132 E.01462
G1 X191.752 Y129.689 E.01462
G1 X191.981 Y129.284 E.01459
G1 X192.285 Y128.931 E.01461
G1 X192.557 Y128.718 E.01083
M204 S1000
G1 X192.84 Y128.971 F10800
M204 S800
;TYPE:External perimeter
G1 F1200
G1 X193.18 Y128.794 E.01202
G1 X193.583 Y128.682 E.01311
G1 X193.943 Y128.65 E.01133
G1 X194.333 Y128.692 E.0123
G1 X194.707 Y128.809 E.01229
G1 X195.052 Y128.997 E.01232
G1 X195.352 Y129.249 E.01228
G1 X195.598 Y129.554 E.01229
G1 X195.78 Y129.902 E.01231
G1 X195.89 Y130.278 E.01228
G1 X195.925 Y130.668 E.01228
G1 X195.883 Y131.058 E.0123
G1 X195.766 Y131.433 E.01232
G1 X195.578 Y131.777 E.01229
G1 X195.326 Y132.077 E.01228
G1 X195.021 Y132.323 E.01229
G1 X194.673 Y132.505 E.01231
G1 X194.297 Y132.615 E.01228
G1 X193.915 Y132.651 E.01203
G1 X193.517 Y132.608 E.01255
G1 X193.142 Y132.491 E.01232
G1 X192.798 Y132.303 E.01229
G1 X192.498 Y132.051 E.01228
G1 X192.252 Y131.746 E.01229
G1 X192.07 Y131.398 E.01231
G1 X191.96 Y131.022 E.01228
G1 X191.925 Y130.632 E.01228
G1 X191.967 Y130.242 E.0123
G1 X192.085 Y129.867 E.01233
G1 X192.272 Y129.523 E.01228
G1 X192.524 Y129.223 E.01228
G1 X192.792 Y129.006 E.01081
M204 S1000
;WIPE_START
G1 F8640
G1 X192.84 Y128.971 E-.01372
G1 X193.18 Y128.794 E-.08851
G1 X193.583 Y128.682 E-.09658
G1 X193.943 Y128.65 E-.08345
G1 X194.333 Y128.692 E-.09057
G1 X194.707 Y128.809 E-.09048
G1 X195.052 Y128.997 E-.09072
G1 X195.352 Y129.249 E-.09047
G1 X195.598 Y129.554 E-.09048
G1 X195.728 Y129.803 E-.06502
;WIPE_END
G1 Z.6 F720
G1 X60.339 Y128.676 F10800
G1 Z.2 F720
G1 E.8 F2100
M204 S800
;TYPE:Perimeter
G1 F1200
G1 X60.391 Y128.706 E.00188
G1 X60.744 Y129.01 E.01461
G1 X61.031 Y129.376 E.01458
G1 X61.241 Y129.792 E.01461
G1 X61.366 Y130.241 E.01461
G1 X61.4 Y130.705 E.01459
G1 X61.344 Y131.168 E.01462
G1 X61.198 Y131.61 E.0146
G1 X60.969 Y132.016 E.01462
G1 X60.665 Y132.369 E.01461
G1 X60.299 Y132.656 E.01458
G1 X59.883 Y132.866 E.01461
G1 X59.434 Y132.991 E.01461
G1 X58.97 Y133.025 E.01459
G1 X58.507 Y132.969 E.01462
G1 X58.065 Y132.823 E.0146
G1 X57.659 Y132.594 E.01462
G1 X57.306 Y132.29 E.01461
G1 X57.019 Y131.924 E.01458
G1 X56.809 Y131.508 E.01461
G1 X56.684 Y131.059 E.01461
G1 X56.65 Y130.595 E.01459
G1 X56.706 Y130.132 E.01462
G1 X56.852 Y129.69 E.0146
G1 X57.081 Y129.284 E.01462
G1 X57.385 Y128.931 E.01461
G1 X57.751 Y128.644 E.01458
G1 X58.176 Y128.432 E.01489
G1 X58.597 Y128.313 E.01372
G1 X59.08 Y128.275 E.01519
G1 X59.543 Y128.331 E.01462
G1 X59.985 Y128.477 E.0146
G1 X60.287 Y128.647 E.01087
M204 S1000
G1 X60.161 Y129.005 F10800
M204 S800
;TYPE:External perimeter
G1 F1200
G1 X60.453 Y129.249 E.01193
G1 X60.698 Y129.554 E.01227
G1 X60.88 Y129.902 E.01231
G1 X60.99 Y130.278 E.01228
G1 X61.025 Y130.668 E.01228
G1 X60.983 Y131.058 E.0123
G1 X60.866 Y131.433 E.01232
G1 X60.678 Y131.777 E.01229
G1 X60.426 Y132.077 E.01228
G1 X60.121 Y132.323 E.01229
G1 X59.773 Y132.505 E.01231
G1 X59.397 Y132.615 E.01228
G1 X59.007 Y132.65 E.01228
G1 X58.617 Y132.608 E.0123
G1 X58.242 Y132.491 E.01232
G1 X57.898 Y132.303 E.01229
G1 X57.598 Y132.051 E.01228
G1 X57.352 Y131.746 E.01229
G1 X57.17 Y131.398 E.01231
G1 X57.06 Y131.022 E.01228
G1 X57.025 Y130.632 E.01228
G1 X57.067 Y130.242 E.0123
G1 X57.184 Y129.868 E.01229
G1 X57.372 Y129.523 E.01232
G1 X57.624 Y129.223 E.01228
G1 X57.929 Y128.977 E.01229
G1 X58.28 Y128.794 E.01241
G1 X58.667 Y128.684 E.01261
G1 X59.043 Y128.65 E.01184
G1 X59.434 Y128.692 E.01233
G1 X59.807 Y128.809 E.01226
G1 X60.11 Y128.974 E.01082
M204 S1000
;WIPE_START
G1 F8640
G1 X60.161 Y129.005 E-.01378
G1 X60.453 Y129.249 E-.08786
G1 X60.698 Y129.554 E-.09033
G1 X60.88 Y129.902 E-.09068
G1 X60.99 Y130.278 E-.09046
G1 X61.025 Y130.668 E-.09041
G1 X60.983 Y131.058 E-.09057
G1 X60.866 Y131.433 E-.09071
G1 X60.678 Y131.777 E-.09052
G1 X60.498 Y131.992 E-.06468
;WIPE_END
G1 Z.6 F720
G1 X61.217 Y80.254 F10800
G1 Z.2 F720
G1 E.8 F2100
M204 S800
;TYPE:Perimeter
G1 F1200
G1 X61.198 Y80.31 E.00185
G1 X60.969 Y80.716 E.01462
G1 X60.665 Y81.069 E.01461
G1 X60.299 Y81.356 E.01458
G1 X59.883 Y81.566 E.01461
G1 X59.434 Y81.691 E.01461
G1 X58.97 Y81.725 E.01459
G1 X58.507 Y81.669 E.01462
G1 X58.065 Y81.523 E.0146
G1 X57.659 Y81.294 E.01462
G1 X57.306 Y80.99 E.01461
G1 X57.019 Y80.624 E.01458
G1 X56.809 Y80.208 E.01461
G1 X56.684 Y79.759 E.01461
G1 X56.65 Y79.405 E.01115
G1 X56.689 Y78.904 E.01576
G1 X56.835 Y78.423 E.01576
G1 X57.081 Y77.984 E.01578
G1 X57.385 Y77.631 E.01461
G1 X57.751 Y77.344 E.01458
G1 X58.176 Y77.132 E.01489
G1 X58.646 Y77.006 E.01526
G1 X59.08 Y76.975 E.01364
G1 X59.543 Y77.031 E.01462
G1 X59.985 Y77.177 E.0146
G1 X60.391 Y77.406 E.01462
G1 X60.744 Y77.71 E.01461
G1 X61.031 Y78.076 E.01458
G1 X61.241 Y78.492 E.01461
G1 X61.366 Y78.941 E.01461
G1 X61.4 Y79.405 E.01459
G1 X61.344 Y79.868 E.01462
G1 X61.236 Y80.197 E.01086
M204 S1000
G1 X60.86 Y80.144 F10800
M204 S800
;TYPE:External perimeter
G1 F1200
G1 X60.678 Y80.477 E.0119
G1 X60.426 Y80.777 E.01228
G1 X60.121 Y81.023 E.01229
G1 X59.773 Y81.205 E.01231
G1 X59.397 Y81.315 E.01228
G1 X59.007 Y81.35 E.01228
G1 X58.617 Y81.308 E.0123
G1 X58.243 Y81.191 E.01229
G1 X57.898 Y81.003 E.01232
G1 X57.598 Y80.751 E.01228
G1 X57.352 Y80.446 E.01229
G1 X57.17 Y80.098 E.01231
G1 X57.06 Y79.722 E.01228
G1 X57.025 Y79.368 E.01115
G1 X57.067 Y78.942 E.01342
G1 X57.184 Y78.568 E.01229
G1 X57.372 Y78.223 E.01232
G1 X57.624 Y77.923 E.01228
G1 X57.929 Y77.677 E.01229
G1 X58.28 Y77.494 E.01241
G1 X58.683 Y77.382 E.01311
G1 X59.043 Y77.35 E.01133
G1 X59.433 Y77.392 E.0123
G1 X59.807 Y77.509 E.01229
G1 X60.152 Y77.697 E.01232
G1 X60.452 Y77.949 E.01228
G1 X60.698 Y78.254 E.01229
G1 X60.88 Y78.602 E.01231
G1 X60.99 Y78.978 E.01228
G1 X61.025 Y79.368 E.01228
G1 X60.983 Y79.758 E.0123
G1 X60.88 Y80.087 E.01081
M204 S1000
;WIPE_START
G1 F8640
G1 X60.86 Y80.144 E-.01395
G1 X60.678 Y80.477 E-.08763
G1 X60.426 Y80.777 E-.09047
G1 X60.121 Y81.023 E-.09048
G1 X59.773 Y81.205 E-.09068
G1 X59.397 Y81.315 E-.09046
G1 X59.007 Y81.35 E-.09041
G1 X58.617 Y81.308 E-.09057
G1 X58.243 Y81.191 E-.09048
G1 X57.997 Y81.056 E-.06487
;WIPE_END
G1 Z.6 F720
G1 X213.28 Y39.707 F10800
G1 Z.2 F720
G1 E.8 F2100
M204 S800
;TYPE:Solid infill
;WIDTH:0.420632
G1 F1200
G1 X213.873 Y40.301 E.02636
G1 X213.873 Y40.835 E.01677
G1 X212.915 Y39.876 E.04257
G1 X212.381 Y39.876 E.01677
G1 X213.873 Y41.369 E.06629
G1 X213.873 Y41.903 E.01677
G1 X211.847 Y39.876 E.09001
G1 X211.313 Y39.876 E.01677
G1 X213.873 Y42.437 E.11373
G1 X213.873 Y42.972 E.0168
G1 X210.778 Y39.876 E.13749
G1 X210.244 Y39.876 E.01677
G1 X213.873 Y43.506 E.16121
G1 X213.873 Y44.04 E.01677
G1 X209.71 Y39.876 E.18493
G1 X209.176 Y39.876 E.01677
G1 X213.873 Y44.574 E.20864
G1 X213.873 Y45.108 E.01677
G1 X208.642 Y39.876 E.23236
G1 X208.108 Y39.876 E.01677
G1 X213.873 Y45.642 E.25608
G1 X213.873 Y46.177 E.0168
G1 X207.573 Y39.876 E.27984
G1 X207.039 Y39.876 E.01677
G1 X213.873 Y46.711 E.30356
G1 X213.873 Y47.245 E.01677
M73 Q0 S486
G1 X206.505 Y39.876 E.32728
G1 X205.971 Y39.876 E.01677
G1 X213.873 Y47.779 E.351
G1 X213.873 Y48.313 E.01677
G1 X205.437 Y39.876 E.37472
G1 X204.903 Y39.876 E.01677
G1 X213.873 Y48.847 E.39843
G1 X213.873 Y49.382 E.0168
G1 X204.368 Y39.876 E.4222
G1 X203.834 Y39.876 E.01677
G1 X213.873 Y49.916 E.44591
G1 X213.873 Y50.45 E.01677
G1 X203.3 Y39.876 E.46963
G1 X202.766 Y39.876 E.01677
G1 X213.873 Y50.984 E.49335
G1 X213.873 Y51.518 E.01677
G1 X202.232 Y39.876 E.51707
G1 X201.698 Y39.876 E.01677
G1 X213.873 Y52.052 E.54079
G1 X213.873 Y52.587 E.0168
G1 X201.163 Y39.876 E.56455
G1 X200.629 Y39.876 E.01677
G1 X213.873 Y53.121 E.58827
G1 X213.873 Y53.655 E.01677
G1 X200.095 Y39.876 E.61199
G1 X199.561 Y39.876 E.01677
G1 X213.873 Y54.189 E.6357
G1 X213.873 Y54.723 E.01677
G1 X199.027 Y39.876 E.65942
G1 X198.493 Y39.876 E.01677
G1 X213.873 Y55.257 E.68314
G1 X213.873 Y55.792 E.0168
G1 X197.958 Y39.876 E.7069
G1 X197.424 Y39.876 E.01677
G1 X213.873 Y56.326 E.73062
G1 X213.873 Y56.86 E.01677
G1 X196.89 Y39.876 E.75434
G1 X196.356 Y39.876 E.01677
G1 X213.873 Y57.394 E.77806
G1 X213.873 Y57.928 E.01677
G1 X195.822 Y39.876 E.80178
G1 X195.288 Y39.876 E.01677
M73 P0 R481
G1 X213.873 Y58.462 E.82549
G1 X213.873 Y58.997 E.0168
G1 X194.753 Y39.876 E.84926
G1 X194.219 Y39.876 E.01677
G1 X213.873 Y59.531 E.87298
G1 X213.873 Y60.065 E.01677
G1 X193.685 Y39.876 E.89669
G1 X193.151 Y39.876 E.01677
G1 X213.873 Y60.599 E.92041
G1 X213.873 Y61.133 E.01677
G1 X192.617 Y39.876 E.94413
G1 X192.083 Y39.876 E.01677
G1 X213.873 Y61.667 E.96785
G1 X213.873 Y62.202 E.0168
G1 X191.548 Y39.876 E.99161
G1 X191.014 Y39.876 E.01677
G1 X213.873 Y62.736 E1.01533
G1 X213.873 Y63.27 E.01677
G1 X190.48 Y39.876 E1.03905
G1 X189.946 Y39.876 E.01677
G1 X213.873 Y63.804 E1.06276
G1 X213.873 Y64.338 E.01677
G1 X189.412 Y39.876 E1.08648
G1 X188.878 Y39.876 E.01677
G1 X213.873 Y64.872 E1.1102
G1 X213.873 Y65.406 E.01677
G1 X188.343 Y39.876 E1.13394
G1 X187.809 Y39.876 E.01677
G1 X213.873 Y65.941 E1.15768
G1 X213.873 Y66.475 E.01677
G1 X187.275 Y39.876 E1.1814
G1 X186.741 Y39.876 E.01677
G1 X213.873 Y67.009 E1.20512
G1 X213.873 Y67.543 E.01677
G1 X186.207 Y39.876 E1.22884
G1 X185.673 Y39.876 E.01677
G1 X213.873 Y68.077 E1.25255
G1 X213.873 Y68.611 E.01677
G1 X185.138 Y39.876 E1.27629
G1 X184.604 Y39.876 E.01677
G1 X213.873 Y69.146 E1.30004
G1 X213.873 Y69.68 E.01677
G1 X184.07 Y39.876 E1.32375
G1 X183.536 Y39.876 E.01677
G1 X213.873 Y70.214 E1.34747
G1 X213.873 Y70.748 E.01677
M73 Q0 S485
G1 X183.002 Y39.876 E1.37119
G1 X182.468 Y39.876 E.01677
G1 X213.873 Y71.282 E1.39491
G1 X213.873 Y71.816 E.01677
G1 X181.933 Y39.876 E1.41865
G1 X181.399 Y39.876 E.01677
G1 X213.873 Y72.351 E1.44239
G1 X213.873 Y72.885 E.01677
G1 X180.865 Y39.876 E1.46611
G1 X180.331 Y39.876 E.01677
G1 X213.873 Y73.419 E1.48982
G1 X213.873 Y73.953 E.01677
G1 X179.797 Y39.876 E1.51354
