; generated by PrusaSlicer 2.7.1+win64 on 2024-03-24 at 22:41:51 UTC


;
;
; 

; external perimeters extrusion width = 0.60mm
; perimeters extrusion width = 0.50mm
; infill extrusion width = 0.50mm
; solid infill extrusion width = 0.50mm
; top infill extrusion width = 0.45mm
; support material extrusion width = 0.38mm
; first layer extrusion width = 0.42mm

M73 P0 R21
M73 Q0 S22
M201 X1000 Y1000 Z200 E5000 ; sets maximum accelerations, mm/sec^2
M203 X200 Y200 Z12 E120 ; sets maximum feedrates, mm / sec
M204 S1250 T1250 ; sets acceleration (S) and retract acceleration (R), mm/sec^2
M205 X8.00 Y8.00 Z0.40 E4.50 ; sets the jerk limits, mm/sec
M205 S0 T0 ; sets the minimum extruding and travel feed rate, mm/sec

; printing object CameraHolder_PhotosensorCap_ELP.stl id:0 copy 0
; stop printing object CameraHolder_PhotosensorCap_ELP.stl id:0 copy 0

;TYPE:Custom
M862.3 P "MK3S" ; printer model check
M862.1 P0.4 ; nozzle diameter check
G90 ; use absolute coordinates
M83 ; extruder relative mode
M104 S215 ; set extruder temp
M140 S60 ; set bed temp
M190 S60 ; wait for bed temp
M109 S215 ; wait for extruder temp
G28 W ; home all without mesh bed level
G80 ; mesh bed leveling

G1 Z0.2 F720
G1 Y-3 F1000 ; go outside print area
G92 E0
G1 X60 E9 F1000 ; intro line
G1 X100 E12.5 F1000 ; intro line

G92 E0
M221 S95

; Don't change E values below. Excessive value can damage the printer.

M907 E538 ; set extruder motor current
G21 ; set units to millimeters
G90 ; use absolute coordinates
M83 ; use relative distances for extrusion
M900 K0.05 ; Filament gcode LA 1.5
M900 K30 ; Filament gcode LA 1.0
M107
;LAYER_CHANGE
;Z:0.2
;HEIGHT:0.2
;BEFORE_LAYER_CHANGE
G92 E0.0
;0.2


G1 E-.8 F2100
M73 Q0 S21
G1 Z.2 F720
;AFTER_LAYER_CHANGE
;0.2
G1 X85.535 Y85.322 F10800
G1 Z.2 F720
G1 E.8 F2100
M204 S800
;TYPE:Skirt/Brim
;WIDTH:0.42
G1 F1200
G1 X85.553 Y85.304 E.0008
G1 X86.757 Y84.514 E.04515
G1 X87.918 Y84.092 E.03873
G1 X89.297 Y83.923 E.04356
G1 X160.775 Y83.924 E2.24114
G1 X161.856 Y84.04 E.03409
G1 X162.896 Y84.357 E.03409
G1 X163.854 Y84.86 E.03393
G1 X164.708 Y85.541 E.03425
G1 X165.417 Y86.365 E.03408
G1 X165.958 Y87.308 E.03409
G1 X166.313 Y88.336 E.0341
G1 X166.468 Y89.394 E.03353
G1 X166.46 Y120.737 E.98274
G1 X166.313 Y121.662 E.02937
G1 X166.098 Y122.357 E.02281
G1 X165.417 Y123.635 E.0454
G1 X164.439 Y124.703 E.04541
G1 X163.227 Y125.494 E.04538
M73 Q1 S21
G1 X162.064 Y125.913 E.03876
G1 X160.7 Y126.077 E.04308
G1 X89.012 Y126.069 E2.24773
M73 P1 R21
G1 X87.586 Y125.816 E.04541
G1 X86.773 Y125.494 E.02742
G1 X86.142 Y125.137 E.02273
G1 X85.038 Y124.199 E.04542
G1 X84.583 Y123.635 E.02272
G1 X84.109 Y122.833 E.02921
G1 X83.692 Y121.681 E.03841
G1 X83.524 Y120.38 E.04113
G1 X83.54 Y89.268 E.9755
G1 X83.828 Y87.849 E.0454
G1 X84.46 Y86.546 E.04541
G1 X84.894 Y85.965 E.02274
G1 X85.492 Y85.365 E.02656
M204 S1000
; printing object CameraHolder_PhotosensorCap_ELP.stl id:0 copy 0
;WIPE_START
G1 F8640
G1 X85.535 Y85.322 E-.01404
G1 X85.553 Y85.304 E-.00588
G1 X86.757 Y84.514 E-.33251
G1 X87.918 Y84.092 E-.28524
G1 X88.616 Y84.006 E-.16233
;WIPE_END
G1 Z.6 F720
G1 X150.144 Y107.525 F10800
G1 Z.2 F720
G1 E.8 F2100
M204 S800
;TYPE:Perimeter
;WIDTH:0.419999
G1 F1200
G1 X150.345 Y107.493 E.00638
G1 X150.907 Y107.533 E.01767
G1 X151.381 Y107.655 E.01535
G1 X151.892 Y107.891 E.01765
G1 X152.294 Y108.202 E.01594
G1 X152.649 Y108.639 E.01765
G1 X152.885 Y109.068 E.01535
G1 X153.036 Y109.533 E.01533
G1 X153.097 Y110.018 E.01533
G1 X153.067 Y110.506 E.01533
G1 X152.945 Y110.98 E.01535
G1 X152.709 Y111.492 E.01768
G1 X152.398 Y111.894 E.01594
G1 X151.961 Y112.249 E.01765
G1 X151.532 Y112.485 E.01535
G1 X151.067 Y112.636 E.01533
G1 X150.582 Y112.697 E.01533
G1 X150.093 Y112.667 E.01536
G1 X149.62 Y112.545 E.01532
G1 X149.177 Y112.337 E.01534
G1 X148.781 Y112.049 E.01535
G1 X148.446 Y111.693 E.01533
G1 X148.185 Y111.28 E.01532
G1 X148.004 Y110.825 E.01535
G1 X147.893 Y110.264 E.01793
G1 X147.933 Y109.694 E.01792
G1 X148.055 Y109.22 E.01535
G1 X148.263 Y108.777 E.01534
G1 X148.551 Y108.381 E.01535
G1 X148.907 Y108.046 E.01533
G1 X149.32 Y107.784 E.01534
G1 X149.842 Y107.573 E.01765
G1 X150.085 Y107.535 E.00771
M204 S1000
G1 X150.092 Y107.154 F10800
M204 S800
;TYPE:External perimeter
G1 F1200
G1 X150.132 Y107.145 E.00129
G1 X150.685 Y107.116 E.01736
G1 X151.244 Y107.205 E.01775
G1 X151.937 Y107.485 E.02344
G1 X152.402 Y107.809 E.01777
G1 X152.801 Y108.192 E.01734
G1 X153.119 Y108.66 E.01774
G1 X153.343 Y109.176 E.01764
G1 X153.465 Y109.725 E.01763
G1 X153.474 Y110.007 E.00885
G1 X153.483 Y110.288 E.00882
G1 X153.395 Y110.843 E.01762
G1 X153.115 Y111.537 E.02346
G1 X152.791 Y112.002 E.01777
G1 X152.408 Y112.401 E.01734
G1 X151.94 Y112.719 E.01774
G1 X151.424 Y112.943 E.01764
G1 X150.875 Y113.065 E.01763
G1 X150.312 Y113.083 E.01766
G1 X149.757 Y112.995 E.01762
G1 X149.228 Y112.805 E.01762
G1 X148.743 Y112.518 E.01767
G1 X148.321 Y112.146 E.01764
G1 X147.976 Y111.702 E.01763
G1 X147.721 Y111.2 E.01765
G1 X147.537 Y110.452 E.02415
G1 X147.516 Y109.915 E.01685
G1 X147.605 Y109.357 E.01772
G1 X147.795 Y108.827 E.01765
G1 X148.082 Y108.343 E.01764
G1 X148.454 Y107.921 E.01764
G1 X148.899 Y107.576 E.01765
G1 X149.578 Y107.262 E.02346
G1 X150.033 Y107.166 E.01458
M204 S1000
;WIPE_START
G1 F8640
G1 X150.092 Y107.154 E-.0139
G1 X150.132 Y107.145 E-.00947
G1 X150.685 Y107.116 E-.12786
G1 X151.244 Y107.205 E-.1307
G1 X151.937 Y107.485 E-.17258
G1 X152.402 Y107.809 E-.13086
G1 X152.801 Y108.192 E-.12771
G1 X153.013 Y108.503 E-.08692
;WIPE_END
G1 Z.6 F720
G1 X152.717 Y109.107 F10800
G1 Z.2 F720
G1 E.8 F2100
M204 S800
;TYPE:Solid infill
;WIDTH:0.421115
G1 F1200
G1 X152.063 Y108.453 E.02909
G1 X151.705 Y108.175 E.01425
G1 X151.48 Y108.051 E.00808
G1 X151.065 Y107.902 E.01387
G1 X150.961 Y107.885 E.00331
G1 X152.711 Y109.636 E.07785
G1 X152.752 Y109.816 E.00581
G1 X152.764 Y110.224 E.01284
G1 X150.373 Y107.833 E.10633
G1 X149.913 Y107.907 E.01465
G1 X152.691 Y110.685 E.12355
G1 X152.549 Y111.078 E.01314
G1 X149.529 Y108.059 E.13429
G1 X149.284 Y108.184 E.00865
G1 X149.191 Y108.256 E.0037
G1 X152.344 Y111.409 E.14022
G1 X152.104 Y111.703 E.01193
G1 X148.9 Y108.499 E.14249
G1 X148.664 Y108.766 E.01121
G1 X148.652 Y108.786 E.00073
G1 X151.809 Y111.942 E.14038
G1 X151.594 Y112.089 E.00819
G1 X151.472 Y112.141 E.00417
G1 X148.453 Y109.122 E.13426
G1 X148.31 Y109.513 E.01309
G1 X151.082 Y112.285 E.12328
G1 X150.784 Y112.351 E.0096
G1 X150.618 Y112.357 E.00522
G1 X148.233 Y109.971 E.10609
G1 X148.233 Y110.243 E.00855
G1 X148.279 Y110.552 E.00982
G1 X150.246 Y112.519 E.08748
M204 S1000
;WIPE_START
G1 F8640
G1 X148.279 Y110.552 E-.64232
G1 X148.233 Y110.243 E-.07214
G1 X148.233 Y109.971 E-.06281
G1 X148.303 Y110.041 E-.02273
;WIPE_END
G1 Z.6 F720
G1 X158.111 Y110.436 F10800
G1 Z.2 F720
G1 E.8 F2100
M204 S800
;TYPE:Perimeter
;WIDTH:0.419999
G1 F1200
G1 X158.095 Y109.936 E.01569
G1 X158.172 Y109.451 E.0154
G1 X158.341 Y108.98 E.01569
G1 X158.647 Y108.507 E.01766
G1 X159.029 Y108.094 E.01764
G1 X159.442 Y107.813 E.01566
G1 X159.893 Y107.617 E.01542
G1 X160.381 Y107.508 E.01568
G1 X161.018 Y107.508 E.01997
G1 X161.515 Y107.619 E.01597
G1 X161.936 Y107.805 E.01443
G1 X162.487 Y108.197 E.0212
G1 X162.812 Y108.565 E.01539
G1 X163.062 Y108.988 E.01541
G1 X163.231 Y109.459 E.01569
G1 X163.294 Y109.919 E.01456
G1 X163.305 Y110.264 E.01082
G1 X163.228 Y110.749 E.0154
G1 X163.062 Y111.211 E.01539
G1 X162.812 Y111.635 E.01543
G1 X162.481 Y112.009 E.01566
G1 X161.966 Y112.384 E.01997
G1 X161.507 Y112.583 E.01569
G1 X161.027 Y112.69 E.01542
G1 X160.536 Y112.705 E.0154
G1 X160.051 Y112.628 E.0154
G1 X159.589 Y112.462 E.01539
G1 X159.166 Y112.212 E.01541
G1 X158.797 Y111.887 E.01542
G1 X158.496 Y111.499 E.0154
G1 X158.269 Y111.053 E.01569
G1 X158.126 Y110.494 E.01809
M204 S1000
G1 X157.737 Y110.488 F10800
M204 S800
;TYPE:External perimeter
G1 F1200
G1 X157.735 Y110.478 E.00032
G1 X157.717 Y109.912 E.01776
G1 X157.805 Y109.356 E.01765
G1 X158.085 Y108.663 E.02344
G1 X158.409 Y108.198 E.01777
G1 X158.792 Y107.799 E.01734
G1 X159.26 Y107.481 E.01774
M73 Q2 S21
G1 X159.776 Y107.257 E.01764
G1 X160.126 Y107.179 E.01124
G1 X160.7 Y107.11 E.01813
G1 X161.274 Y107.179 E.01813
G1 X161.819 Y107.334 E.01777
G1 X162.299 Y107.574 E.01683
G1 X162.746 Y107.921 E.01774
G1 X163.118 Y108.343 E.01764
G1 X163.404 Y108.827 E.01763
G1 X163.596 Y109.359 E.01773
G1 X163.671 Y109.907 E.01734
M73 P2 R21
G1 X163.683 Y110.288 E.01195
G1 X163.595 Y110.843 E.01762
G1 X163.405 Y111.373 E.01765
G1 X163.118 Y111.857 E.01764
G1 X162.585 Y112.413 E.02415
G1 X162.143 Y112.718 E.01684
G1 X161.624 Y112.943 E.01774
G1 X161.075 Y113.065 E.01763
G1 X160.512 Y113.083 E.01766
G1 X159.957 Y112.995 E.01762
G1 X159.428 Y112.805 E.01762
G1 X158.943 Y112.518 E.01767
G1 X158.521 Y112.146 E.01764
G1 X158.176 Y111.702 E.01763
G1 X157.856 Y111.001 E.02416
G1 X157.751 Y110.546 E.01464
M204 S1000
;WIPE_START
G1 F8640
G1 X157.737 Y110.488 E-.01378
G1 X157.735 Y110.478 E-.00235
G1 X157.717 Y109.912 E-.13076
G1 X157.805 Y109.356 E-.12998
G1 X158.085 Y108.663 E-.17258
G1 X158.409 Y108.198 E-.13086
G1 X158.792 Y107.799 E-.12771
G1 X159.121 Y107.575 E-.09198
;WIPE_END
G1 Z.6 F720
G1 X163.122 Y109.849 F10800
G1 Z.2 F720
G1 E.8 F2100
M204 S800
;TYPE:Solid infill
;WIDTH:0.421006
G1 F1200
G1 X161.161 Y107.888 E.08719
G1 X160.97 Y107.845 E.00615
G1 X160.581 Y107.842 E.01223
G1 X162.964 Y110.226 E.10597
G1 X162.89 Y110.686 E.01465
G1 X160.119 Y107.915 E.1232
G1 X159.999 Y107.942 E.00387
G1 X159.728 Y108.059 E.00928
G1 X162.747 Y111.077 E.1342
G1 X162.548 Y111.413 E.01228
G1 X159.392 Y108.257 E.14032
G1 X159.242 Y108.359 E.0057
G1 X159.096 Y108.496 E.00629
G1 X162.301 Y111.701 E.14249
G1 X162.244 Y111.765 E.00269
G1 X162.016 Y111.95 E.00923
G1 X158.856 Y108.791 E.14047
G1 X158.775 Y108.895 E.00414
G1 X158.651 Y109.121 E.0081
G1 X161.672 Y112.141 E.13429
G1 X161.401 Y112.258 E.00928
G1 X161.281 Y112.285 E.00387
G1 X158.51 Y109.514 E.1232
G1 X158.436 Y109.974 E.01465
G1 X160.818 Y112.357 E.10593
G1 X160.558 Y112.365 E.00818
G1 X160.241 Y112.315 E.01009
G1 X158.278 Y110.351 E.0873
M204 S1000
;WIPE_START
G1 F8640
G1 X160.241 Y112.315 E-.64117
G1 X160.558 Y112.365 E-.0741
G1 X160.818 Y112.357 E-.06006
G1 X160.742 Y112.281 E-.02467
;WIPE_END
G1 Z.6 F720
G1 X160.806 Y117.714 F10800
G1 Z.2 F720
G1 E.8 F2100
M204 S800
;TYPE:Perimeter
;WIDTH:0.419999
G1 F1200
G1 X161.107 Y117.733 E.00946
G1 X161.581 Y117.855 E.01535
G1 X162.023 Y118.063 E.01532
G1 X162.418 Y118.351 E.01533
G1 X162.753 Y118.707 E.01533
G1 X163.016 Y119.12 E.01535
G1 X163.23 Y119.65 E.01792
G1 X163.295 Y120.141 E.01553
G1 X163.267 Y120.707 E.01777
G1 X163.145 Y121.18 E.01532
G1 X162.937 Y121.623 E.01534
G1 X162.649 Y122.019 E.01535
G1 X162.293 Y122.354 E.01533
G1 X161.88 Y122.616 E.01534
G1 X161.349 Y122.83 E.01795
G1 X160.782 Y122.897 E.0179
G1 X160.293 Y122.867 E.01536
G1 X159.82 Y122.745 E.01532
G1 X159.377 Y122.537 E.01534
G1 X158.981 Y122.249 E.01535
G1 X158.647 Y121.893 E.01531
G1 X158.385 Y121.48 E.01534
G1 X158.17 Y120.95 E.01793
G1 X158.103 Y120.382 E.01793
G1 X158.133 Y119.893 E.01536
G1 X158.255 Y119.42 E.01532
G1 X158.463 Y118.977 E.01534
G1 X158.751 Y118.582 E.01533
G1 X159.107 Y118.247 E.01533
G1 X159.588 Y117.937 E.01794
G1 X160.133 Y117.764 E.01793
G1 X160.618 Y117.703 E.01533
G1 X160.747 Y117.711 E.00405
M204 S1000
G1 X160.842 Y117.318 F10800
M204 S800
;TYPE:External perimeter
G1 F1200
G1 X160.888 Y117.317 E.00144
G1 X161.444 Y117.405 E.01765
G1 X161.973 Y117.596 E.01763
G1 X162.457 Y117.882 E.01763
G1 X162.879 Y118.254 E.01764
G1 X163.224 Y118.699 E.01765
G1 X163.387 Y119.018 E.01123
G1 X163.596 Y119.557 E.01813
G1 X163.672 Y120.129 E.01809
G1 X163.683 Y120.488 E.01126
G1 X163.595 Y121.043 E.01762
G1 X163.405 Y121.573 E.01765
G1 X163.118 Y122.057 E.01764
G1 X162.746 Y122.479 E.01764
G1 X162.301 Y122.824 E.01765
G1 X161.601 Y123.144 E.02413
G1 X161.078 Y123.265 E.01683
G1 X160.512 Y123.283 E.01776
G1 X159.957 Y123.195 E.01762
G1 X159.428 Y123.005 E.01762
G1 X158.943 Y122.718 E.01767
G1 X158.521 Y122.346 E.01764
G1 X158.176 Y121.902 E.01763
G1 X157.856 Y121.201 E.02416
G1 X157.735 Y120.678 E.01683
G1 X157.717 Y120.112 E.01776
G1 X157.805 Y119.557 E.01762
G1 X157.995 Y119.028 E.01762
G1 X158.282 Y118.543 E.01767
G1 X158.654 Y118.121 E.01764
G1 X159.282 Y117.675 E.02415
G1 X159.773 Y117.458 E.01683
G1 X160.325 Y117.335 E.01773
G1 X160.782 Y117.32 E.01434
M204 S1000
;WIPE_START
G1 F8640
G1 X160.842 Y117.318 E-.01386
G1 X160.888 Y117.317 E-.01062
G1 X161.444 Y117.405 E-.12998
G1 X161.973 Y117.596 E-.12987
G1 X162.457 Y117.882 E-.12981
G1 X162.879 Y118.254 E-.1299
G1 X163.224 Y118.699 E-.13001
G1 X163.387 Y119.018 E-.08272
G1 X163.455 Y119.192 E-.04323
;WIPE_END
G1 Z.6 F720
G1 X163.122 Y120.049 F10800
G1 Z.2 F720
G1 E.8 F2100
M204 S800
;TYPE:Solid infill
;WIDTH:0.421007
G1 F1200
G1 X161.159 Y118.085 E.0873
G1 X160.843 Y118.035 E.01006
G1 X160.582 Y118.043 E.00821
G1 X162.964 Y120.426 E.10593
G1 X162.89 Y120.886 E.01465
G1 X160.119 Y118.115 E.1232
G1 X159.985 Y118.145 E.00432
G1 X159.721 Y118.251 E.00894
G1 X162.747 Y121.277 E.13454
G1 X162.548 Y121.613 E.01228
G1 X159.391 Y118.456 E.14036
G1 X159.099 Y118.699 E.01194
G1 X162.301 Y121.901 E.14236
G1 X162.253 Y121.954 E.00225
G1 X162.009 Y122.144 E.00972
G1 X158.852 Y118.987 E.14036
G1 X158.653 Y119.323 E.01228
G1 X161.671 Y122.341 E.13418
G1 X161.523 Y122.417 E.00523
G1 X161.288 Y122.493 E.00776
G1 X158.51 Y119.714 E.12353
G1 X158.436 Y120.174 E.01465
G1 X160.818 Y122.557 E.10593
G1 X160.558 Y122.565 E.00818
G1 X160.241 Y122.515 E.01009
G1 X158.278 Y120.551 E.0873
M204 S1000
;WIPE_START
G1 F8640
G1 X160.241 Y122.515 E-.64117
G1 X160.558 Y122.565 E-.0741
G1 X160.818 Y122.557 E-.06006
G1 X160.742 Y122.481 E-.02467
;WIPE_END
G1 Z.6 F720
G1 X153.093 Y120.283 F10800
G1 Z.2 F720
G1 E.8 F2100
M204 S800
;TYPE:Perimeter
;WIDTH:0.419999
G1 F1200
G1 X153.067 Y120.706 E.01329
G1 X152.945 Y121.18 E.01535
G1 X152.737 Y121.623 E.01534
G1 X152.449 Y122.019 E.01535
G1 X152.093 Y122.354 E.01533
G1 X151.68 Y122.616 E.01534
G1 X151.149 Y122.83 E.01795
G1 X150.582 Y122.897 E.0179
G1 X150.093 Y122.867 E.01536
G1 X149.62 Y122.745 E.01532
G1 X149.177 Y122.537 E.01534
G1 X148.712 Y122.204 E.01793
G1 X148.351 Y121.761 E.01792
G1 X148.115 Y121.332 E.01535
G1 X147.964 Y120.867 E.01533
G1 X147.903 Y120.382 E.01533
G1 X147.933 Y119.894 E.01533
G1 X148.055 Y119.42 E.01535
G1 X148.263 Y118.977 E.01534
G1 X148.551 Y118.581 E.01535
G1 X148.907 Y118.246 E.01533
G1 X149.32 Y117.984 E.01534
G1 X149.842 Y117.773 E.01765
G1 X150.345 Y117.693 E.01597
G1 X150.907 Y117.733 E.01767
G1 X151.381 Y117.855 E.01535
G1 X151.892 Y118.091 E.01765
G1 X152.294 Y118.402 E.01594
G1 X152.649 Y118.839 E.01765
G1 X152.885 Y119.268 E.01535
G1 X153.036 Y119.733 E.01533
G1 X153.097 Y120.218 E.01533
G1 X153.097 Y120.223 E.00016
M204 S1000
G1 X153.478 Y120.318 F10800
M204 S800
;TYPE:External perimeter
G1 F1200
G1 X153.483 Y120.488 E.00533
G1 X153.395 Y121.043 E.01762
G1 X153.205 Y121.573 E.01765
G1 X152.918 Y122.057 E.01764
G1 X152.546 Y122.479 E.01764
G1 X152.101 Y122.824 E.01765
G1 X151.401 Y123.144 E.02413
G1 X150.878 Y123.265 E.01683
G1 X150.312 Y123.283 E.01776
G1 X149.757 Y123.195 E.01762
G1 X149.227 Y123.005 E.01765
G1 X148.581 Y122.585 E.02416
G1 X148.199 Y122.208 E.01683
G1 X147.881 Y121.74 E.01774
G1 X147.657 Y121.224 E.01764
G1 X147.535 Y120.675 E.01763
G1 X147.517 Y120.112 E.01766
G1 X147.605 Y119.557 E.01762
G1 X147.795 Y119.027 E.01765
G1 X148.082 Y118.543 E.01764
G1 X148.454 Y118.121 E.01764
G1 X148.899 Y117.776 E.01765
G1 X149.578 Y117.462 E.02346
G1 X150.132 Y117.345 E.01775
G1 X150.685 Y117.316 E.01736
G1 X151.244 Y117.405 E.01775
G1 X151.937 Y117.685 E.02344
G1 X152.402 Y118.009 E.01777
G1 X152.801 Y118.392 E.01734
G1 X153.119 Y118.86 E.01774
G1 X153.343 Y119.376 E.01764
G1 X153.465 Y119.925 E.01763
G1 X153.474 Y120.207 E.00885
G1 X153.476 Y120.258 E.0016
M204 S1000
;WIPE_START
G1 F8640
G1 X153.478 Y120.318 E-.01386
G1 X153.483 Y120.488 E-.03927
G1 X153.395 Y121.043 E-.12975
G1 X153.205 Y121.573 E-.13
G1 X152.918 Y122.057 E-.12993
G1 X152.546 Y122.479 E-.1299
