; generated by PrusaSlicer 2.6.0+win64 on 2023-12-01 at 17:35:32 UTC


;
;
; 

; external perimeters extrusion width = 0.45mm
; perimeters extrusion width = 0.45mm
; infill extrusion width = 0.45mm
; solid infill extrusion width = 0.45mm
; top infill extrusion width = 0.40mm
; first layer extrusion width = 0.42mm

M73 P0 R59
M73 Q0 S60
M201 X1000 Y1000 Z200 E5000 ; sets maximum accelerations, mm/sec^2
M203 X200 Y200 Z12 E120 ; sets maximum feedrates, mm / sec
M204 S1250 T1250 ; sets acceleration (S) and retract acceleration (R), mm/sec^2
M205 X8.00 Y8.00 Z0.40 E4.50 ; sets the jerk limits, mm/sec
M205 S0 T0 ; sets the minimum extruding and travel feed rate, mm/sec
;TYPE:Custom
M862.3 P "MK3S" ; printer model check
M862.1 P0.4 ; nozzle diameter check
G90 ; use absolute coordinates
M83 ; extruder relative mode
M104 S215 ; set extruder temp
M140 S60 ; set bed temp
M190 S60 ; wait for bed temp
M109 S215 ; wait for extruder temp
G28 W ; home all without mesh bed level
G80 ; mesh bed leveling

G1 Z0.2 F720
G1 Y-3 F1000 ; go outside print area
G92 E0
G1 X60 E9 F1000 ; intro line
G1 X100 E12.5 F1000 ; intro line

G92 E0
M221 S95

; Don't change E values below. Excessive value can damage the printer.
M907 E430 ; set extruder motor current
G21 ; set units to millimeters
G90 ; use absolute coordinates
M83 ; use relative distances for extrusion
M900 K0.05 ; Filament gcode LA 1.5
M900 K30 ; Filament gcode LA 1.0
M107
;LAYER_CHANGE
;Z:0.2
;HEIGHT:0.2
;BEFORE_LAYER_CHANGE
G92 E0.0
;0.2


G1 E-.8 F2100
G1 Z.4 F720
;AFTER_LAYER_CHANGE
;0.2
G1 X84.215 Y84.15 F10800
G1 Z.2 F720
G1 E.8 F2100
M204 S800
;TYPE:Skirt/Brim
;WIDTH:0.42
G1 F1200
G1 X85.26 Y83.274 E.04275
G1 X86.2 Y83.08 E.03009
G1 X163.8 Y83.08 E2.43309
G1 X165.107 Y83.472 E.04278
G1 X165.983 Y84.517 E.04275
G1 X166.177 Y85.457 E.03009
G1 X166.177 Y124.543 E1.22551
G1 X165.785 Y125.85 E.04278
G1 X164.74 Y126.726 E.04275
G1 X163.8 Y126.92 E.03009
G1 X86.2 Y126.92 E2.43309
G1 X84.893 Y126.528 E.04278
M73 Q0 S59
G1 X84.017 Y125.483 E.04275
G1 X83.823 Y124.543 E.03009
G1 X83.823 Y85.457 E1.22551
G1 X84.197 Y84.208 E.04088
M204 S1000
; printing object CameraHolder_LedCap.stl id:0 copy 0
;WIPE_START
G1 F8640
G1 X85.26 Y83.274 E-.32674
G1 X86.2 Y83.08 E-.22162
G1 X87.29 Y83.08 E-.25164
;WIPE_END
G1 Z.6 F720
G1 X158.61 Y92.724 F10800
G1 Z.2 F720
G1 E.8 F2100
M204 S800
;TYPE:External perimeter
G1 F1200
G1 X163.39 Y92.724 E.14987
G1 X163.39 Y96.704 E.12479
G1 X158.61 Y96.704 E.14987
G1 X158.61 Y92.784 E.12291
M204 S1000
G1 E-.8 F2100
G1 Z.6 F720
G1 X162.442 Y92.894 F10800
G1 Z.2 F720
G1 E.8 F2100
M204 S800
;TYPE:Solid infill
;WIDTH:0.427431
G1 F1200
G1 X163.051 Y93.502 E.02751
G1 X163.051 Y94.046 E.01739
G1 X162.068 Y93.064 E.04442
G1 X161.524 Y93.064 E.01739
G1 X163.051 Y94.59 E.06902
G1 X163.051 Y95.134 E.01739
G1 X160.981 Y93.064 E.0936
G1 X160.437 Y93.064 E.01739
G1 X163.051 Y95.677 E.11817
G1 X163.051 Y96.221 E.01739
G1 X159.893 Y93.064 E.14277
G1 X159.349 Y93.064 E.01739
G1 X162.651 Y96.365 E.14928
G1 X162.107 Y96.365 E.01739
G1 X158.949 Y93.207 E.14279
G1 X158.949 Y93.751 E.01739
G1 X161.563 Y96.365 E.11819
G1 X161.019 Y96.365 E.01739
G1 X158.949 Y94.295 E.0936
G1 X158.949 Y94.839 E.01739
G1 X160.475 Y96.365 E.069
G1 X159.932 Y96.365 E.01736
G1 X158.949 Y95.383 E.04442
G1 X158.949 Y95.926 E.01736
G1 X159.558 Y96.535 E.02754
M204 S1000
;WIPE_START
G1 F8640
G1 X158.949 Y95.926 E-.19887
G1 X158.949 Y95.383 E-.12538
G1 X159.932 Y96.365 E-.32083
G1 X160.475 Y96.365 E-.12538
G1 X160.385 Y96.275 E-.02954
;WIPE_END
G1 Z.6 F720
G1 X160.385 Y96.549 F10800
G1 X159.447 Y92.88
G1 X158.766 Y89.691
G1 X158.61 Y89.847
G1 Z.2 F720
G1 E.8 F2100
M204 S800
;TYPE:External perimeter
;WIDTH:0.42
G1 F1200
G1 X158.61 Y85.867 E.12479
G1 X163.39 Y85.867 E.14987
G1 X163.39 Y89.847 E.12479
G1 X158.67 Y89.847 E.14799
M204 S1000
G1 E-.8 F2100
G1 Z.6 F720
G1 X162.442 Y86.037 F10800
G1 Z.2 F720
G1 E.8 F2100
M204 S800
;TYPE:Solid infill
;WIDTH:0.427431
G1 F1200
G1 X163.051 Y86.645 E.02751
G1 X163.051 Y87.189 E.01739
G1 X162.068 Y86.207 E.04442
G1 X161.524 Y86.207 E.01739
G1 X163.051 Y87.733 E.06902
G1 X163.051 Y88.277 E.01739
G1 X160.981 Y86.207 E.0936
G1 X160.437 Y86.207 E.01739
G1 X163.051 Y88.82 E.11817
G1 X163.051 Y89.364 E.01739
G1 X159.893 Y86.207 E.14277
G1 X159.349 Y86.207 E.01739
G1 X162.651 Y89.508 E.14928
G1 X162.107 Y89.508 E.01739
G1 X158.949 Y86.35 E.14279
G1 X158.949 Y86.894 E.01739
G1 X161.563 Y89.508 E.11819
G1 X161.019 Y89.508 E.01739
G1 X158.949 Y87.438 E.0936
G1 X158.949 Y87.982 E.01739
G1 X160.475 Y89.508 E.069
G1 X159.932 Y89.508 E.01736
G1 X158.949 Y88.525 E.04445
G1 X158.949 Y89.069 E.01739
G1 X159.558 Y89.677 E.02751
M204 S1000
;WIPE_START
G1 F8640
G1 X158.949 Y89.069 E-.1987
G1 X158.949 Y88.525 E-.12561
G1 X159.932 Y89.508 E-.32099
G1 X160.475 Y89.508 E-.12538
G1 X160.385 Y89.418 E-.02932
;WIPE_END
G1 Z.6 F720
G1 X160.385 Y89.691 F10800
G1 X158.766 Y89.557
G1 X155.234 Y89.692
G1 X155.39 Y89.847
G1 Z.2 F720
G1 E.8 F2100
M204 S800
;TYPE:External perimeter
;WIDTH:0.42
G1 F1200
G1 X150.61 Y89.847 E.14987
G1 X150.61 Y85.867 E.12479
G1 X155.39 Y85.867 E.14987
G1 X155.39 Y89.787 E.12291
M204 S1000
G1 E-.8 F2100
G1 Z.6 F720
G1 X154.442 Y86.037 F10800
G1 Z.2 F720
G1 E.8 F2100
M204 S800
;TYPE:Solid infill
;WIDTH:0.427431
G1 F1200
G1 X155.051 Y86.645 E.02751
G1 X155.051 Y87.189 E.01739
G1 X154.068 Y86.207 E.04442
G1 X153.524 Y86.207 E.01739
G1 X155.051 Y87.733 E.06902
G1 X155.051 Y88.277 E.01739
G1 X152.981 Y86.207 E.0936
G1 X152.437 Y86.207 E.01739
G1 X155.051 Y88.82 E.11817
G1 X155.051 Y89.364 E.01739
G1 X151.893 Y86.207 E.14277
G1 X151.349 Y86.207 E.01739
G1 X154.651 Y89.508 E.14928
G1 X154.107 Y89.508 E.01739
G1 X150.949 Y86.35 E.14279
G1 X150.949 Y86.894 E.01739
G1 X153.563 Y89.508 E.11819
G1 X153.019 Y89.508 E.01739
G1 X150.949 Y87.438 E.0936
G1 X150.949 Y87.982 E.01739
G1 X152.475 Y89.508 E.069
G1 X151.932 Y89.508 E.01736
G1 X150.949 Y88.525 E.04445
G1 X150.949 Y89.069 E.01739
G1 X151.558 Y89.677 E.02751
M204 S1000
;WIPE_START
G1 F8640
G1 X150.949 Y89.069 E-.1987
G1 X150.949 Y88.525 E-.12561
G1 X151.932 Y89.508 E-.32099
G1 X152.475 Y89.508 E-.12538
G1 X152.385 Y89.418 E-.02932
;WIPE_END
G1 Z.6 F720
G1 X152.385 Y89.691 F10800
G1 X153.813 Y92.88
G1 X155.234 Y92.88
G1 X155.234 Y96.549
G1 X155.39 Y96.704
G1 Z.2 F720
G1 E.8 F2100
M204 S800
;TYPE:External perimeter
;WIDTH:0.42
G1 F1200
G1 X150.61 Y96.704 E.14987
G1 X150.61 Y92.724 E.12479
G1 X155.39 Y92.724 E.14987
G1 X155.39 Y96.644 E.12291
M204 S1000
G1 E-.8 F2100
G1 Z.6 F720
G1 X154.442 Y92.894 F10800
G1 Z.2 F720
G1 E.8 F2100
M204 S800
;TYPE:Solid infill
;WIDTH:0.427431
G1 F1200
G1 X155.051 Y93.502 E.02751
G1 X155.051 Y94.046 E.01739
G1 X154.068 Y93.064 E.04442
G1 X153.524 Y93.064 E.01739
G1 X155.051 Y94.59 E.06902
G1 X155.051 Y95.134 E.01739
G1 X152.981 Y93.064 E.0936
G1 X152.437 Y93.064 E.01739
G1 X155.051 Y95.677 E.11817
G1 X155.051 Y96.221 E.01739
G1 X151.893 Y93.064 E.14277
G1 X151.349 Y93.064 E.01739
G1 X154.651 Y96.365 E.14928
G1 X154.107 Y96.365 E.01739
G1 X150.949 Y93.207 E.14279
G1 X150.949 Y93.751 E.01739
G1 X153.563 Y96.365 E.11819
M73 Q1 S59
G1 X153.019 Y96.365 E.01739
G1 X150.949 Y94.295 E.0936
G1 X150.949 Y94.839 E.01739
M73 P1 R59
G1 X152.475 Y96.365 E.069
G1 X151.932 Y96.365 E.01736
G1 X150.949 Y95.383 E.04442
G1 X150.949 Y95.926 E.01736
G1 X151.558 Y96.535 E.02754
M204 S1000
;WIPE_START
G1 F8640
G1 X150.949 Y95.926 E-.19887
G1 X150.949 Y95.383 E-.12538
G1 X151.932 Y96.365 E-.32083
G1 X152.475 Y96.365 E-.12538
G1 X152.385 Y96.275 E-.02954
;WIPE_END
G1 Z.6 F720
G1 X152.385 Y96.549 F10800
G1 X150.766 Y95.124
G1 X147.234 Y92.88
G1 X147.39 Y92.724
G1 Z.2 F720
G1 E.8 F2100
M204 S800
;TYPE:External perimeter
;WIDTH:0.42
G1 F1200
G1 X147.39 Y96.704 E.12479
G1 X142.61 Y96.704 E.14987
G1 X142.61 Y92.724 E.12479
G1 X147.33 Y92.724 E.14799
M204 S1000
G1 X147.22 Y93.672 F10800
M204 S800
;TYPE:Solid infill
;WIDTH:0.427431
G1 F1200
G1 X146.612 Y93.064 E.02749
G1 X146.068 Y93.064 E.01739
G1 X147.051 Y94.046 E.04442
G1 X147.051 Y94.59 E.01739
G1 X145.524 Y93.064 E.06902
G1 X144.981 Y93.064 E.01736
G1 X147.051 Y95.134 E.0936
G1 X147.051 Y95.677 E.01736
G1 X144.437 Y93.064 E.11817
G1 X143.893 Y93.064 E.01739
G1 X147.051 Y96.221 E.14277
G1 X147.051 Y96.365 E.0046
G1 X146.651 Y96.365 E.01279
G1 X143.349 Y93.064 E.14928
G1 X142.949 Y93.064 E.01279
G1 X142.949 Y93.207 E.00457
G1 X146.107 Y96.365 E.14279
G1 X145.563 Y96.365 E.01739
G1 X142.949 Y93.751 E.11819
G1 X142.949 Y94.295 E.01739
G1 X145.019 Y96.365 E.0936
G1 X144.475 Y96.365 E.01739
G1 X142.949 Y94.839 E.069
G1 X142.949 Y95.383 E.01739
G1 X143.932 Y96.365 E.04442
G1 X143.388 Y96.365 E.01739
G1 X142.78 Y95.757 E.02749
M204 S1000
;WIPE_START
G1 F8640
G1 X143.388 Y96.365 E-.19854
G1 X143.932 Y96.365 E-.12561
G1 X142.949 Y95.383 E-.32083
G1 X142.949 Y94.839 E-.12561
G1 X143.039 Y94.929 E-.02941
;WIPE_END
G1 Z.6 F720
G1 X142.766 Y94.929 F10800
G1 X142.866 Y92.88
G1 X142.766 Y89.691
G1 X142.61 Y89.847
G1 Z.2 F720
G1 E.8 F2100
M204 S800
;TYPE:External perimeter
;WIDTH:0.42
G1 F1200
G1 X142.61 Y85.867 E.12479
G1 X147.39 Y85.867 E.14987
G1 X147.39 Y89.847 E.12479
G1 X142.67 Y89.847 E.14799
M204 S1000
G1 E-.8 F2100
G1 Z.6 F720
G1 X147.22 Y86.815 F10800
G1 Z.2 F720
G1 E.8 F2100
M204 S800
;TYPE:Solid infill
;WIDTH:0.427431
G1 F1200
G1 X146.612 Y86.207 E.02749
G1 X146.068 Y86.207 E.01739
G1 X147.051 Y87.189 E.04442
G1 X147.051 Y87.733 E.01739
G1 X145.524 Y86.207 E.06902
G1 X144.981 Y86.207 E.01736
G1 X147.051 Y88.277 E.0936
G1 X147.051 Y88.82 E.01736
G1 X144.437 Y86.207 E.11817
G1 X143.893 Y86.207 E.01739
G1 X147.051 Y89.364 E.14277
G1 X147.051 Y89.508 E.0046
G1 X146.651 Y89.508 E.01279
G1 X143.349 Y86.207 E.14928
G1 X142.949 Y86.207 E.01279
G1 X142.949 Y86.35 E.00457
G1 X146.107 Y89.508 E.14279
G1 X145.563 Y89.508 E.01739
G1 X142.949 Y86.894 E.11819
G1 X142.949 Y87.438 E.01739
G1 X145.019 Y89.508 E.0936
G1 X144.475 Y89.508 E.01739
G1 X142.949 Y87.982 E.069
G1 X142.949 Y88.525 E.01736
G1 X143.932 Y89.508 E.04445
G1 X143.388 Y89.508 E.01739
G1 X142.78 Y88.9 E.02749
M204 S1000
;WIPE_START
G1 F8640
G1 X143.388 Y89.508 E-.19854
G1 X143.932 Y89.508 E-.12561
G1 X142.949 Y88.525 E-.32099
G1 X142.949 Y87.982 E-.12538
G1 X143.039 Y88.072 E-.02948
;WIPE_END
G1 Z.6 F720
G1 X142.766 Y88.072 F10800
G1 X139.234 Y89.692
G1 X139.39 Y89.847
G1 Z.2 F720
G1 E.8 F2100
M204 S800
;TYPE:External perimeter
;WIDTH:0.42
G1 F1200
G1 X134.61 Y89.847 E.14987
G1 X134.61 Y85.867 E.12479
G1 X139.39 Y85.867 E.14987
G1 X139.39 Y89.787 E.12291
M204 S1000
M73 P1 R58
G1 E-.8 F2100
G1 Z.6 F720
G1 X138.442 Y86.037 F10800
G1 Z.2 F720
G1 E.8 F2100
M204 S800
;TYPE:Solid infill
;WIDTH:0.42743
G1 F1200
G1 X139.051 Y86.645 E.02751
G1 X139.051 Y87.189 E.01739
G1 X138.068 Y86.207 E.04442
G1 X137.524 Y86.207 E.01739
G1 X139.051 Y87.733 E.06902
G1 X139.051 Y88.277 E.01739
G1 X136.981 Y86.207 E.0936
G1 X136.437 Y86.207 E.01739
G1 X139.051 Y88.82 E.11817
G1 X139.051 Y89.364 E.01739
G1 X135.893 Y86.207 E.14277
G1 X135.349 Y86.207 E.01739
G1 X138.651 Y89.508 E.14928
G1 X138.107 Y89.508 E.01739
G1 X134.949 Y86.35 E.14279
G1 X134.949 Y86.894 E.01739
G1 X137.563 Y89.508 E.11819
G1 X137.019 Y89.508 E.01739
G1 X134.949 Y87.438 E.0936
G1 X134.949 Y87.982 E.01739
G1 X136.475 Y89.508 E.069
G1 X135.932 Y89.508 E.01736
G1 X134.949 Y88.525 E.04445
G1 X134.949 Y89.069 E.01739
G1 X135.558 Y89.677 E.02751
M204 S1000
;WIPE_START
G1 F8640
G1 X134.949 Y89.069 E-.1987
G1 X134.949 Y88.525 E-.12561
G1 X135.932 Y89.508 E-.32099
G1 X136.475 Y89.508 E-.12538
G1 X136.385 Y89.418 E-.02932
;WIPE_END
G1 Z.6 F720
G1 X136.385 Y89.691 F10800
G1 X139.234 Y92.88
G1 X139.39 Y92.724
G1 Z.2 F720
G1 E.8 F2100
M204 S800
;TYPE:External perimeter
;WIDTH:0.42
G1 F1200
G1 X139.39 Y96.704 E.12479
G1 X134.61 Y96.704 E.14987
G1 X134.61 Y92.724 E.12479
G1 X139.33 Y92.724 E.14799
M204 S1000
G1 X138.442 Y92.894 F10800
M204 S800
;TYPE:Solid infill
;WIDTH:0.427431
G1 F1200
G1 X139.051 Y93.502 E.02751
G1 X139.051 Y94.046 E.01739
G1 X138.068 Y93.064 E.04442
G1 X137.524 Y93.064 E.01739
G1 X139.051 Y94.59 E.06902
G1 X139.051 Y95.134 E.01739
G1 X136.981 Y93.064 E.0936
G1 X136.437 Y93.064 E.01739
G1 X139.051 Y95.677 E.11817
G1 X139.051 Y96.221 E.01739
G1 X135.893 Y93.064 E.14277
G1 X135.349 Y93.064 E.01739
G1 X138.651 Y96.365 E.14928
G1 X138.107 Y96.365 E.01739
G1 X134.949 Y93.207 E.14279
G1 X134.949 Y93.751 E.01739
G1 X137.563 Y96.365 E.11819
G1 X137.019 Y96.365 E.01739
G1 X134.949 Y94.295 E.0936
G1 X134.949 Y94.839 E.01739
G1 X136.475 Y96.365 E.069
G1 X135.932 Y96.365 E.01736
G1 X134.949 Y95.383 E.04442
G1 X134.949 Y95.926 E.01736
G1 X135.558 Y96.535 E.02754
M204 S1000
;WIPE_START
G1 F8640
G1 X134.949 Y95.926 E-.19887
G1 X134.949 Y95.383 E-.12538
G1 X135.932 Y96.365 E-.32083
G1 X136.475 Y96.365 E-.12538
G1 X136.385 Y96.275 E-.02954
;WIPE_END
G1 Z.6 F720
G1 X136.385 Y96.549 F10800
G1 X134.766 Y95.687
G1 X131.234 Y94.404
G1 X126.766 Y92.88
G1 X126.766 Y92.88
G1 X126.61 Y92.724
G1 Z.2 F720
G1 E.8 F2100
M204 S800
;TYPE:External perimeter
;WIDTH:0.42
G1 F1200
G1 X131.39 Y92.724 E.14987
G1 X131.39 Y96.704 E.12479
G1 X126.61 Y96.704 E.14987
G1 X126.61 Y92.784 E.12291
M204 S1000
G1 E-.8 F2100
G1 Z.6 F720
G1 X131.22 Y93.672 F10800
G1 Z.2 F720
G1 E.8 F2100
M204 S800
;TYPE:Solid infill
;WIDTH:0.427431
G1 F1200
G1 X130.612 Y93.064 E.02749
G1 X130.068 Y93.064 E.01739
G1 X131.051 Y94.046 E.04442
G1 X131.051 Y94.59 E.01739
G1 X129.524 Y93.064 E.06902
G1 X128.981 Y93.064 E.01736
G1 X131.051 Y95.134 E.0936
G1 X131.051 Y95.677 E.01736
G1 X128.437 Y93.064 E.11817
G1 X127.893 Y93.064 E.01739
G1 X131.051 Y96.221 E.14277
G1 X131.051 Y96.365 E.0046
G1 X130.651 Y96.365 E.01279
G1 X127.349 Y93.064 E.14928
G1 X126.949 Y93.064 E.01279
G1 X126.949 Y93.207 E.00457
G1 X130.107 Y96.365 E.14279
G1 X129.563 Y96.365 E.01739
G1 X126.949 Y93.751 E.11819
G1 X126.949 Y94.295 E.01739
G1 X129.019 Y96.365 E.0936
G1 X128.475 Y96.365 E.01739
G1 X126.949 Y94.839 E.069
G1 X126.949 Y95.383 E.01739
G1 X127.932 Y96.365 E.04442
G1 X127.388 Y96.365 E.01739
G1 X126.78 Y95.757 E.02749
M204 S1000
;WIPE_START
G1 F8640
G1 X127.388 Y96.365 E-.19854
G1 X127.932 Y96.365 E-.12561
G1 X126.949 Y95.383 E-.32083
G1 X126.949 Y94.839 E-.12561
G1 X127.039 Y94.929 E-.02941
;WIPE_END
G1 Z.6 F720
G1 X126.766 Y94.929 F10800
G1 X128.793 Y92.88
G1 X131.234 Y89.692
G1 X131.39 Y89.847
G1 Z.2 F720
G1 E.8 F2100
M204 S800
;TYPE:External perimeter
;WIDTH:0.42
G1 F1200
G1 X126.61 Y89.847 E.14987
G1 X126.61 Y85.867 E.12479
G1 X131.39 Y85.867 E.14987
G1 X131.39 Y89.787 E.12291
M204 S1000
G1 E-.8 F2100
G1 Z.6 F720
G1 X130.442 Y86.037 F10800
G1 Z.2 F720
G1 E.8 F2100
M204 S800
;TYPE:Solid infill
;WIDTH:0.427431
G1 F1200
G1 X131.051 Y86.645 E.02751
G1 X131.051 Y87.189 E.01739
G1 X130.068 Y86.207 E.04442
G1 X129.524 Y86.207 E.01739
G1 X131.051 Y87.733 E.06902
G1 X131.051 Y88.277 E.01739
G1 X128.981 Y86.207 E.0936
G1 X128.437 Y86.207 E.01739
G1 X131.051 Y88.82 E.11817
G1 X131.051 Y89.364 E.01739
G1 X127.893 Y86.207 E.14277
G1 X127.349 Y86.207 E.01739
G1 X130.651 Y89.508 E.14928
G1 X130.107 Y89.508 E.01739
G1 X126.949 Y86.35 E.14279
G1 X126.949 Y86.894 E.01739
G1 X129.563 Y89.508 E.11819
G1 X129.019 Y89.508 E.01739
G1 X126.949 Y87.438 E.0936
G1 X126.949 Y87.982 E.01739
G1 X128.475 Y89.508 E.069
G1 X127.932 Y89.508 E.01736
G1 X126.949 Y88.525 E.04445
G1 X126.949 Y89.069 E.01739
G1 X127.558 Y89.677 E.02751
M204 S1000
;WIPE_START
G1 F8640
G1 X126.949 Y89.069 E-.1987
G1 X126.949 Y88.525 E-.12561
G1 X127.932 Y89.508 E-.32099
G1 X128.475 Y89.508 E-.12538
G1 X128.385 Y89.418 E-.02932
;WIPE_END
G1 Z.6 F720
G1 X128.385 Y89.691 F10800
G1 X123.234 Y93.257
G1 X118.766 Y96.549
G1 X118.766 Y96.549
G1 X118.61 Y96.704
G1 Z.2 F720
G1 E.8 F2100
M204 S800
;TYPE:External perimeter
;WIDTH:0.42
G1 F1200
G1 X118.61 Y92.724 E.12479
G1 X123.39 Y92.724 E.14987
G1 X123.39 Y96.704 E.12479
G1 X118.67 Y96.704 E.14799
M204 S1000
G1 E-.8 F2100
G1 Z.6 F720
G1 X122.442 Y92.894 F10800
G1 Z.2 F720
G1 E.8 F2100
M204 S800
;TYPE:Solid infill
;WIDTH:0.427431
G1 F1200
G1 X123.051 Y93.502 E.02751
G1 X123.051 Y94.046 E.01739
G1 X122.068 Y93.064 E.04442
G1 X121.524 Y93.064 E.01739
G1 X123.051 Y94.59 E.06902
