; generated by PrusaSlicer 2.6.0+win64 on 2023-12-01 at 17:16:04 UTC


;
;
; 

; external perimeters extrusion width = 0.45mm
; perimeters extrusion width = 0.45mm
; infill extrusion width = 0.45mm
; solid infill extrusion width = 0.45mm
; top infill extrusion width = 0.40mm
; first layer extrusion width = 0.42mm

M73 P0 R2
M73 Q0 S2
M201 X1000 Y1000 Z200 E5000 ; sets maximum accelerations, mm/sec^2
M203 X200 Y200 Z12 E120 ; sets maximum feedrates, mm / sec
M204 S1250 T1250 ; sets acceleration (S) and retract acceleration (R), mm/sec^2
M205 X8.00 Y8.00 Z0.40 E4.50 ; sets the jerk limits, mm/sec
M205 S0 T0 ; sets the minimum extruding and travel feed rate, mm/sec
;TYPE:Custom
M862.3 P "MK3S" ; printer model check
M862.1 P0.4 ; nozzle diameter check
G90 ; use absolute coordinates
M83 ; extruder relative mode
M104 S215 ; set extruder temp
M140 S60 ; set bed temp
M190 S60 ; wait for bed temp
M109 S215 ; wait for extruder temp
G28 W ; home all without mesh bed level
G80 ; mesh bed leveling

G1 Z0.2 F720
G1 Y-3 F1000 ; go outside print area
G92 E0
G1 X60 E9 F1000 ; intro line
G1 X100 E12.5 F1000 ; intro line

G92 E0
M221 S95

; Don't change E values below. Excessive value can damage the printer.
M907 E430 ; set extruder motor current
G21 ; set units to millimeters
G90 ; use absolute coordinates
M83 ; use relative distances for extrusion
M900 K0.05 ; Filament gcode LA 1.5
M900 K30 ; Filament gcode LA 1.0
M107
;LAYER_CHANGE
;Z:0.2
;HEIGHT:0.2
;BEFORE_LAYER_CHANGE
G92 E0.0
;0.2


M73 P3 R2
M73 Q3 S2
G1 E-.8 F2100
M73 P4 R2
M73 Q4 S2
G1 Z.4 F720
;AFTER_LAYER_CHANGE
;0.2
G1 X119.086 Y100.984 F10800
M73 P5 R2
G1 Z.2 F720
M73 P5 R1
M73 Q5 S2
G1 E.8 F2100
M204 S800
;TYPE:Skirt/Brim
;WIDTH:0.42
G1 F1200
G1 X120.18 Y99.731 E.05215
G1 X122.2 Y99.092 E.06643
M73 Q6 S1
G1 X127.8 Y99.092 E.17558
G1 X129.416 Y99.486 E.05215
M73 P6 R1
G1 X130.669 Y100.58 E.05215
G1 X131.308 Y102.6 E.06643
G1 X131.308 Y107.4 E.1505
G1 X130.914 Y109.016 E.05215
G1 X129.82 Y110.269 E.05215
G1 X127.8 Y110.908 E.06643
G1 X122.2 Y110.908 E.17558
G1 X120.584 Y110.514 E.05215
M73 Q7 S1
G1 X119.331 Y109.42 E.05215
G1 X118.692 Y107.4 E.06643
M73 P7 R1
G1 X118.692 Y102.6 E.1505
G1 X119.072 Y101.042 E.05028
M204 S1000
G1 X119.447 Y101.14 F10800
M204 S800
G1 F1200
G1 X119.462 Y101.08 E.00194
G1 X120.544 Y99.942 E.04923
G1 X122.2 Y99.469 E.054
G1 X127.8 Y99.469 E.17558
G1 X129.32 Y99.862 E.04923
M73 Q8 S1
G1 X130.458 Y100.944 E.04923
G1 X130.931 Y102.6 E.054
G1 X130.931 Y107.4 E.1505
G1 X130.538 Y108.92 E.04923
M73 P8 R1
G1 X129.456 Y110.058 E.04923
G1 X127.8 Y110.531 E.054
G1 X122.2 Y110.531 E.17558
G1 X120.68 Y110.138 E.04923
G1 X119.542 Y109.056 E.04923
G1 X119.069 Y107.4 E.054
G1 X119.069 Y102.6 E.1505
G1 X119.432 Y101.198 E.04541
M204 S1000
M73 Q9 S1
G1 X119.806 Y101.301 F10800
M204 S800
G1 F1200
M73 P9 R1
G1 X119.839 Y101.183 E.00384
G1 X120.905 Y100.169 E.04613
G1 X122.2 Y99.846 E.04185
G1 X127.8 Y99.846 E.17558
G1 X129.217 Y100.239 E.04611
G1 X130.231 Y101.305 E.04613
G1 X130.554 Y102.6 E.04185
G1 X130.554 Y107.4 E.1505
G1 X130.161 Y108.817 E.04611
G1 X129.095 Y109.831 E.04613
M73 Q10 S1
G1 X127.8 Y110.154 E.04185
G1 X122.2 Y110.154 E.17558
G1 X120.783 Y109.761 E.04611
M73 P10 R1
G1 X119.769 Y108.695 E.04613
G1 X119.446 Y107.4 E.04185
G1 X119.446 Y102.6 E.1505
G1 X119.79 Y101.359 E.04038
M204 S1000
G1 X120.161 Y101.47 F10800
M204 S800
G1 F1200
G1 X120.215 Y101.293 E.0058
G1 X121.26 Y100.417 E.04275
G1 X122.2 Y100.223 E.03009
G1 X127.8 Y100.223 E.17558
G1 X129.107 Y100.615 E.04278
M73 Q11 S1
G1 X129.983 Y101.66 E.04275
G1 X130.177 Y102.6 E.03009
G1 X130.177 Y107.4 E.1505
M73 P11 R1
G1 X129.785 Y108.707 E.04278
G1 X128.74 Y109.583 E.04275
G1 X127.8 Y109.777 E.03009
G1 X122.2 Y109.777 E.17558
G1 X120.893 Y109.385 E.04278
G1 X120.017 Y108.34 E.04275
G1 X119.823 Y107.4 E.03009
G1 X119.823 Y102.6 E.1505
G1 X120.144 Y101.528 E.03509
M204 S1000
; printing object CameraHolder_LedCap.stl id:0 copy 0
;WIPE_START
M73 Q12 S1
G1 F8640
G1 X120.215 Y101.293 E-.05668
G1 X121.26 Y100.417 E-.31486
G1 X122.2 Y100.223 E-.22162
M73 P12 R1
G1 X123.096 Y100.223 E-.20684
;WIPE_END
G1 Z.6 F720
G1 X122.61 Y103.01 F10800
G1 Z.2 F720
G1 E.8 F2100
M204 S800
;TYPE:External perimeter
G1 F1200
G1 X127.39 Y103.01 E.14987
G1 X127.39 Y106.99 E.12479
G1 X122.61 Y106.99 E.14987
G1 X122.61 Y103.07 E.12291
M204 S1000
M73 Q13 S1
G1 E-.8 F2100
M73 P13 R1
G1 Z.6 F720
G1 X127.22 Y103.958 F10800
G1 Z.2 F720
G1 E.8 F2100
M204 S800
;TYPE:Solid infill
;WIDTH:0.427429
G1 F1200
G1 X126.612 Y103.349 E.02751
G1 X126.068 Y103.349 E.01739
G1 X127.051 Y104.332 E.04445
G1 X127.051 Y104.876 E.01739
G1 X125.524 Y103.349 E.06904
G1 X124.981 Y103.349 E.01736
G1 X127.051 Y105.419 E.0936
G1 X127.051 Y105.963 E.01739
G1 X124.437 Y103.349 E.11819
G1 X123.893 Y103.349 E.01739
M73 Q14 S1
G1 X127.051 Y106.507 E.14279
G1 X127.051 Y106.651 E.0046
M73 P14 R1
G1 X126.651 Y106.651 E.01279
G1 X123.349 Y103.349 E.1493
G1 X122.949 Y103.349 E.01279
G1 X122.949 Y103.493 E.0046
G1 X126.107 Y106.651 E.14279
G1 X125.563 Y106.651 E.01739
G1 X122.949 Y104.037 E.11819
G1 X122.949 Y104.581 E.01739
G1 X125.019 Y106.651 E.0936
G1 X124.475 Y106.651 E.01739
M73 Q15 S1
G1 X122.949 Y105.125 E.069
G1 X122.949 Y105.668 E.01736
G1 X123.932 Y106.651 E.04445
G1 X123.388 Y106.651 E.01739
M73 P15 R1
G1 X122.78 Y106.042 E.02751
M204 S1000
; stop printing object CameraHolder_LedCap.stl id:0 copy 0
M106 S84.15
;LAYER_CHANGE
;Z:0.35
;HEIGHT:0.15
;BEFORE_LAYER_CHANGE
G92 E0.0
;0.35


;WIPE_START
G1 F8640
G1 X123.388 Y106.651 E-.1987
G1 X123.932 Y106.651 E-.12561
G1 X122.949 Y105.668 E-.32099
G1 X122.949 Y105.125 E-.12538
G1 X123.039 Y105.215 E-.02932
;WIPE_END
G1 Z.6 F720
;AFTER_LAYER_CHANGE
;0.35
M104 S210 ; set temperature
G1 X118.692 Y105.215 F10800
G1 Z.35 F720
G1 E.8 F2100
;TYPE:Skirt/Brim
;WIDTH:0.42
G1 F1383
G1 X118.692 Y102.6 E.06324
G1 X119.086 Y100.984 E.04023
G1 X120.18 Y99.731 E.04023
G1 X122.2 Y99.092 E.05124
G1 X127.8 Y99.092 E.13544
G1 X129.416 Y99.486 E.04023
M73 Q16 S1
G1 X130.669 Y100.58 E.04023
M73 P16 R1
G1 X131.308 Y102.6 E.05124
G1 X131.308 Y107.4 E.11609
G1 X130.914 Y109.016 E.04023
G1 X129.82 Y110.269 E.04023
G1 X127.8 Y110.908 E.05124
G1 X122.2 Y110.908 E.13544
G1 X120.584 Y110.514 E.04023
G1 X119.331 Y109.42 E.04023
G1 X118.692 Y107.4 E.05124
M73 Q17 S1
G1 X118.692 Y105.275 E.05139
G1 X119.069 Y105.275 F10800
G1 F1383
G1 X119.069 Y102.6 E.06469
G1 X119.462 Y101.08 E.03797
M73 P17 R1
G1 X120.544 Y99.942 E.03798
G1 X122.2 Y99.469 E.04165
G1 X127.8 Y99.469 E.13544
G1 X129.32 Y99.862 E.03797
G1 X130.458 Y100.944 E.03798
G1 X130.931 Y102.6 E.04165
G1 X130.931 Y107.4 E.11609
G1 X130.538 Y108.92 E.03797
G1 X129.456 Y110.058 E.03798
M73 Q18 S1
G1 X127.8 Y110.531 E.04165
G1 X122.2 Y110.531 E.13544
G1 X120.68 Y110.138 E.03797
M73 P18 R1
G1 X119.542 Y109.056 E.03798
G1 X119.069 Y107.4 E.04165
G1 X119.069 Y105.335 E.04994
G1 X119.446 Y105.335 F10800
G1 F1383
G1 X119.446 Y102.6 E.06615
G1 X119.839 Y101.183 E.03556
G1 X120.905 Y100.169 E.03558
G1 X122.2 Y99.846 E.03228
G1 X127.8 Y99.846 E.13544
G1 X129.217 Y100.239 E.03556
M73 Q19 S1
G1 X130.231 Y101.305 E.03558
G1 X130.554 Y102.6 E.03228
G1 X130.554 Y107.4 E.11609
G1 X130.161 Y108.817 E.03556
M73 P19 R1
G1 X129.095 Y109.831 E.03558
G1 X127.8 Y110.154 E.03228
G1 X122.2 Y110.154 E.13544
G1 X120.783 Y109.761 E.03556
G1 X119.769 Y108.695 E.03558
G1 X119.446 Y107.4 E.03228
G1 X119.446 Y105.395 E.04849
G1 X119.823 Y105.395 F10800
G1 F1383
G1 X119.823 Y102.6 E.0676
G1 X120.215 Y101.293 E.033
M73 Q20 S1
G1 X121.26 Y100.417 E.03298
G1 X122.2 Y100.223 E.02321
G1 X127.8 Y100.223 E.13544
G1 X129.107 Y100.615 E.033
M73 P20 R1
G1 X129.983 Y101.66 E.03298
G1 X130.177 Y102.6 E.02321
G1 X130.177 Y107.4 E.11609
G1 X129.785 Y108.707 E.033
G1 X128.74 Y109.583 E.03298
G1 X127.8 Y109.777 E.02321
G1 X122.2 Y109.777 E.13544
G1 X120.893 Y109.385 E.033
G1 X120.017 Y108.34 E.03298
G1 X119.823 Y107.4 E.02321
M73 Q21 S1
G1 X119.823 Y105.455 E.04704
; printing object CameraHolder_LedCap.stl id:0 copy 0
G1 E-.8 F2100
G1 Z.75 F720
G1 X122.425 Y102.825 F10800
M73 P21 R1
G1 Z.35 F720
G1 E.8 F2100
M204 S800
;TYPE:External perimeter
;WIDTH:0.45
G1 F1383
G1 X127.575 Y102.825 E.13419
G1 X127.575 Y107.175 E.11334
G1 X122.425 Y107.175 E.13419
G1 X122.425 Y102.885 E.11178
M204 S1000
G1 X122.914 Y103.235 F10800
;TYPE:Solid infill
;WIDTH:0.55137
M73 Q22 S1
G1 F1383
G1 X122.869 Y103.189 E.00208
G1 X122.806 Y103.206 E.00211
G1 X122.789 Y103.269 E.00211
G1 X122.835 Y103.314 E.00208
G1 X122.898 Y103.298 E.0021
;WIDTH:0.449999
G1 X122.801 Y103.965 E.01756
G1 X123.565 Y103.201 E.02815
G1 X123.66 Y103.127 E.00314
;WIDTH:0.411095
M73 P22 R1
G1 X123.755 Y103.053 E.00285
;WIDTH:0.37219
G1 X123.714 Y103.064 E.0009
G1 X123.695 Y102.993 E.00156
G1 X123.766 Y103.012 E.00156
;WIDTH:0.449999
G1 X124.156 Y103.201 E.01129
G1 X122.801 Y104.556 E.04993
G1 X122.801 Y105.147 E.0154
G1 X124.747 Y103.201 E.07171
G1 X125.338 Y103.201 E.0154
G1 X122.801 Y105.738 E.09348
G1 X122.801 Y106.328 E.01537
G1 X125.928 Y103.201 E.11522
G1 X126.519 Y103.201 E.0154
G1 X122.921 Y106.799 E.13258
G1 X122.82 Y106.855 E.00301
;WIDTH:0.411095
M73 Q23 S1
G1 X122.719 Y106.911 E.00273
;WIDTH:0.37219
G1 X122.648 Y106.892 E.00156
G1 X122.667 Y106.963 E.00156
G1 X122.708 Y106.952 E.0009
;WIDTH:0.449999
G1 X123.512 Y106.799 E.02132
G1 X127.11 Y103.201 E.13258
G1 X127.237 Y103.148 E.00359
;WIDTH:0.411095
M73 P23 R1
G1 X127.365 Y103.096 E.00326
;WIDTH:0.37219
G1 X127.324 Y103.107 E.0009
G1 X127.304 Y103.035 E.00158
G1 X127.376 Y103.054 E.00158
;WIDTH:0.449999
G1 X127.199 Y103.703 E.01753
G1 X124.103 Y106.799 E.11408
G1 X124.694 Y106.799 E.0154
G1 X127.199 Y104.294 E.09231
G1 X127.199 Y104.885 E.0154
G1 X125.285 Y106.799 E.07053
G1 X125.876 Y106.799 E.0154
G1 X127.199 Y105.476 E.04875
G1 X127.199 Y106.067 E.0154
G1 X126.467 Y106.799 E.02697
G1 X127.202 Y106.802 E.01915
;WIDTH:0.532884
G1 X127.141 Y106.818 E.00197
G1 X127.097 Y106.774 E.00194
G1 X127.113 Y106.713 E.00197
G1 X127.174 Y106.697 E.00197
G1 X127.218 Y106.741 E.00194
; stop printing object CameraHolder_LedCap.stl id:0 copy 0
M106 S170.85
;LAYER_CHANGE
;Z:0.5
;HEIGHT:0.15
;BEFORE_LAYER_CHANGE
G92 E0.0
;0.5


;WIPE_START
G1 F8640
G1 X127.174 Y106.697 E-.01437
G1 X127.113 Y106.713 E-.01456
G1 X127.097 Y106.774 E-.01456
G1 X127.141 Y106.818 E-.01437
G1 X127.202 Y106.802 E-.01456
G1 X126.467 Y106.799 E-.16971
G1 X127.199 Y106.067 E-.23903
G1 X127.199 Y105.476 E-.13646
M73 Q24 S1
G1 X126.64 Y106.035 E-.18238
;WIPE_END
G1 Z.75 F720
;AFTER_LAYER_CHANGE
;0.5
G1 X131.308 Y106.035 F10800
G1 Z.5 F720
M73 P24 R1
G1 E.8 F2100
;TYPE:Skirt/Brim
;WIDTH:0.42
G1 F1408
G1 X131.308 Y107.4 E.03301
G1 X130.914 Y109.016 E.04023
G1 X129.82 Y110.269 E.04023
G1 X127.8 Y110.908 E.05124
G1 X122.2 Y110.908 E.13544
G1 X120.584 Y110.514 E.04023
G1 X119.331 Y109.42 E.04023
G1 X118.692 Y107.4 E.05124
G1 X118.692 Y102.6 E.11609
G1 X119.086 Y100.984 E.04023
M73 Q25 S1
G1 X120.18 Y99.731 E.04023
G1 X122.2 Y99.092 E.05124
M73 P25 R1
G1 X127.8 Y99.092 E.13544
G1 X129.416 Y99.486 E.04023
G1 X130.669 Y100.58 E.04023
G1 X131.308 Y102.6 E.05124
G1 X131.308 Y105.975 E.08162
G1 X130.931 Y105.975 F10800
G1 F1408
G1 X130.931 Y107.4 E.03446
G1 X130.538 Y108.92 E.03797
G1 X129.456 Y110.058 E.03798
G1 X127.8 Y110.531 E.04165
G1 X122.2 Y110.531 E.13544
G1 X120.68 Y110.138 E.03797
M73 P26 R1
M73 Q26 S1
G1 X119.542 Y109.056 E.03798
G1 X119.069 Y107.4 E.04165
G1 X119.069 Y102.6 E.11609
G1 X119.462 Y101.08 E.03797
G1 X120.544 Y99.942 E.03798
G1 X122.2 Y99.469 E.04165
G1 X127.8 Y99.469 E.13544
G1 X129.32 Y99.862 E.03797
G1 X130.458 Y100.944 E.03798
G1 X130.931 Y102.6 E.04165
G1 X130.931 Y105.915 E.08017
M73 Q27 S1
G1 X130.554 Y105.915 F10800
G1 F1408
M73 P27 R1
G1 X130.554 Y107.4 E.03591
G1 X130.161 Y108.817 E.03556
G1 X129.095 Y109.831 E.03558
G1 X127.8 Y110.154 E.03228
G1 X122.2 Y110.154 E.13544
G1 X120.783 Y109.761 E.03556
G1 X119.769 Y108.695 E.03558
G1 X119.446 Y107.4 E.03228
G1 X119.446 Y102.6 E.11609
G1 X119.839 Y101.183 E.03556
G1 X120.905 Y100.169 E.03558
G1 X122.2 Y99.846 E.03228
G1 X127.8 Y99.846 E.13544
M73 Q28 S1
G1 X129.217 Y100.239 E.03556
M73 P28 R1
G1 X130.231 Y101.305 E.03558
G1 X130.554 Y102.6 E.03228
G1 X130.554 Y105.855 E.07872
G1 X130.177 Y105.855 F10800
G1 F1408
G1 X130.177 Y107.4 E.03737
G1 X129.785 Y108.707 E.033
G1 X128.74 Y109.583 E.03298
G1 X127.8 Y109.777 E.02321
G1 X122.2 Y109.777 E.13544
G1 X120.893 Y109.385 E.033
G1 X120.017 Y108.34 E.03298
G1 X119.823 Y107.4 E.02321
G1 X119.823 Y102.6 E.11609
G1 X120.215 Y101.293 E.033
M73 Q29 S1
G1 X121.26 Y100.417 E.03298
M73 P29 R1
G1 X122.2 Y100.223 E.02321
G1 X127.8 Y100.223 E.13544
G1 X129.107 Y100.615 E.033
G1 X129.983 Y101.66 E.03298
G1 X130.177 Y102.6 E.02321
G1 X130.177 Y105.795 E.07727
; printing object CameraHolder_LedCap.stl id:0 copy 0
;WIPE_START
G1 F8640
G1 X130.177 Y107.4 E-.3706
G1 X129.785 Y108.707 E-.31507
G1 X129.406 Y109.025 E-.11433
;WIPE_END
G1 Z.9 F720
G1 X126.87 Y106.773 F10800
G1 X122.827 Y103.227
G1 X122.877 Y103.227
G1 X122.425 Y102.825
G1 Z.5 F720
M73 Q30 S1
G1 E.8 F2100
M204 S800
;TYPE:External perimeter
;WIDTH:0.45
G1 F1408
G1 X127.575 Y102.825 E.13419
G1 X127.575 Y107.175 E.11334
M73 P30 R1
G1 X122.425 Y107.175 E.13419
G1 X122.425 Y102.885 E.11178
M204 S1000
;WIPE_START
G1 F8640
G1 X125.889 Y102.845 E-.8
;WIPE_END
G1 Z.9 F720
G1 X122.835 Y106.686 F10800
G1 Z.5 F720
M73 Q31 S1
G1 E.8 F2100
;TYPE:Solid infill
;WIDTH:0.55137
G1 F1408
G1 X122.789 Y106.731 E.00208
G1 X122.806 Y106.794 E.00211
G1 X122.869 Y106.811 E.00211
G1 X122.914 Y106.765 E.00208
G1 X122.898 Y106.702 E.0021
M73 P31 R1
G1 X123.755 Y106.947 F10800
;WIDTH:0.37219
G1 F1408
G1 X123.766 Y106.988 E.0009
G1 X123.695 Y107.007 E.00156
G1 X123.714 Y106.936 E.00156
;WIDTH:0.411095
G1 X123.64 Y106.868 E.00237
;WIDTH:0.449999
G1 X122.801 Y106.035 E.03081
G1 X122.727 Y105.94 E.00314
;WIDTH:0.411095
G1 X122.653 Y105.845 E.00285
;WIDTH:0.37219
G1 X122.664 Y105.886 E.0009
G1 X122.593 Y105.905 E.00156
G1 X122.612 Y105.834 E.00156
;WIDTH:0.449999
G1 X122.801 Y105.444 E.01129
G1 X124.156 Y106.799 E.04993
G1 X124.747 Y106.799 E.0154
G1 X122.801 Y104.853 E.07171
G1 X122.801 Y104.262 E.0154
G1 X125.338 Y106.799 E.09348
G1 X125.928 Y106.799 E.01537
G1 X122.801 Y103.672 E.11522
G1 X122.667 Y103.037 E.01691
;WIDTH:0.37219
G1 X122.648 Y103.108 E.00156
G1 X122.719 Y103.089 E.00156
G1 X122.708 Y103.048 E.0009
;WIDTH:0.411095
G1 X122.815 Y103.125 E.00311
;WIDTH:0.449999
G1 X122.921 Y103.201 E.0034
G1 X126.519 Y106.799 E.13258
G1 X127.365 Y106.904 F10800
;WIDTH:0.37219
M73 Q32 S1
G1 F1408
G1 X127.376 Y106.946 E.00092
G1 X127.304 Y106.965 E.00158
G1 X127.324 Y106.893 E.00158
;WIDTH:0.411095
G1 X127.217 Y106.846 E.00276
;WIDTH:0.449999
G1 X127.11 Y106.799 E.00305
G1 X123.512 Y103.201 E.13258
G1 X124.103 Y103.201 E.0154
M73 P32 R1
G1 X127.199 Y106.297 E.11408
G1 X127.199 Y105.706 E.0154
G1 X124.694 Y103.201 E.09231
G1 X125.285 Y103.201 E.0154
G1 X127.199 Y105.115 E.07053
G1 X127.199 Y104.524 E.0154
G1 X125.876 Y103.201 E.04875
G1 X126.467 Y103.201 E.0154
G1 X127.199 Y103.933 E.02697
G1 X127.202 Y103.198 E.01915
;WIDTH:0.532882
G1 X127.218 Y103.259 E.00197
G1 X127.174 Y103.303 E.00194
G1 X127.113 Y103.287 E.00197
G1 X127.097 Y103.226 E.00197
G1 X127.141 Y103.182 E.00194
; stop printing object CameraHolder_LedCap.stl id:0 copy 0
M106 S255
;LAYER_CHANGE
;Z:0.65
;HEIGHT:0.15
;BEFORE_LAYER_CHANGE
G92 E0.0
;0.65


;WIPE_START
G1 F8640
G1 X127.097 Y103.226 E-.01437
G1 X127.113 Y103.287 E-.01456
G1 X127.174 Y103.303 E-.01456
G1 X127.218 Y103.259 E-.01437
G1 X127.202 Y103.198 E-.01456
G1 X127.199 Y103.933 E-.16971
G1 X126.467 Y103.201 E-.23903
M73 Q33 S1
G1 X125.876 Y103.201 E-.13646
G1 X126.435 Y103.76 E-.18238
;WIPE_END
G1 Z.9 F720
;AFTER_LAYER_CHANGE
;0.65
; printing object CameraHolder_LedCap.stl id:0 copy 0
G1 X122.425 Y102.825 F10800
M73 P33 R1
G1 Z.65 F720
G1 E.8 F2100
M204 S800
;TYPE:External perimeter
;WIDTH:0.45
G1 F900
G1 X127.575 Y102.825 E.13419
G1 X127.575 Y107.175 E.11334
G1 X122.425 Y107.175 E.13419
G1 X122.425 Y102.885 E.11178
M204 S1000
M73 Q34 S1
G1 X122.914 Y103.235 F10800
;TYPE:Solid infill
;WIDTH:0.55137
M73 P34 R1
