; generated by PrusaSlicer 2.7.1+win64 on 2024-07-18 at 16:28:26 UTC


;
;
; 

; external perimeters extrusion width = 0.60mm
; perimeters extrusion width = 0.50mm
; infill extrusion width = 0.50mm
; solid infill extrusion width = 0.50mm
; top infill extrusion width = 0.45mm
; support material extrusion width = 0.38mm
; first layer extrusion width = 0.42mm

M73 P0 R62
M73 Q0 S63
M201 X1000 Y1000 Z200 E5000 ; sets maximum accelerations, mm/sec^2
M203 X200 Y200 Z12 E120 ; sets maximum feedrates, mm / sec
M204 S1250 T1250 ; sets acceleration (S) and retract acceleration (R), mm/sec^2
M205 X8.00 Y8.00 Z0.40 E4.50 ; sets the jerk limits, mm/sec
M205 S0 T0 ; sets the minimum extruding and travel feed rate, mm/sec

; printing object CameraHolderOutside.stl id:0 copy 0
; stop printing object CameraHolderOutside.stl id:0 copy 0

;TYPE:Custom
M862.3 P "MK3S" ; printer model check
M862.1 P0.4 ; nozzle diameter check
G90 ; use absolute coordinates
M83 ; extruder relative mode
M104 S215 ; set extruder temp
M140 S60 ; set bed temp
M190 S60 ; wait for bed temp
M109 S215 ; wait for extruder temp
G28 W ; home all without mesh bed level
G80 ; mesh bed leveling

G1 Z0.2 F720
G1 Y-3 F1000 ; go outside print area
G92 E0
G1 X60 E9 F1000 ; intro line
G1 X100 E12.5 F1000 ; intro line

G92 E0
M221 S95

; Don't change E values below. Excessive value can damage the printer.

M907 E538 ; set extruder motor current
G21 ; set units to millimeters
G90 ; use absolute coordinates
M83 ; use relative distances for extrusion
M900 K0.05 ; Filament gcode LA 1.5
M900 K30 ; Filament gcode LA 1.0
M107
;LAYER_CHANGE
;Z:0.2
;HEIGHT:0.2
;BEFORE_LAYER_CHANGE
G92 E0.0
;0.2


G1 E-.8 F2100
G1 Z.2 F720
;AFTER_LAYER_CHANGE
;0.2
G1 X91.259 Y96.141 F10800
G1 Z.2 F720
G1 E.8 F2100
M204 S800
;TYPE:Skirt/Brim
;WIDTH:0.42
G1 F1200
G1 X104.334 Y84.067 E.55802
G1 X106.222 Y82.409 E.07878
G1 X107.79 Y81.193 E.06222
G1 X109.396 Y80.114 E.06066
G1 X110.913 Y79.222 E.05518
G1 X112.425 Y78.452 E.0532
G1 X114.117 Y77.714 E.05788
G1 X115.993 Y77.039 E.06251
G1 X117.767 Y76.528 E.05788
G1 X119.569 Y76.13 E.05786
G1 X121.244 Y75.865 E.05317
G1 X123.081 Y75.687 E.05787
G1 X125.075 Y75.624 E.06255
G1 X126.919 Y75.687 E.05785
G1 X128.756 Y75.865 E.05787
G1 X130.578 Y76.158 E.05786
G1 X132.378 Y76.566 E.05787
G1 X134.149 Y77.085 E.05786
G1 X135.883 Y77.714 E.05783
G1 X137.575 Y78.452 E.05788
G1 X139.087 Y79.222 E.0532
G1 X140.673 Y80.155 E.05769
G1 X142.206 Y81.19 E.058
G1 X143.667 Y82.318 E.05787
G1 X145.626 Y84.03 E.08157
G1 X158.734 Y96.132 E.55937
G1 X159.484 Y97.053 E.03724
G1 X159.794 Y97.59 E.01944
G1 X160.094 Y98.314 E.02457
G1 X160.357 Y99.69 E.04392
G1 X160.377 Y110 E.32326
G1 X160.255 Y111.086 E.03426
G1 X159.794 Y112.41 E.04396
G1 X159.484 Y112.947 E.01944
G1 X158.734 Y113.868 E.03724
G1 X145.666 Y125.933 E.55766
G1 X143.778 Y127.591 E.07878
G1 X142.206 Y128.81 E.06237
G1 X140.677 Y129.843 E.05786
G1 X139.217 Y130.706 E.05318
G1 X137.575 Y131.548 E.05786
G1 X135.883 Y132.286 E.05788
G1 X134.007 Y132.961 E.06251
G1 X132.233 Y133.472 E.05788
G1 X130.578 Y133.842 E.05317
G1 X128.756 Y134.135 E.05786
G1 X126.919 Y134.313 E.05787
G1 X124.925 Y134.376 E.06255
G1 X123.081 Y134.313 E.05785
G1 X121.244 Y134.135 E.05787
G1 X119.422 Y133.842 E.05786
G1 X117.622 Y133.434 E.05787
G1 X115.851 Y132.915 E.05786
G1 X114.117 Y132.286 E.05783
G1 X112.425 Y131.548 E.05788
G1 X110.913 Y130.778 E.0532
G1 X109.327 Y129.845 E.05769
G1 X107.794 Y128.809 E.05801
G1 X106.333 Y127.682 E.05785
G1 X104.375 Y125.971 E.08153
G1 X91.266 Y113.868 E.55942
G1 X90.516 Y112.947 E.03724
G1 X90.206 Y112.41 E.01944
G1 X89.906 Y111.686 E.02457
G1 X89.644 Y110.316 E.04373
G1 X89.623 Y100 E.32345
G1 X89.758 Y98.83 E.03693
M73 P0 R61
G1 X90.206 Y97.59 E.04134
G1 X90.516 Y97.053 E.01944
G1 X91.222 Y96.187 E.03503
M204 S1000
; printing object CameraHolderOutside.stl id:0 copy 0
;WIPE_START
G1 F8640
G1 X91.259 Y96.141 E-.01363
G1 X93.761 Y93.83 E-.78637
;WIPE_END
G1 Z.6 F720
G1 X99.451 Y112.17 F10800
G1 Z.2 F720
G1 E.8 F2100
M204 S800
;TYPE:Perimeter
;WIDTH:0.419999
G1 F1200
G1 X99.37 Y112.151 E.00261
G1 X97.454 Y112.151 E.06007
G1 X96.948 Y112.213 E.01598
G1 X95.052 Y112.213 E.05945
G1 X94.429 Y112.131 E.0197
G1 X93.897 Y111.91 E.01806
G1 X93.44 Y111.56 E.01805
G1 X93.09 Y111.103 E.01805
G1 X92.869 Y110.571 E.01806
G1 X92.787 Y109.948 E.0197
G1 X92.787 Y100.052 E.31028
G1 X92.869 Y99.429 E.0197
G1 X93.09 Y98.897 E.01806
G1 X93.44 Y98.44 E.01805
G1 X93.897 Y98.09 E.01805
G1 X94.429 Y97.869 E.01806
G1 X95.052 Y97.787 E.0197
G1 X96.948 Y97.787 E.05945
G1 X97.454 Y97.849 E.01598
G1 X99.37 Y97.849 E.06007
G1 X99.522 Y97.828 E.00481
G1 X99.767 Y97.686 E.00888
G1 X99.912 Y97.447 E.00876
G1 X100.07 Y96.9 E.01785
G1 X100.628 Y95.351 E.05162
G1 X101.282 Y93.839 E.05165
G1 X102.03 Y92.372 E.05163
G1 X102.868 Y90.955 E.05162
G1 X103.794 Y89.593 E.05164
G1 X104.803 Y88.291 E.05165
G1 X106.49 Y86.383 E.07985
G1 X108.292 Y84.803 E.07514
G1 X109.593 Y83.794 E.05162
G1 X110.955 Y82.868 E.05164
G1 X112.372 Y82.03 E.05162
G1 X113.839 Y81.282 E.05163
G1 X115.351 Y80.628 E.05165
G1 X116.827 Y80.097 E.04918
G1 X118.482 Y79.611 E.05408
G1 X120.088 Y79.252 E.0516
G1 X121.715 Y78.994 E.05165
G1 X123.354 Y78.839 E.05162
G1 X125 Y78.787 E.05163
G1 X126.646 Y78.839 E.05163
G1 X128.285 Y78.994 E.05162
G1 X129.912 Y79.252 E.05165
G1 X131.519 Y79.611 E.05163
G1 X133.1 Y80.07 E.05162
G1 X134.649 Y80.628 E.05162
G1 X136.161 Y81.282 E.05165
G1 X137.628 Y82.03 E.05163
G1 X139.045 Y82.868 E.05162
G1 X140.407 Y83.794 E.05164
G1 X141.708 Y84.803 E.05162
G1 X143.498 Y86.373 E.07465
G1 X145.197 Y88.291 E.08034
G1 X146.206 Y89.593 E.05165
G1 X147.132 Y90.955 E.05164
G1 X147.97 Y92.372 E.05162
G1 X148.718 Y93.839 E.05163
G1 X149.372 Y95.351 E.05165
G1 X149.93 Y96.9 E.05162
G1 X150.087 Y97.441 E.01766
G1 X150.171 Y97.613 E.006
G1 X150.385 Y97.793 E.00877
G1 X150.63 Y97.849 E.00788
G1 X152.546 Y97.849 E.06007
G1 X153.052 Y97.787 E.01598
G1 X154.948 Y97.787 E.05945
G1 X155.571 Y97.869 E.0197
G1 X156.103 Y98.09 E.01806
M73 Q0 S62
G1 X156.56 Y98.44 E.01805
G1 X156.91 Y98.897 E.01805
G1 X157.131 Y99.429 E.01806
G1 X157.213 Y100.21 E.02462
G1 X157.213 Y109.948 E.30533
G1 X157.131 Y110.571 E.0197
G1 X156.91 Y111.103 E.01806
G1 X156.56 Y111.56 E.01805
G1 X156.103 Y111.91 E.01805
G1 X155.571 Y112.131 E.01806
G1 X154.948 Y112.213 E.0197
G1 X153.052 Y112.213 E.05945
G1 X152.546 Y112.151 E.01598
G1 X150.63 Y112.151 E.06007
G1 X150.478 Y112.172 E.00481
G1 X150.233 Y112.314 E.00888
G1 X150.088 Y112.553 E.00876
G1 X149.93 Y113.1 E.01785
G1 X149.372 Y114.649 E.05162
G1 X148.718 Y116.161 E.05165
G1 X147.97 Y117.628 E.05163
G1 X147.132 Y119.045 E.05162
G1 X146.206 Y120.407 E.05164
G1 X145.197 Y121.709 E.05165
G1 X143.51 Y123.617 E.07985
G1 X141.708 Y125.197 E.07514
G1 X140.407 Y126.206 E.05162
G1 X139.045 Y127.132 E.05164
G1 X137.628 Y127.97 E.05162
G1 X136.161 Y128.718 E.05163
G1 X134.649 Y129.372 E.05165
G1 X133.1 Y129.93 E.05162
G1 X131.519 Y130.389 E.05162
G1 X129.912 Y130.748 E.05163
G1 X128.285 Y131.006 E.05165
G1 X126.646 Y131.161 E.05162
G1 X125 Y131.213 E.05163
G1 X123.354 Y131.161 E.05163
G1 X121.715 Y131.006 E.05162
G1 X120.088 Y130.748 E.05165
G1 X118.481 Y130.389 E.05163
G1 X116.9 Y129.93 E.05162
G1 X115.351 Y129.372 E.05162
G1 X113.839 Y128.718 E.05165
G1 X112.372 Y127.97 E.05163
G1 X110.955 Y127.132 E.05162
G1 X109.593 Y126.206 E.05164
G1 X108.292 Y125.197 E.05162
G1 X106.502 Y123.627 E.07465
G1 X104.803 Y121.709 E.08034
G1 X103.794 Y120.407 E.05165
G1 X102.868 Y119.045 E.05164
G1 X102.03 Y117.628 E.05162
G1 X101.282 Y116.161 E.05163
G1 X100.628 Y114.649 E.05165
G1 X100.07 Y113.1 E.05162
G1 X99.913 Y112.559 E.01766
G1 X99.829 Y112.387 E.006
G1 X99.615 Y112.207 E.00877
G1 X99.509 Y112.183 E.00341
M204 S1000
G1 X99.37 Y112.528 F10800
M204 S800
;TYPE:External perimeter
G1 F1200
G1 X97.454 Y112.528 E.06007
G1 X96.973 Y112.59 E.01521
G1 X95.027 Y112.59 E.06102
G1 X94.331 Y112.498 E.02201
G1 X93.707 Y112.24 E.02117
G1 X93.171 Y111.829 E.02118
G1 X92.76 Y111.293 E.02118
G1 X92.502 Y110.669 E.02117
G1 X92.41 Y109.973 E.02201
G1 X92.41 Y100.027 E.31185
G1 X92.502 Y99.331 E.02201
G1 X92.76 Y98.707 E.02117
G1 X93.171 Y98.171 E.02118
G1 X93.707 Y97.76 E.02118
G1 X94.331 Y97.502 E.02117
G1 X95.027 Y97.41 E.02201
G1 X96.693 Y97.41 E.05224
G1 X97.454 Y97.472 E.02394
G1 X99.37 Y97.472 E.06007
G1 X99.452 Y97.453 E.00264
G1 X99.551 Y97.338 E.00476
G1 X99.712 Y96.783 E.01812
G1 X100.277 Y95.212 E.05235
G1 X100.941 Y93.679 E.05238
G1 X101.699 Y92.19 E.05239
G1 X102.549 Y90.752 E.05238
G1 X103.488 Y89.371 E.05236
G1 X104.512 Y88.051 E.05238
G1 X106.229 Y86.111 E.08123
G1 X108.051 Y84.512 E.07601
G1 X109.371 Y83.488 E.05238
G1 X110.752 Y82.549 E.05236
G1 X112.19 Y81.699 E.05238
G1 X113.679 Y80.941 E.05239
G1 X115.212 Y80.277 E.05238
G1 X116.71 Y79.738 E.04992
G1 X118.388 Y79.245 E.05484
G1 X120.018 Y78.881 E.05237
G1 X121.667 Y78.62 E.05235
G1 X123.33 Y78.463 E.05237
G1 X125 Y78.41 E.05239
G1 X126.67 Y78.463 E.05239
G1 X128.333 Y78.62 E.05237
G1 X129.982 Y78.881 E.05235
G1 X131.613 Y79.246 E.0524
G1 X133.217 Y79.712 E.05237
G1 X134.788 Y80.277 E.05235
G1 X136.321 Y80.941 E.05238
G1 X137.81 Y81.699 E.05239
G1 X139.248 Y82.549 E.05238
G1 X140.629 Y83.488 E.05236
G1 X141.949 Y84.512 E.05238
G1 X143.767 Y86.108 E.07585
G1 X145.488 Y88.051 E.08138
G1 X146.512 Y89.371 E.05238
G1 X147.451 Y90.752 E.05236
G1 X148.301 Y92.19 E.05238
G1 X149.059 Y93.679 E.05239
G1 X149.723 Y95.212 E.05238
G1 X150.288 Y96.783 E.05235
G1 X150.486 Y97.405 E.02047
G1 X150.63 Y97.472 E.00498
G1 X152.546 Y97.472 E.06007
G1 X153.027 Y97.41 E.01521
G1 X154.973 Y97.41 E.06102
G1 X155.669 Y97.502 E.02201
G1 X156.293 Y97.76 E.02117
G1 X156.829 Y98.171 E.02118
G1 X157.24 Y98.707 E.02118
G1 X157.498 Y99.331 E.02117
G1 X157.59 Y100.21 E.02771
G1 X157.59 Y109.973 E.30611
G1 X157.498 Y110.669 E.02201
G1 X157.24 Y111.293 E.02117
G1 X156.829 Y111.829 E.02118
G1 X156.293 Y112.24 E.02118
G1 X155.669 Y112.498 E.02117
G1 X154.973 Y112.59 E.02201
G1 X153.307 Y112.59 E.05224
G1 X152.546 Y112.528 E.02394
G1 X150.63 Y112.528 E.06007
G1 X150.548 Y112.547 E.00264
G1 X150.449 Y112.662 E.00476
G1 X150.288 Y113.217 E.01812
G1 X149.723 Y114.788 E.05235
G1 X149.059 Y116.321 E.05238
G1 X148.301 Y117.81 E.05239
G1 X147.451 Y119.248 E.05238
G1 X146.512 Y120.629 E.05236
G1 X145.488 Y121.949 E.05238
G1 X143.771 Y123.889 E.08123
G1 X141.949 Y125.488 E.07601
G1 X140.629 Y126.512 E.05238
G1 X139.248 Y127.451 E.05236
G1 X137.81 Y128.301 E.05238
G1 X136.321 Y129.059 E.05239
G1 X134.788 Y129.723 E.05238
G1 X133.217 Y130.288 E.05235
G1 X131.613 Y130.754 E.05237
G1 X129.982 Y131.119 E.0524
G1 X128.333 Y131.38 E.05235
G1 X126.67 Y131.537 E.05237
G1 X125 Y131.59 E.05239
G1 X123.33 Y131.537 E.05239
G1 X121.667 Y131.38 E.05237
G1 X120.018 Y131.119 E.05235
G1 X118.387 Y130.754 E.0524
G1 X116.783 Y130.288 E.05237
G1 X115.212 Y129.723 E.05235
G1 X113.679 Y129.059 E.05238
G1 X112.19 Y128.301 E.05239
G1 X110.752 Y127.451 E.05238
G1 X109.371 Y126.512 E.05236
G1 X108.051 Y125.488 E.05238
G1 X106.233 Y123.892 E.07585
G1 X104.512 Y121.949 E.08138
G1 X103.488 Y120.629 E.05238
G1 X102.549 Y119.248 E.05236
G1 X101.699 Y117.81 E.05238
G1 X100.941 Y116.321 E.05239
G1 X100.277 Y114.788 E.05238
G1 X99.712 Y113.217 E.05235
G1 X99.514 Y112.595 E.02047
G1 X99.424 Y112.554 E.0031
M204 S1000
;WIPE_START
G1 F8640
G1 X99.37 Y112.528 E-.01384
G1 X97.454 Y112.528 E-.44241
G1 X96.973 Y112.59 E-.11198
G1 X95.969 Y112.59 E-.23177
;WIPE_END
G1 Z.6 F720
G1 X145.4 Y88.83 F10800
G1 Z.2 F720
G1 E.8 F2100
M204 S800
;TYPE:Solid infill
;WIDTH:0.420423
G1 F1200
G1 X142.655 Y86.085 E.12185
G1 X141.492 Y85.065 E.04856
M73 P1 R61
M73 Q1 S62
G1 X140.208 Y84.068 E.05103
G1 X139.885 Y83.849 E.01225
G1 X146.151 Y90.115 E.27816
G1 X146.845 Y91.137 E.03878
G1 X147.144 Y91.642 E.01842
G1 X138.358 Y82.856 E.39002
G1 X137.464 Y82.327 E.03261
G1 X137.121 Y82.152 E.01209
G1 X147.848 Y92.879 E.47619
G1 X148.402 Y93.968 E.03835
G1 X136.032 Y81.597 E.54914
G1 X135.089 Y81.188 E.03226
G1 X148.812 Y94.911 E.60918
G1 X149.056 Y95.476 E.01932
G1 X149.176 Y95.81 E.01114
G1 X134.19 Y80.824 E.66525
G1 X133.356 Y80.523 E.02783
G1 X149.758 Y96.926 E.72813
M204 S1000
;WIPE_START
G1 F8640
G1 X147.308 Y94.476 E-.8
;WIPE_END
G1 Z.6 F720
G1 X155.079 Y97.975 F10800
G1 Z.2 F720
G1 E.8 F2100
M204 S800
G1 F1200
G1 X156.827 Y99.724 E.07762
G1 X156.874 Y100.074 E.01108
G1 X156.874 Y100.303 E.00719
G1 X154.697 Y98.126 E.09664
G1 X154.163 Y98.126 E.01676
G1 X156.874 Y100.837 E.12035
G1 X156.874 Y101.371 E.01676
G1 X153.629 Y98.126 E.14405
G1 X153.095 Y98.126 E.01676
G1 X156.874 Y101.905 E.16776
G1 X156.874 Y102.439 E.01676
G1 X152.615 Y98.181 E.18904
G1 X152.089 Y98.188 E.01651
G1 X156.874 Y102.973 E.21241
G1 X156.874 Y103.507 E.01676
G1 X151.555 Y98.188 E.23612
G1 X151.021 Y98.188 E.01676
G1 X156.874 Y104.041 E.25982
G1 X156.874 Y104.574 E.01673
G1 X132.568 Y80.269 E1.07896
G1 X131.816 Y80.051 E.02458
G1 X156.874 Y105.108 E1.11234
G1 X156.874 Y105.642 E.01676
G1 X131.095 Y79.864 E1.14435
G1 X130.408 Y79.71 E.0221
G1 X156.874 Y106.176 E1.17486
G1 X156.874 Y106.71 E.01676
G1 X129.73 Y79.567 E1.20494
G1 X129.096 Y79.466 E.02015
G1 X156.874 Y107.244 E1.23311
G1 X156.874 Y107.778 E.01676
G1 X128.462 Y79.366 E1.26125
G1 X127.857 Y79.294 E.01912
G1 X156.874 Y108.312 E1.28813
G1 X156.874 Y108.845 E.01673
G1 X127.267 Y79.239 E1.31428
G1 X126.677 Y79.183 E.0186
G1 X156.874 Y109.379 E1.34047
G1 X156.874 Y109.913 E.01676
G1 X126.123 Y79.162 E1.36508
G1 X125.571 Y79.145 E.01734
G1 X156.813 Y110.386 E1.38686
G1 X156.8 Y110.482 E.00304
G1 X156.676 Y110.783 E.01022
G1 X125.02 Y79.128 E1.40523
G1 X124.501 Y79.143 E.0163
G1 X156.474 Y111.115 E1.41931
G1 X156.318 Y111.318 E.00804
M73 P2 R61
M73 Q2 S62
G1 X156.219 Y111.394 E.00392
G1 X123.984 Y79.159 E1.43096
G1 X123.466 Y79.175 E.01627
M73 P2 R60
G1 X155.913 Y111.622 E1.44037
G1 X155.535 Y111.778 E.01284
G1 X122.973 Y79.216 E1.44547
G1 X122.485 Y79.262 E.01539
M73 Q2 S61
G1 X155.077 Y111.854 E1.44681
G1 X154.926 Y111.874 E.00478
G1 X154.563 Y111.874 E.01139
G1 X121.998 Y79.308 E1.44563
G1 X121.524 Y79.368 E.015
G1 X154.029 Y111.874 E1.44297
G1 X153.495 Y111.874 E.01676
G1 X121.063 Y79.441 E1.43973
G1 X120.602 Y79.514 E.01465
G1 X152.946 Y111.858 E1.4358
G1 X152.555 Y111.812 E.01236
G1 X152.366 Y111.812 E.00593
G1 X120.142 Y79.588 E1.43047
G1 X119.705 Y79.685 E.01405
G1 X151.833 Y111.813 E1.42621
G1 X151.299 Y111.813 E.01676
G1 X119.269 Y79.783 E1.42186
G1 X118.833 Y79.88 E.01402
G1 X150.766 Y111.814 E1.41757
G1 X150.559 Y111.814 E.0065
G1 X150.297 Y111.878 E.00847
G1 X118.405 Y79.987 E1.41571
G1 X117.993 Y80.108 E.01348
G1 X149.977 Y112.092 E1.41982
G1 X149.877 Y112.213 E.00493
G1 X149.776 Y112.425 E.00737
G1 X117.58 Y80.229 E1.42923
G1 X117.167 Y80.35 E.01351
G1 X149.654 Y112.837 E1.44215
G1 X149.52 Y113.237 E.01324
M73 P3 R60
G1 X116.763 Y80.48 E1.45413
G1 X116.371 Y80.622 E.01309
M73 Q3 S61
G1 X149.378 Y113.629 E1.46523
G1 X149.237 Y114.022 E.01311
G1 X115.978 Y80.763 E1.47642
G1 X115.586 Y80.904 E.01308
G1 X149.096 Y114.414 E1.48756
G1 X148.94 Y114.793 E.01286
G1 X115.207 Y81.06 E1.49746
G1 X114.835 Y81.221 E.01272
G1 X148.779 Y115.165 E1.50682
G1 X148.618 Y115.538 E.01275
G1 X114.462 Y81.382 E1.51623
G1 X114.09 Y81.544 E.01274
G1 X148.456 Y115.91 E1.52556
G1 X148.282 Y116.269 E.01252
G1 X113.731 Y81.718 E1.53377
G1 X113.377 Y81.899 E.01248
G1 X148.101 Y116.623 E1.54145
G1 X147.921 Y116.977 E.01247
M73 P3 R59
G1 X113.023 Y82.079 E1.54917
G1 X112.67 Y82.259 E.01244
G1 X147.741 Y117.33 E1.55685
G1 X147.549 Y117.673 E.01234
M73 Q3 S60
G1 X112.327 Y82.451 E1.56356
G1 X111.992 Y82.649 E.01221
G1 X147.351 Y118.008 E1.56964
G1 X147.153 Y118.344 E.01224
G1 X111.656 Y82.847 E1.57576
G1 X111.321 Y83.046 E.01223
M73 P4 R59
G1 X146.954 Y118.679 E1.5818
G1 X146.748 Y119.007 E.01216
M73 Q4 S60
G1 X110.993 Y83.252 E1.58722
G1 X110.675 Y83.468 E.01207
G1 X146.532 Y119.325 E1.59174
G1 X146.316 Y119.643 E.01207
G1 X110.357 Y83.684 E1.59627
G1 X110.04 Y83.9 E.01204
G1 X146.1 Y119.96 E1.60076
G1 X145.88 Y120.274 E.01203
G1 X109.726 Y84.12 E1.60493
G1 X109.425 Y84.353 E.01195
