; generated by PrusaSlicer 2.6.0+win64 on 2023-09-11 at 21:55:04 UTC


;
;
; 

; external perimeters extrusion width = 0.45mm
; perimeters extrusion width = 0.45mm
; infill extrusion width = 0.45mm
; solid infill extrusion width = 0.45mm
; top infill extrusion width = 0.40mm
; first layer extrusion width = 0.42mm

M73 P0 R46
M73 Q0 S48
M201 X1000 Y1000 Z200 E5000 ; sets maximum accelerations, mm/sec^2
M203 X200 Y200 Z12 E120 ; sets maximum feedrates, mm / sec
M204 S1250 T1250 ; sets acceleration (S) and retract acceleration (R), mm/sec^2
M205 X8.00 Y8.00 Z0.40 E4.50 ; sets the jerk limits, mm/sec
M205 S0 T0 ; sets the minimum extruding and travel feed rate, mm/sec
;TYPE:Custom
M862.3 P "MK3S" ; printer model check
M862.1 P0.4 ; nozzle diameter check
G90 ; use absolute coordinates
M83 ; extruder relative mode
M104 S205 ; set extruder temp
M140 S60 ; set bed temp
M190 S60 ; wait for bed temp
M109 S205 ; wait for extruder temp
G28 W ; home all without mesh bed level
G80 ; mesh bed leveling

G1 Z0.2 F720
G1 Y-3 F1000 ; go outside print area
G92 E0
G1 X60 E9 F1000 ; intro line
G1 X100 E12.5 F1000 ; intro line

G92 E0
M221 S95

; Don't change E values below. Excessive value can damage the printer.
M907 E430 ; set extruder motor current
G21 ; set units to millimeters
G90 ; use absolute coordinates
M83 ; use relative distances for extrusion
M900 K0.05 ; Filament gcode LA 1.5
M900 K30 ; Filament gcode LA 1.0
M107
;LAYER_CHANGE
;Z:0.2
;HEIGHT:0.2
;BEFORE_LAYER_CHANGE
G92 E0.0
;0.2


G1 E-6 F2100
G1 Z.4 F720
;AFTER_LAYER_CHANGE
;0.2
G1 X101.82 Y89.95 F10800
G1 Z.2 F720
G1 E6 F2100
M204 S800
;TYPE:Skirt/Brim
;WIDTH:0.42
G1 F1200
G1 X102.624 Y89.239 E.03365
G1 X103.297 Y88.838 E.02456
G1 X104.02 Y88.549 E.02441
G1 X105.413 Y88.325 E.04424
G1 X144.575 Y88.324 E1.2279
G1 X145.501 Y88.425 E.02921
G1 X146.381 Y88.693 E.02884
G1 X147.211 Y89.127 E.02937
G1 X147.961 Y89.724 E.03006
G1 X148.482 Y90.315 E.0247
G1 X148.971 Y91.114 E.02937
G1 X149.301 Y91.99 E.02935
G1 X149.46 Y92.902 E.02903
G1 X149.461 Y117.087 E.7583
G1 X149.255 Y118.167 E.03447
G1 X148.824 Y119.163 E.03403
G1 X148.178 Y120.052 E.03446
G1 X147.364 Y120.769 E.03401
G1 X146.109 Y121.409 E.04417
G1 X145.359 Y121.602 E.02428
G1 X144.575 Y121.676 E.02469
G1 X105.425 Y121.676 E1.22752
G1 X104.335 Y121.538 E.03445
G1 X103.17 Y121.097 E.03906
G1 X102.271 Y120.486 E.03408
G1 X101.439 Y119.576 E.03866
G1 X101.033 Y118.893 E.02491
G1 X100.751 Y118.187 E.02384
G1 X100.575 Y117.41 E.02498
G1 X100.525 Y116.787 E.0196
G1 X100.529 Y93.065 E.74379
G1 X100.742 Y91.842 E.03892
G1 X101.169 Y90.85 E.03386
G1 X101.785 Y89.999 E.03294
M204 S1000
; printing object CameraHolder_PhotosensorCap_Array.stl id:0 copy 0
;WIPE_START
G1 F8640
G1 X102.624 Y89.239 E-.26139
G1 X103.297 Y88.838 E-.18089
G1 X104.02 Y88.549 E-.17979
G1 X105.413 Y88.325 E-.32578
G1 X127.293 Y88.324 E-5.05215
;WIPE_END
G1 Z.6 F720
G1 X145.019 Y95.026 F10800
G1 Z.2 F720
G1 E6 F2100
M204 S800
;TYPE:Perimeter
;WIDTH:0.419999
G1 F1200
G1 X144.669 Y95.087 E.01114
G1 X144.201 Y95.077 E.01468
G1 X143.729 Y94.938 E.01543
G1 X143.306 Y94.65 E.01605
G1 X142.972 Y94.27 E.01586
G1 X142.774 Y93.819 E.01544
G1 X142.713 Y93.469 E.01114
G1 X142.723 Y93.001 E.01468
G1 X142.862 Y92.529 E.01543
G1 X143.15 Y92.106 E.01605
G1 X143.53 Y91.772 E.01586
G1 X143.981 Y91.574 E.01544
G1 X144.331 Y91.513 E.01114
G1 X144.799 Y91.523 E.01468
G1 X145.271 Y91.662 E.01543
G1 X145.694 Y91.95 E.01605
G1 X146.028 Y92.33 E.01586
G1 X146.226 Y92.781 E.01544
G1 X146.287 Y93.131 E.01114
G1 X146.277 Y93.599 E.01468
G1 X146.138 Y94.071 E.01543
G1 X145.85 Y94.494 E.01605
G1 X145.47 Y94.828 E.01586
G1 X145.074 Y95.002 E.01356
M204 S1000
G1 X145.121 Y95.375 F10800
M204 S800
;TYPE:External perimeter
G1 F1200
G1 X144.913 Y95.449 E.00692
G1 X144.36 Y95.484 E.01737
G1 X143.778 Y95.356 E.01868
G1 X143.396 Y95.179 E.0132
G1 X143.061 Y94.937 E.01296
G1 X142.78 Y94.638 E.01287
G1 X142.55 Y94.274 E.0135
G1 X142.351 Y93.713 E.01866
G1 X142.316 Y93.16 E.01737
G1 X142.444 Y92.578 E.01868
G1 X142.621 Y92.196 E.0132
G1 X142.863 Y91.861 E.01296
G1 X143.162 Y91.58 E.01287
G1 X143.526 Y91.35 E.0135
G1 X144.087 Y91.151 E.01866
G1 X144.42 Y91.13 E.01046
G1 X144.858 Y91.15 E.01375
G1 X145.432 Y91.319 E.01876
G1 X145.787 Y91.529 E.01293
G1 X146.096 Y91.802 E.01293
G1 X146.348 Y92.127 E.01289
G1 X146.588 Y92.675 E.01876
G1 X146.663 Y93.107 E.01375
G1 X146.684 Y93.44 E.01046
G1 X146.556 Y94.022 E.01868
G1 X146.379 Y94.404 E.0132
G1 X146.137 Y94.739 E.01296
G1 X145.838 Y95.02 E.01287
G1 X145.474 Y95.25 E.0135
G1 X145.178 Y95.355 E.00985
M204 S1000
G1 X144.947 Y95.238 F10800
;WIPE_START
G1 F8640
G1 X144.913 Y95.449 E-.06492
G1 X144.36 Y95.484 E-.12794
G1 X143.778 Y95.356 E-.1376
G1 X143.396 Y95.179 E-.09721
G1 X143.061 Y94.937 E-.09542
G1 X142.78 Y94.638 E-.09474
G1 X142.55 Y94.274 E-.09942
G1 X142.351 Y93.713 E-.13744
G1 X142.316 Y93.16 E-.12794
G1 X142.444 Y92.578 E-.1376
G1 X142.621 Y92.196 E-.09721
G1 X142.863 Y91.861 E-.09542
G1 X143.162 Y91.58 E-.09474
G1 X143.526 Y91.35 E-.09942
G1 X144.087 Y91.151 E-.13744
G1 X144.42 Y91.13 E-.07704
G1 X144.858 Y91.15 E-.10124
G1 X145.432 Y91.319 E-.13816
G1 X145.787 Y91.529 E-.09524
G1 X146.096 Y91.802 E-.09521
G1 X146.348 Y92.127 E-.09496
G1 X146.588 Y92.675 E-.13814
G1 X146.663 Y93.107 E-.10124
G1 X146.684 Y93.44 E-.07704
G1 X146.556 Y94.022 E-.1376
G1 X146.379 Y94.404 E-.09721
G1 X146.137 Y94.739 E-.09542
G1 X145.838 Y95.02 E-.09474
G1 X145.474 Y95.25 E-.09942
G1 X145.178 Y95.355 E-.07252
;WIPE_END
G1 E-2.84036 F2100
G1 Z.6 F720
G1 X144.994 Y91.743 F10800
G1 Z.2 F720
G1 E6 F2100
M204 S800
;TYPE:Solid infill
;WIDTH:0.457392
G1 F1200
G1 X145.659 Y92.408 E.03241
G1 X145.741 Y92.513 E.00459
G1 X145.866 Y92.759 E.00951
G1 X145.939 Y93.011 E.00904
G1 X145.957 Y93.292 E.0097
G1 X144.507 Y91.842 E.07067
G1 X144.211 Y91.861 E.01022
G1 X144.001 Y91.922 E.00754
G1 X145.876 Y93.797 E.09139
G1 X145.829 Y93.926 E.00473
G1 X145.674 Y94.181 E.01028
G1 X143.622 Y92.129 E.10001
G1 X143.494 Y92.229 E.0056
G1 X143.326 Y92.419 E.00874
G1 X145.377 Y94.471 E.09999
G1 X145.287 Y94.541 E.00393
G1 X144.999 Y94.678 E.01099
G1 X143.124 Y92.803 E.09139
G1 X143.077 Y92.935 E.00483
G1 X143.036 Y93.194 E.00904
G1 X143.043 Y93.308 E.00394
G1 X144.493 Y94.758 E.07067
G1 X144.394 Y94.764 E.00342
G1 X144.135 Y94.723 E.00904
G1 X143.874 Y94.629 E.00956
G1 X143.638 Y94.49 E.00944
G1 X142.944 Y93.796 E.03382
M204 S1000
;WIPE_START
G1 F8640
G1 X143.638 Y94.49 E-.22662
G1 X143.874 Y94.629 E-.06324
G1 X144.135 Y94.723 E-.06406
G1 X144.394 Y94.764 E-.06055
G1 X144.493 Y94.758 E-.0229
G1 X143.043 Y93.308 E-.47349
G1 X143.036 Y93.194 E-.02637
G1 X143.077 Y92.935 E-.06055
G1 X143.124 Y92.803 E-.03235
G1 X144.999 Y94.678 E-.61227
G1 X145.287 Y94.541 E-.07364
G1 X145.377 Y94.471 E-.02633
G1 X143.326 Y92.419 E-.66991
G1 X143.494 Y92.229 E-.05856
G1 X143.622 Y92.129 E-.03751
G1 X145.674 Y94.181 E-.67007
G1 X145.829 Y93.926 E-.0689
G1 X145.876 Y93.797 E-.0317
G1 X144.001 Y91.922 E-.61227
G1 X144.211 Y91.861 E-.05049
G1 X144.507 Y91.842 E-.06849
G1 X145.957 Y93.292 E-.47349
G1 X145.939 Y93.011 E-.06502
G1 X145.866 Y92.759 E-.06058
M73 P0 R45
G1 X145.741 Y92.513 E-.06371
G1 X145.659 Y92.408 E-.03076
G1 X144.994 Y91.743 E-.21715
;WIPE_END
G1 E-1.07902 F2100
G1 Z.6 F720
G1 X137.687 Y94.794 F10800
G1 Z.2 F720
G1 E6 F2100
M204 S800
;TYPE:Perimeter
;WIDTH:0.419999
G1 F1200
G1 X137.413 Y94.955 E.00996
G1 X136.927 Y95.096 E.01587
G1 X136.417 Y95.08 E.016
G1 X135.929 Y94.938 E.01594
G1 X135.506 Y94.65 E.01605
G1 X135.172 Y94.27 E.01586
G1 X134.974 Y93.819 E.01544
G1 X134.913 Y93.469 E.01114
G1 X134.923 Y93.001 E.01468
G1 X135.062 Y92.529 E.01543
G1 X135.35 Y92.106 E.01605
G1 X135.73 Y91.772 E.01586
G1 X136.181 Y91.574 E.01544
G1 X136.531 Y91.513 E.01114
G1 X136.999 Y91.523 E.01468
G1 X137.471 Y91.662 E.01543
G1 X137.894 Y91.95 E.01605
G1 X138.228 Y92.33 E.01586
G1 X138.426 Y92.781 E.01544
G1 X138.487 Y93.131 E.01114
G1 X138.477 Y93.599 E.01468
G1 X138.341 Y94.063 E.01516
G1 X138.089 Y94.46 E.01474
G1 X137.854 Y94.695 E.01042
G1 X137.738 Y94.763 E.00422
M204 S1000
G1 X137.877 Y95.127 F10800
M204 S800
;TYPE:External perimeter
G1 F1200
G1 X137.571 Y95.297 E.01098
G1 X137.179 Y95.426 E.01294
G1 X136.771 Y95.478 E.0129
G1 X136.361 Y95.453 E.01288
G1 X135.963 Y95.351 E.01288
G1 X135.592 Y95.177 E.01285
G1 X135.26 Y94.936 E.01286
G1 X134.98 Y94.638 E.01282
G1 X134.75 Y94.274 E.0135
G1 X134.551 Y93.713 E.01866
G1 X134.516 Y93.16 E.01737
G1 X134.644 Y92.578 E.01868
G1 X134.821 Y92.196 E.0132
G1 X135.063 Y91.861 E.01296
G1 X135.362 Y91.58 E.01287
G1 X135.726 Y91.35 E.0135
G1 X136.287 Y91.151 E.01866
G1 X136.62 Y91.13 E.01046
G1 X137.058 Y91.15 E.01375
G1 X137.632 Y91.319 E.01876
G1 X137.987 Y91.529 E.01293
G1 X138.296 Y91.802 E.01293
G1 X138.548 Y92.127 E.01289
G1 X138.788 Y92.676 E.01879
G1 X138.87 Y93.22 E.01725
G1 X138.85 Y93.658 E.01375
G1 X138.682 Y94.23 E.01869
G1 X138.385 Y94.697 E.01735
G1 X137.929 Y95.098 E.01904
M204 S1000
G1 X137.559 Y94.982 F10800
;WIPE_START
G1 F8640
G1 X137.571 Y95.297 E-.09458
G1 X137.179 Y95.426 E-.09529
G1 X136.771 Y95.478 E-.09497
G1 X136.361 Y95.453 E-.09485
G1 X135.963 Y95.351 E-.09487
G1 X135.592 Y95.177 E-.09462
G1 X135.26 Y94.936 E-.09473
G1 X134.98 Y94.638 E-.09442
G1 X134.75 Y94.274 E-.09942
G1 X134.551 Y93.713 E-.13744
G1 X134.516 Y93.16 E-.12794
G1 X134.644 Y92.578 E-.1376
G1 X134.821 Y92.196 E-.09721
G1 X135.063 Y91.861 E-.09542
G1 X135.362 Y91.58 E-.09474
G1 X135.726 Y91.35 E-.09942
G1 X136.287 Y91.151 E-.13744
G1 X136.62 Y91.13 E-.07704
G1 X137.058 Y91.15 E-.10124
G1 X137.632 Y91.319 E-.13816
G1 X137.987 Y91.529 E-.09524
G1 X138.296 Y91.802 E-.09521
G1 X138.548 Y92.127 E-.09496
G1 X138.788 Y92.676 E-.13835
G1 X138.87 Y93.22 E-.12703
G1 X138.85 Y93.658 E-.10124
G1 X138.682 Y94.23 E-.13766
G1 X138.385 Y94.697 E-.12779
G1 X137.929 Y95.098 E-.14021
;WIPE_END
G1 E-2.84091 F2100
G1 Z.6 F720
G1 X138.256 Y92.805 F10800
G1 Z.2 F720
G1 E6 F2100
M204 S800
;TYPE:Solid infill
;WIDTH:0.457392
G1 F1200
G1 X137.561 Y92.11 E.03387
G1 X137.326 Y91.971 E.00941
G1 X137.065 Y91.877 E.00956
G1 X136.806 Y91.836 E.00904
G1 X136.707 Y91.842 E.00342
G1 X138.157 Y93.292 E.07067
G1 X138.164 Y93.406 E.00394
G1 X138.123 Y93.665 E.00904
G1 X138.076 Y93.797 E.00483
G1 X136.201 Y91.922 E.09139
G1 X135.913 Y92.059 E.01099
G1 X135.822 Y92.129 E.00396
G1 X137.868 Y94.175 E.09972
G1 X137.822 Y94.247 E.00294
G1 X137.578 Y94.472 E.01144
G1 X135.526 Y92.419 E.10004
G1 X135.371 Y92.674 E.01028
G1 X135.324 Y92.803 E.00473
G1 X137.199 Y94.678 E.09139
G1 X136.884 Y94.758 E.0112
G1 X136.698 Y94.764 E.00641
G1 X135.243 Y93.308 E.07094
G1 X135.261 Y93.589 E.0097
G1 X135.334 Y93.841 E.00904
G1 X135.459 Y94.087 E.00951
G1 X135.541 Y94.193 E.00462
G1 X136.205 Y94.857 E.03236
M204 S1000
;WIPE_START
G1 F8640
G1 X135.541 Y94.193 E-.21683
G1 X135.459 Y94.087 E-.03094
G1 X135.334 Y93.841 E-.06371
G1 X135.261 Y93.589 E-.06058
G1 X135.243 Y93.308 E-.06502
G1 X136.698 Y94.764 E-.47529
G1 X136.884 Y94.758 E-.04297
G1 X137.199 Y94.678 E-.07504
G1 X135.324 Y92.803 E-.61227
G1 X135.371 Y92.674 E-.0317
G1 X135.526 Y92.419 E-.0689
G1 X137.578 Y94.472 E-.67024
G1 X137.822 Y94.247 E-.07664
G1 X137.868 Y94.175 E-.01973
G1 X135.822 Y92.129 E-.66811
G1 X135.913 Y92.059 E-.02651
G1 X136.201 Y91.922 E-.07364
G1 X138.076 Y93.797 E-.61227
G1 X138.123 Y93.665 E-.03235
G1 X138.164 Y93.406 E-.06055
G1 X138.157 Y93.292 E-.02637
G1 X136.707 Y91.842 E-.47349
G1 X136.806 Y91.836 E-.0229
G1 X137.065 Y91.877 E-.06055
G1 X137.326 Y91.971 E-.06406
G1 X137.561 Y92.11 E-.06304
G1 X138.256 Y92.805 E-.22695
;WIPE_END
G1 E-1.07935 F2100
G1 Z.6 F720
G1 X137.572 Y102.686 F10800
G1 Z.2 F720
G1 E6 F2100
M204 S800
;TYPE:Perimeter
;WIDTH:0.419999
G1 F1200
G1 X137.091 Y102.859 E.01603
G1 X136.586 Y102.907 E.01591
G1 X136.088 Y102.795 E.016
G1 X135.636 Y102.564 E.01592
G1 X135.28 Y102.21 E.01574
G1 X135.021 Y101.774 E.0159
G1 X134.904 Y101.318 E.01476
G1 X134.893 Y100.986 E.01042
G1 X135.006 Y100.486 E.01607
G1 X135.236 Y100.036 E.01585
G1 X135.59 Y99.68 E.01574
G1 X136.026 Y99.421 E.0159
G1 X136.482 Y99.304 E.01476
G1 X136.988 Y99.321 E.01587
G1 X137.471 Y99.462 E.01578
G1 X137.894 Y99.75 E.01605
G1 X138.228 Y100.13 E.01586
G1 X138.426 Y100.581 E.01544
G1 X138.487 Y100.931 E.01114
G1 X138.505 Y101.222 E.00914
G1 X138.401 Y101.694 E.01515
G1 X138.245 Y102.014 E.01116
G1 X137.962 Y102.386 E.01466
G1 X137.62 Y102.65 E.01355
M204 S1000
G1 X137.762 Y102.991 F10800
M204 S800
;TYPE:External perimeter
G1 F1200
G1 X137.571 Y103.097 E.00685
G1 X137.179 Y103.226 E.01294
G1 X136.771 Y103.278 E.0129
G1 X136.361 Y103.253 E.01288
G1 X135.963 Y103.151 E.01288
G1 X135.593 Y102.977 E.01282
G1 X135.261 Y102.737 E.01284
G1 X134.968 Y102.422 E.01349
G1 X134.666 Y101.908 E.01869
G1 X134.528 Y101.372 E.01735
G1 X134.545 Y100.776 E.01869
G1 X134.647 Y100.368 E.01319
G1 X134.823 Y99.994 E.01296
G1 X135.063 Y99.661 E.01287
G1 X135.378 Y99.368 E.01349
G1 X135.892 Y99.066 E.01869
G1 X136.215 Y98.983 E.01046
G1 X136.649 Y98.921 E.01375
G1 X137.244 Y98.98 E.01875
G1 X137.632 Y99.119 E.01292
G1 X137.987 Y99.329 E.01293
G1 X138.296 Y99.602 E.01293
G1 X138.548 Y99.927 E.01289
G1 X138.788 Y100.476 E.01879
G1 X138.87 Y101.02 E.01725
G1 X138.85 Y101.458 E.01375
G1 X138.682 Y102.03 E.01869
G1 X138.385 Y102.497 E.01735
G1 X137.939 Y102.893 E.0187
G1 X137.815 Y102.962 E.00445
M204 S1000
G1 X137.569 Y102.889 F10800
;WIPE_START
G1 F8640
G1 X137.571 Y103.097 E-.06439
G1 X137.179 Y103.226 E-.09529
G1 X136.771 Y103.278 E-.09497
G1 X136.361 Y103.253 E-.09485
G1 X135.963 Y103.151 E-.09487
G1 X135.593 Y102.977 E-.09441
G1 X135.261 Y102.737 E-.09459
G1 X134.968 Y102.422 E-.09933
G1 X134.666 Y101.908 E-.13765
G1 X134.528 Y101.372 E-.1278
G1 X134.545 Y100.776 E-.13767
G1 X134.647 Y100.368 E-.09711
G1 X134.823 Y99.994 E-.09544
G1 X135.063 Y99.661 E-.09478
G1 X135.378 Y99.368 E-.09933
G1 X135.892 Y99.066 E-.13765
G1 X136.215 Y98.983 E-.077
G1 X136.649 Y98.921 E-.10123
G1 X137.244 Y98.98 E-.13806
G1 X137.632 Y99.119 E-.09517
G1 X137.987 Y99.329 E-.09524
G1 X138.296 Y99.602 E-.09521
G1 X138.548 Y99.927 E-.09496
G1 X138.788 Y100.476 E-.13835
G1 X138.87 Y101.02 E-.12703
G1 X138.85 Y101.458 E-.10124
G1 X138.682 Y102.03 E-.13766
G1 X138.385 Y102.497 E-.12779
G1 X137.939 Y102.893 E-.13772
G1 X137.815 Y102.962 E-.03277
;WIPE_END
G1 E-2.84044 F2100
G1 Z.6 F720
G1 X137.194 Y99.543 F10800
G1 Z.2 F720
G1 E6 F2100
M204 S800
;TYPE:Solid infill
;WIDTH:0.457392
G1 F1200
G1 X137.859 Y100.208 E.03241
G1 X137.941 Y100.313 E.00459
M73 P1 R45
G1 X138.066 Y100.559 E.00951
G1 X138.139 Y100.811 E.00904
G1 X138.157 Y101.092 E.0097
G1 X136.702 Y99.636 E.07094
G1 X136.53 Y99.642 E.00593
G1 X136.205 Y99.725 E.01156
G1 X138.076 Y101.597 E.09121
G1 X138.034 Y101.712 E.00422
G1 X137.868 Y101.975 E.01072
G1 X135.822 Y99.929 E.09972
G1 X135.694 Y100.029 E.0056
G1 X135.526 Y100.219 E.00874
G1 X137.578 Y102.272 E.10004
G1 X137.408 Y102.388 E.00709
G1 X137.199 Y102.478 E.00784
G1 X135.324 Y100.603 E.09139
G1 X135.277 Y100.735 E.00483
G1 X135.234 Y101.008 E.00952
G1 X135.237 Y101.102 E.00324
G1 X136.698 Y102.564 E.07123
G1 X136.608 Y102.566 E.0031
M73 Q1 S48
G1 X136.335 Y102.523 E.00952
G1 X136.074 Y102.429 E.00956
G1 X135.838 Y102.29 E.00944
G1 X135.152 Y101.604 E.03343
M204 S1000
;WIPE_START
G1 F8640
G1 X135.838 Y102.29 E-.22401
G1 X136.074 Y102.429 E-.06324
G1 X136.335 Y102.523 E-.06406
G1 X136.608 Y102.566 E-.06381
G1 X136.698 Y102.564 E-.02079
G1 X135.237 Y101.102 E-.47725
G1 X135.234 Y101.008 E-.02172
G1 X135.277 Y100.735 E-.06381
G1 X135.324 Y100.603 E-.03235
G1 X137.199 Y102.478 E-.61227
G1 X137.408 Y102.388 E-.05254
G1 X137.578 Y102.272 E-.04752
G1 X135.526 Y100.219 E-.67024
G1 X135.694 Y100.029 E-.05856
G1 X135.822 Y99.929 E-.03751
G1 X137.868 Y101.975 E-.66811
G1 X138.034 Y101.712 E-.07181
G1 X138.076 Y101.597 E-.02827
G1 X136.205 Y99.725 E-.61113
G1 X136.53 Y99.642 E-.07745
G1 X136.702 Y99.636 E-.03974
G1 X138.157 Y101.092 E-.47529
G1 X138.139 Y100.811 E-.06502
G1 X138.066 Y100.559 E-.06058
G1 X137.941 Y100.313 E-.06371
G1 X137.859 Y100.208 E-.03076
G1 X137.194 Y99.543 E-.21715
;WIPE_END
G1 E-1.0813 F2100
G1 Z.6 F720
