; generated by PrusaSlicer 2.7.1+win64 on 2024-07-18 at 20:56:49 UTC


;
;
; 

; external perimeters extrusion width = 0.60mm
; perimeters extrusion width = 0.50mm
; infill extrusion width = 0.50mm
; solid infill extrusion width = 0.50mm
; top infill extrusion width = 0.45mm
; support material extrusion width = 0.38mm
; first layer extrusion width = 0.42mm

M73 P0 R58
M73 Q0 S59
M201 X1000 Y1000 Z200 E5000 ; sets maximum accelerations, mm/sec^2
M203 X200 Y200 Z12 E120 ; sets maximum feedrates, mm / sec
M204 S1250 T1250 ; sets acceleration (S) and retract acceleration (R), mm/sec^2
M205 X8.00 Y8.00 Z0.40 E4.50 ; sets the jerk limits, mm/sec
M205 S0 T0 ; sets the minimum extruding and travel feed rate, mm/sec

; printing object CameraHolderOutside.stl id:0 copy 0
; stop printing object CameraHolderOutside.stl id:0 copy 0

;TYPE:Custom
M862.3 P "MK3S" ; printer model check
M862.1 P0.4 ; nozzle diameter check
G90 ; use absolute coordinates
M83 ; extruder relative mode
M104 S215 ; set extruder temp
M140 S60 ; set bed temp
M190 S60 ; wait for bed temp
M109 S215 ; wait for extruder temp
G28 W ; home all without mesh bed level
G80 ; mesh bed leveling

G1 Z0.2 F720
G1 Y-3 F1000 ; go outside print area
G92 E0
G1 X60 E9 F1000 ; intro line
G1 X100 E12.5 F1000 ; intro line

G92 E0
M221 S95

; Don't change E values below. Excessive value can damage the printer.

M907 E538 ; set extruder motor current
G21 ; set units to millimeters
G90 ; use absolute coordinates
M83 ; use relative distances for extrusion
M900 K0.05 ; Filament gcode LA 1.5
M900 K30 ; Filament gcode LA 1.0
M107
;LAYER_CHANGE
;Z:0.2
;HEIGHT:0.2
;BEFORE_LAYER_CHANGE
G92 E0.0
;0.2


G1 E-.8 F2100
G1 Z.2 F720
;AFTER_LAYER_CHANGE
;0.2
G1 X100.966 Y85.222 F10800
G1 Z.2 F720
G1 E.8 F2100
M204 S800
;TYPE:Skirt/Brim
;WIDTH:0.42
G1 F1200
G1 X102.235 Y83.774 E.06037
G1 X103.639 Y82.361 E.06246
G1 X105.102 Y81.065 E.06128
G1 X106.76 Y79.778 E.06581
G1 X108.254 Y78.763 E.05663
G1 X109.94 Y77.76 E.06151
G1 X111.815 Y76.805 E.06598
G1 X113.472 Y76.087 E.05662
G1 X115.153 Y75.477 E.05607
G1 X117.187 Y74.871 E.06654
G1 X119.241 Y74.411 E.066
G1 X121.173 Y74.11 E.06131
G1 X122.971 Y73.94 E.05663
G1 X125.075 Y73.874 E.066
G1 X126.88 Y73.931 E.05662
M73 P0 R57
G1 X128.827 Y74.11 E.0613
G1 X130.906 Y74.439 E.066
G1 X132.668 Y74.833 E.05661
G1 X134.547 Y75.374 E.06131
G1 X136.528 Y76.087 E.06601
G1 X138.185 Y76.805 E.05662
G1 X139.93 Y77.688 E.06132
G1 X141.736 Y78.757 E.0658
G1 X143.356 Y79.863 E.0615
G1 X144.783 Y80.97 E.05663
G1 X146.253 Y82.259 E.0613
G1 X147.639 Y83.638 E.0613
G1 X148.935 Y85.102 E.0613
G1 X150.137 Y86.644 E.0613
G1 X151.303 Y88.356 E.06495
G1 X159.492 Y101.76 E.4925
G1 X160.06 Y103.055 E.04434
G1 X160.221 Y103.655 E.01948
G1 X160.357 Y104.69 E.03273
G1 X160.357 Y105.31 E.01944
G1 X160.221 Y106.345 E.03273
G1 X160.06 Y106.945 E.01948
G1 X159.492 Y108.24 E.04434
G1 X151.24 Y121.741 E.49612
G1 X150.137 Y123.356 E.06132
G1 X148.935 Y124.898 E.0613
G1 X147.639 Y126.362 E.0613
G1 X146.362 Y127.639 E.05662
G1 X144.898 Y128.935 E.0613
G1 X143.235 Y130.225 E.06599
G1 X141.741 Y131.24 E.05663
G1 X140.06 Y132.24 E.06133
G1 X138.185 Y133.195 E.06598
G1 X136.389 Y133.968 E.06131
G1 X134.689 Y134.579 E.05664
G1 X132.668 Y135.167 E.06599
G1 X130.906 Y135.561 E.05661
G1 X128.975 Y135.871 E.06132
G1 X127.029 Y136.06 E.0613
G1 X124.925 Y136.126 E.066
G1 X123.12 Y136.069 E.05662
G1 X121.173 Y135.89 E.0613
G1 X119.094 Y135.561 E.066
G1 X117.332 Y135.167 E.05661
M73 Q0 S58
G1 X115.453 Y134.626 E.06131
G1 X113.472 Y133.913 E.06601
G1 X111.684 Y133.134 E.06115
G1 X110.076 Y132.315 E.05658
G1 X108.265 Y131.244 E.06597
G1 X106.644 Y130.138 E.06153
G1 X105.217 Y129.03 E.05665
G1 X103.747 Y127.741 E.0613
G1 X102.361 Y126.362 E.0613
G1 X101.065 Y124.898 E.0613
G1 X99.863 Y123.356 E.0613
G1 X98.7 Y121.649 E.06476
G1 X90.508 Y108.24 E.49268
G1 X89.941 Y106.947 E.04427
G1 X89.781 Y106.349 E.01941
G1 X89.643 Y105.312 E.0328
G1 X89.643 Y104.69 E.0195
G1 X89.891 Y103.187 E.04776
G1 X90.508 Y101.76 E.04875
G1 X98.76 Y88.259 E.49612
G1 X99.859 Y86.649 E.06112
G1 X100.929 Y85.269 E.05475
M204 S1000
; printing object CameraHolderOutside.stl id:0 copy 0
;WIPE_START
G1 F8640
G1 X100.966 Y85.222 E-.01381
G1 X102.235 Y83.774 E-.44457
G1 X103.277 Y82.725 E-.34162
;WIPE_END
G1 Z.6 F720
G1 X97.081 Y101.621 F10800
G1 Z.2 F720
G1 E.8 F2100
M204 S800
;TYPE:Perimeter
;WIDTH:0.419999
G1 F1200
G1 X97.185 Y101.53 E.00433
G1 X97.293 Y101.277 E.00863
G1 X97.533 Y99.76 E.04816
G1 X97.916 Y98.046 E.05507
G1 X98.406 Y96.359 E.05508
G1 X99.001 Y94.706 E.05508
G1 X99.699 Y93.094 E.05508
G1 X100.496 Y91.529 E.05507
G1 X101.39 Y90.017 E.05507
G1 X102.378 Y88.564 E.05509
G1 X103.455 Y87.176 E.05508
G1 X104.616 Y85.858 E.05507
G1 X105.858 Y84.616 E.05507
G1 X107.176 Y83.455 E.05507
G1 X108.564 Y82.378 E.05508
G1 X110.017 Y81.39 E.05509
G1 X111.529 Y80.496 E.05507
G1 X113.094 Y79.699 E.05507
G1 X114.706 Y79.001 E.05508
G1 X116.359 Y78.406 E.05508
G1 X118.046 Y77.916 E.05508
G1 X119.741 Y77.537 E.05446
G1 X121.496 Y77.258 E.05572
G1 X123.244 Y77.093 E.05505
G1 X125 Y77.037 E.05509
G1 X126.756 Y77.093 E.05509
G1 X128.505 Y77.258 E.05508
G1 X130.24 Y77.533 E.05508
G1 X131.954 Y77.916 E.05507
G1 X133.622 Y78.401 E.05446
G1 X135.294 Y79.001 E.0557
G1 X136.906 Y79.699 E.05508
G1 X138.471 Y80.496 E.05507
G1 X139.983 Y81.39 E.05507
G1 X141.436 Y82.378 E.05509
G1 X142.824 Y83.455 E.05508
G1 X144.142 Y84.616 E.05507
G1 X145.384 Y85.858 E.05507
G1 X146.545 Y87.176 E.05507
G1 X147.622 Y88.564 E.05508
G1 X148.61 Y90.017 E.05509
G1 X149.504 Y91.529 E.05507
G1 X150.301 Y93.094 E.05507
G1 X150.999 Y94.706 E.05508
G1 X151.594 Y96.359 E.05508
G1 X152.084 Y98.046 E.05508
G1 X152.467 Y99.76 E.05507
G1 X152.707 Y101.277 E.04816
G1 X152.779 Y101.476 E.00664
G1 X152.988 Y101.681 E.00918
G1 X153.266 Y101.754 E.00901
G1 X154.415 Y101.754 E.03603
G1 X154.494 Y101.855 E.00402
G1 X154.829 Y101.903 E.01061
G1 X155.603 Y102.224 E.02627
G1 X156.267 Y102.733 E.02623
G1 X156.776 Y103.397 E.02623
G1 X157.097 Y104.171 E.02627
G1 X157.152 Y104.585 E.01309
G1 X157.206 Y105 E.01312
G1 X157.097 Y105.829 E.02622
G1 X156.776 Y106.603 E.02627
G1 X156.267 Y107.267 E.02623
G1 X155.603 Y107.776 E.02623
G1 X154.829 Y108.097 E.02627
G1 X154.536 Y108.136 E.00927
G1 X154.415 Y108.246 E.00513
G1 X153.266 Y108.246 E.03603
G1 X152.988 Y108.319 E.00901
G1 X152.815 Y108.47 E.0072
G1 X152.707 Y108.723 E.00863
G1 X152.467 Y110.24 E.04816
G1 X152.084 Y111.954 E.05507
G1 X151.594 Y113.641 E.05508
G1 X150.999 Y115.294 E.05508
G1 X150.301 Y116.906 E.05508
G1 X149.504 Y118.471 E.05507
G1 X148.61 Y119.983 E.05507
G1 X147.622 Y121.436 E.05509
G1 X146.545 Y122.824 E.05508
G1 X145.384 Y124.142 E.05507
G1 X144.142 Y125.384 E.05507
G1 X142.824 Y126.545 E.05507
G1 X141.436 Y127.622 E.05508
G1 X139.983 Y128.61 E.05509
G1 X138.471 Y129.504 E.05507
G1 X136.906 Y130.301 E.05507
G1 X135.294 Y130.999 E.05508
G1 X133.641 Y131.594 E.05508
G1 X131.954 Y132.084 E.05508
G1 X130.24 Y132.467 E.05507
G1 X128.505 Y132.742 E.05508
G1 X126.756 Y132.907 E.05508
G1 X125 Y132.963 E.05509
G1 X123.244 Y132.907 E.05509
G1 X121.495 Y132.742 E.05508
G1 X119.76 Y132.467 E.05508
G1 X118.046 Y132.084 E.05507
G1 X116.359 Y131.594 E.05508
G1 X114.706 Y130.999 E.05508
G1 X113.094 Y130.301 E.05508
G1 X111.529 Y129.504 E.05507
G1 X110.017 Y128.61 E.05507
G1 X108.564 Y127.622 E.05509
G1 X107.176 Y126.545 E.05508
G1 X105.858 Y125.384 E.05507
G1 X104.616 Y124.142 E.05507
G1 X103.455 Y122.824 E.05507
G1 X102.378 Y121.436 E.05508
G1 X101.39 Y119.983 E.05509
G1 X100.496 Y118.471 E.05507
G1 X99.699 Y116.906 E.05507
G1 X99.001 Y115.294 E.05508
G1 X98.406 Y113.641 E.05508
G1 X97.916 Y111.954 E.05508
G1 X97.533 Y110.24 E.05507
G1 X97.293 Y108.723 E.04816
G1 X97.221 Y108.524 E.00664
G1 X97.012 Y108.319 E.00918
G1 X96.734 Y108.246 E.00901
G1 X95.585 Y108.246 E.03603
G1 X95.506 Y108.145 E.00402
G1 X95.171 Y108.097 E.01061
G1 X94.397 Y107.776 E.02627
G1 X93.733 Y107.267 E.02623
G1 X93.224 Y106.603 E.02623
G1 X92.903 Y105.829 E.02627
G1 X92.794 Y105 E.02622
G1 X92.903 Y104.171 E.02622
G1 X93.224 Y103.397 E.02627
G1 X93.733 Y102.733 E.02623
G1 X94.397 Y102.224 E.02623
G1 X95.171 Y101.903 E.02627
G1 X95.464 Y101.864 E.00927
G1 X95.585 Y101.754 E.00513
G1 X96.734 Y101.754 E.03603
G1 X97.012 Y101.681 E.00901
G1 X97.036 Y101.66 E.001
M204 S1000
G1 X96.847 Y101.339 F10800
M204 S800
;TYPE:External perimeter
G1 F1200
G1 X96.92 Y101.218 E.00443
G1 X97.162 Y99.69 E.04851
G1 X97.551 Y97.952 E.05584
G1 X98.047 Y96.243 E.0558
G1 X98.65 Y94.567 E.05585
G1 X99.357 Y92.934 E.05579
G1 X100.166 Y91.347 E.05585
G1 X101.072 Y89.815 E.05581
G1 X102.073 Y88.342 E.05584
G1 X103.164 Y86.936 E.0558
G1 X104.341 Y85.6 E.05583
G1 X105.6 Y84.341 E.05583
G1 X106.936 Y83.164 E.05583
G1 X108.342 Y82.073 E.0558
G1 X109.815 Y81.072 E.05584
G1 X111.347 Y80.166 E.05581
G1 X112.934 Y79.357 E.05585
G1 X114.567 Y78.65 E.05579
G1 X116.243 Y78.047 E.05585
G1 X117.952 Y77.551 E.0558
G1 X119.671 Y77.166 E.05523
G1 X121.448 Y76.884 E.05641
G1 X123.221 Y76.716 E.05584
G1 X125 Y76.66 E.05581
G1 X126.779 Y76.716 E.05581
G1 X128.552 Y76.884 E.05584
G1 X130.31 Y77.162 E.05581
G1 X132.048 Y77.551 E.05584
G1 X133.739 Y78.042 E.05521
G1 X135.433 Y78.65 E.05643
G1 X137.066 Y79.357 E.05579
G1 X138.653 Y80.166 E.05585
G1 X140.185 Y81.072 E.05581
G1 X141.658 Y82.073 E.05584
G1 X143.064 Y83.164 E.0558
G1 X144.4 Y84.341 E.05583
G1 X145.659 Y85.6 E.05583
G1 X146.836 Y86.936 E.05583
G1 X147.927 Y88.342 E.0558
G1 X148.928 Y89.815 E.05584
G1 X149.834 Y91.347 E.05581
G1 X150.643 Y92.934 E.05585
G1 X151.35 Y94.567 E.05579
G1 X151.953 Y96.243 E.05585
G1 X152.449 Y97.952 E.0558
G1 X152.838 Y99.69 E.05584
G1 X153.08 Y101.218 E.04851
G1 X153.125 Y101.313 E.0033
G1 X153.266 Y101.377 E.00486
G1 X154.499 Y101.377 E.03866
G1 X154.587 Y101.489 E.00447
G1 X154.928 Y101.536 E.01079
G1 X155.794 Y101.894 E.02938
G1 X156.536 Y102.464 E.02934
G1 X157.106 Y103.206 E.02934
G1 X157.464 Y104.072 E.02938
G1 X157.525 Y104.536 E.01467
G1 X157.586 Y105 E.01467
G1 X157.464 Y105.928 E.02935
G1 X157.106 Y106.794 E.02938
G1 X156.536 Y107.536 E.02934
G1 X155.794 Y108.106 E.02934
G1 X154.928 Y108.464 E.02938
G1 X154.609 Y108.506 E.01009
G1 X154.499 Y108.623 E.00504
G1 X153.266 Y108.623 E.03866
G1 X153.153 Y108.661 E.00374
G1 X153.08 Y108.782 E.00443
G1 X152.838 Y110.31 E.04851
G1 X152.449 Y112.048 E.05584
G1 X151.953 Y113.758 E.05583
G1 X151.35 Y115.433 E.05582
G1 X150.643 Y117.066 E.05579
G1 X149.834 Y118.653 E.05585
G1 X148.928 Y120.185 E.05581
G1 X147.927 Y121.658 E.05584
G1 X146.836 Y123.064 E.0558
G1 X145.659 Y124.4 E.05583
G1 X144.4 Y125.659 E.05583
G1 X143.064 Y126.836 E.05583
G1 X141.658 Y127.927 E.0558
G1 X140.185 Y128.928 E.05584
G1 X138.653 Y129.834 E.05581
G1 X137.066 Y130.643 E.05585
G1 X135.433 Y131.35 E.05579
G1 X133.757 Y131.953 E.05585
G1 X132.048 Y132.449 E.0558
G1 X130.31 Y132.838 E.05584
G1 X128.552 Y133.116 E.05581
G1 X126.779 Y133.284 E.05584
G1 X125 Y133.34 E.05581
G1 X123.221 Y133.284 E.05581
G1 X121.448 Y133.116 E.05584
G1 X119.69 Y132.838 E.05581
G1 X117.952 Y132.449 E.05584
G1 X116.243 Y131.953 E.0558
G1 X114.567 Y131.35 E.05585
G1 X112.934 Y130.643 E.05579
G1 X111.347 Y129.834 E.05585
G1 X109.815 Y128.928 E.05581
G1 X108.342 Y127.927 E.05584
G1 X106.936 Y126.836 E.0558
G1 X105.6 Y125.659 E.05583
G1 X104.341 Y124.4 E.05583
M73 P1 R57
G1 X103.164 Y123.064 E.05583
G1 X102.073 Y121.658 E.0558
G1 X101.072 Y120.185 E.05584
G1 X100.166 Y118.653 E.05581
M73 Q1 S58
G1 X99.357 Y117.066 E.05585
G1 X98.65 Y115.433 E.05579
G1 X98.047 Y113.757 E.05585
G1 X97.551 Y112.048 E.0558
G1 X97.162 Y110.31 E.05584
G1 X96.92 Y108.782 E.04851
G1 X96.875 Y108.687 E.0033
G1 X96.734 Y108.623 E.00486
G1 X95.501 Y108.623 E.03866
G1 X95.413 Y108.511 E.00447
G1 X95.072 Y108.464 E.01079
G1 X94.206 Y108.106 E.02938
G1 X93.464 Y107.536 E.02934
G1 X92.894 Y106.794 E.02934
G1 X92.536 Y105.928 E.02938
G1 X92.414 Y105 E.02935
G1 X92.536 Y104.072 E.02935
G1 X92.894 Y103.206 E.02938
G1 X93.464 Y102.464 E.02934
G1 X94.206 Y101.894 E.02934
G1 X95.072 Y101.536 E.02938
G1 X95.391 Y101.494 E.01009
G1 X95.501 Y101.377 E.00504
G1 X96.734 Y101.377 E.03866
G1 X96.791 Y101.358 E.00188
M204 S1000
;WIPE_START
G1 F8640
G1 X96.847 Y101.339 E-.01365
G1 X96.92 Y101.218 E-.03263
G1 X97.162 Y99.69 E-.35722
G1 X97.537 Y98.014 E-.3965
;WIPE_END
G1 Z.6 F720
G1 X117.14 Y97.613 F10800
G1 Z.2 F720
G1 E.8 F2100
M204 S800
;TYPE:Perimeter
G1 F1200
G1 X117.603 Y97.149 E.02055
G1 X118.11 Y96.7 E.02123
G1 X118.645 Y96.284 E.02125
G1 X119.205 Y95.902 E.02125
G1 X119.788 Y95.556 E.02126
G1 X120.391 Y95.247 E.02124
G1 X121.04 Y94.967 E.02216
G1 X121.65 Y94.747 E.02033
G1 X122.3 Y94.556 E.02124
G1 X122.996 Y94.401 E.02236
G1 X123.63 Y94.3 E.02013
G1 X124.305 Y94.236 E.02126
G1 X124.982 Y94.213 E.02124
G1 X125.66 Y94.233 E.02127
G1 X126.334 Y94.296 E.02122
G1 X127.004 Y94.401 E.02126
G1 X127.665 Y94.548 E.02123
G1 X128.316 Y94.736 E.02125
G1 X128.954 Y94.964 E.02124
G1 X129.577 Y95.232 E.02126
G1 X130.181 Y95.539 E.02124
G1 X130.765 Y95.883 E.02125
G1 X131.326 Y96.263 E.02125
G1 X131.862 Y96.677 E.02124
G1 X132.371 Y97.125 E.02126
G1 X132.851 Y97.603 E.02124
G1 X133.3 Y98.11 E.02123
G1 X133.716 Y98.645 E.02125
G1 X134.098 Y99.205 E.02125
G1 X134.444 Y99.788 E.02126
G1 X134.753 Y100.391 E.02124
G1 X135.023 Y101.013 E.02126
G1 X135.253 Y101.65 E.02123
G1 X135.444 Y102.3 E.02124
G1 X135.593 Y102.961 E.02125
G1 X135.7 Y103.63 E.02124
G1 X135.765 Y104.305 E.02126
G1 X135.787 Y104.982 E.02124
G1 X135.767 Y105.66 E.02127
G1 X135.704 Y106.334 E.02122
G1 X135.599 Y107.004 E.02126
G1 X135.452 Y107.665 E.02123
G1 X135.264 Y108.316 E.02125
G1 X135.036 Y108.954 E.02124
G1 X134.768 Y109.577 E.02126
G1 X134.461 Y110.181 E.02124
G1 X134.117 Y110.765 E.02125
G1 X133.737 Y111.326 E.02125
G1 X133.323 Y111.862 E.02124
G1 X132.875 Y112.371 E.02126
G1 X132.397 Y112.851 E.02124
G1 X131.89 Y113.3 E.02123
G1 X131.355 Y113.716 E.02125
G1 X130.795 Y114.098 E.02125
G1 X130.212 Y114.444 E.02126
G1 X129.609 Y114.753 E.02124
G1 X128.987 Y115.023 E.02126
G1 X128.35 Y115.253 E.02123
G1 X127.7 Y115.444 E.02124
G1 X127.039 Y115.593 E.02125
G1 X126.37 Y115.7 E.02124
G1 X125.695 Y115.765 E.02126
G1 X125.018 Y115.787 E.02124
G1 X124.34 Y115.767 E.02127
G1 X123.666 Y115.704 E.02122
G1 X122.996 Y115.599 E.02126
G1 X122.335 Y115.452 E.02123
G1 X121.684 Y115.264 E.02125
G1 X121.046 Y115.036 E.02124
G1 X120.423 Y114.768 E.02126
G1 X119.819 Y114.461 E.02124
G1 X119.235 Y114.117 E.02125
G1 X118.674 Y113.737 E.02125
G1 X118.138 Y113.323 E.02124
G1 X117.629 Y112.875 E.02126
G1 X117.149 Y112.397 E.02124
G1 X116.7 Y111.89 E.02123
G1 X116.284 Y111.355 E.02125
G1 X115.902 Y110.795 E.02125
G1 X115.556 Y110.212 E.02126
G1 X115.247 Y109.609 E.02124
G1 X114.977 Y108.987 E.02126
G1 X114.747 Y108.35 E.02123
G1 X114.556 Y107.7 E.02124
G1 X114.407 Y107.039 E.02125
G1 X114.3 Y106.37 E.02124
G1 X114.236 Y105.695 E.02126
G1 X114.213 Y105.018 E.02124
G1 X114.233 Y104.34 E.02127
G1 X114.296 Y103.666 E.02122
G1 X114.401 Y102.996 E.02126
G1 X114.548 Y102.335 E.02123
G1 X114.736 Y101.684 E.02125
G1 X114.964 Y101.046 E.02124
G1 X115.232 Y100.423 E.02126
G1 X115.539 Y99.819 E.02124
G1 X115.883 Y99.235 E.02125
G1 X116.263 Y98.674 E.02125
G1 X116.677 Y98.138 E.02124
G1 X117.1 Y97.657 E.02008
M204 S1000
G1 X117.411 Y97.874 F10800
M204 S800
;TYPE:External perimeter
G1 F1200
G1 X117.87 Y97.415 E.02035
G1 X118.36 Y96.983 E.02048
G1 X118.876 Y96.582 E.02049
G1 X119.417 Y96.214 E.02051
G1 X119.98 Y95.88 E.02053
G1 X120.562 Y95.583 E.02049
G1 X121.188 Y95.314 E.02136
G1 X121.778 Y95.101 E.01967
G1 X122.405 Y94.919 E.02047
G1 X123.055 Y94.773 E.02089
G1 X123.689 Y94.673 E.02012
G1 X124.34 Y94.611 E.0205
G1 X124.994 Y94.59 E.02052
G1 X125.648 Y94.61 E.02052
G1 X126.299 Y94.671 E.0205
G1 X126.945 Y94.773 E.02051
G1 X127.583 Y94.916 E.0205
G1 X128.211 Y95.098 E.0205
G1 X128.827 Y95.319 E.02052
G1 X129.427 Y95.578 E.02049
G1 X130.01 Y95.875 E.02051
G1 X130.573 Y96.207 E.02049
G1 X131.114 Y96.575 E.02051
G1 X131.631 Y96.975 E.0205
G1 X132.122 Y97.407 E.02051
G1 X132.585 Y97.87 E.02053
G1 X133.017 Y98.36 E.02048
